pkg/planetgen/color/luts/arid.cube
TITLE "arid archetype LUT"
LUT_3D_SIZE 6
0.000000 0.000000 0.000000
0.200000 0.000000 0.015686
0.400000 0.000000 0.031373
0.600000 0.000000 0.050980
0.800000 0.000000 0.066667
1.000000 0.000000 0.082353
0.015686 0.200000 0.000000
0.200000 0.184314 0.000000
0.400000 0.168627 0.000000
0.600000 0.149020 0.000000
0.800000 0.133333 0.000000
1.000000 0.117647 0.000000
0.031373 0.400000 0.000000
0.231373 0.400000 0.000000
0.400000 0.368627 0.000000
0.600000 0.349020 0.000000
0.800000 0.333333 0.000000
1.000000 0.317647 0.000000
0.050980 0.600000 0.000000
0.250980 0.600000 0.000000
0.450980 0.600000 0.000000
0.600000 0.549020 0.000000
0.800000 0.533333 0.000000
1.000000 0.517647 0.000000
0.066667 0.800000 0.000000
0.266667 0.800000 0.000000
0.466667 0.800000 0.000000
0.666667 0.800000 0.000000
0.800000 0.733333 0.000000
1.000000 0.717647 0.000000
0.082353 1.000000 0.000000
0.282353 1.000000 0.000000
0.482353 1.000000 0.000000
0.682353 1.000000 0.000000
0.882353 1.000000 0.000000
1.000000 0.917647 0.000000
0.000000 0.015686 0.200000
0.184314 0.000000 0.200000
0.400000 0.000000 0.231373
0.600000 0.000000 0.250980
0.800000 0.000000 0.266667
1.000000 0.000000 0.282353
0.000000 0.200000 0.184314
0.200000 0.200000 0.200000
0.400000 0.188235 0.207843
0.600000 0.180392 0.215686
0.800000 0.168627 0.223529
1.000000 0.160784 0.231373
0.000000 0.400000 0.164706
0.207843 0.400000 0.188235
0.400000 0.384314 0.188235
0.600000 0.356863 0.180392
0.800000 0.329412 0.168627
1.000000 0.298039 0.160784
0.000000 0.600000 0.149020
0.215686 0.600000 0.180392
0.423529 0.600000 0.180392
0.600000 0.564706 0.180392
0.800000 0.537255 0.168627
1.000000 0.509804 0.160784
0.000000 0.800000 0.133333
0.223529 0.800000 0.168627
0.431373 0.800000 0.168627
0.643137 0.800000 0.168627
0.800000 0.749020 0.168627
1.000000 0.721569 0.160784
0.000000 1.000000 0.117647
0.231373 1.000000 0.160784
0.439216 1.000000 0.160784
0.650980 1.000000 0.160784
0.858824 1.000000 0.160784
1.000000 0.929412 0.160784
0.000000 0.035294 0.400000
0.168627 0.000000 0.400000
0.368627 0.000000 0.400000
0.600000 0.000000 0.450980
0.800000 0.000000 0.466667
1.000000 0.000000 0.482353
0.000000 0.235294 0.400000
0.188235 0.207843 0.400000
0.384314 0.188235 0.400000
0.600000 0.180392 0.423529
0.800000 0.168627 0.431373
1.000000 0.160784 0.439216
0.000000 0.400000 0.368627
0.188235 0.400000 0.384314
0.400000 0.400000 0.400000
0.600000 0.388235 0.407843
0.800000 0.380392 0.415686
1.000000 0.368627 0.423529
0.000000 0.600000 0.349020
0.180392 0.600000 0.356863
0.407843 0.600000 0.388235
0.600000 0.584314 0.388235
0.800000 0.556863 0.380392
1.000000 0.529412 0.368627
0.000000 0.800000 0.333333
0.168627 0.800000 0.329412
0.415686 0.800000 0.380392
0.623529 0.800000 0.380392
0.800000 0.764706 0.380392
1.000000 0.737255 0.368627
0.000000 1.000000 0.317647
0.160784 1.000000 0.298039
0.423529 1.000000 0.368627
0.631373 1.000000 0.368627
0.843137 1.000000 0.368627
1.000000 0.949020 0.368627
0.000000 0.050980 0.600000
0.149020 0.000000 0.600000
0.349020 0.000000 0.600000
0.549020 0.000000 0.600000
0.800000 0.000000 0.666667
1.000000 0.000000 0.682353
0.000000 0.250980 0.600000
0.180392 0.215686 0.600000
0.356863 0.180392 0.600000
0.564706 0.180392 0.600000
0.800000 0.168627 0.643137
1.000000 0.160784 0.650980
0.000000 0.450980 0.600000
0.180392 0.423529 0.600000
0.388235 0.407843 0.600000
0.584314 0.388235 0.600000
0.800000 0.380392 0.623529
1.000000 0.368627 0.631373
0.000000 0.600000 0.549020
0.180392 0.600000 0.564706
0.388235 0.600000 0.584314
0.600000 0.600000 0.600000
0.800000 0.588235 0.607843
1.000000 0.580392 0.615686
0.000000 0.800000 0.533333
0.168627 0.800000 0.537255
0.380392 0.800000 0.556863
0.607843 0.800000 0.588235
0.800000 0.784314 0.588235
1.000000 0.756863 0.580392
0.000000 1.000000 0.517647
0.160784 1.000000 0.509804
0.368627 1.000000 0.529412
0.615686 1.000000 0.580392
0.823529 1.000000 0.580392
1.000000 0.964706 0.580392
0.000000 0.066667 0.800000
0.133333 0.000000 0.800000
0.333333 0.000000 0.800000
0.533333 0.000000 0.800000
0.733333 0.000000 0.800000
1.000000 0.000000 0.882353
0.000000 0.266667 0.800000
0.168627 0.223529 0.800000
0.329412 0.168627 0.800000
0.537255 0.168627 0.800000
0.749020 0.168627 0.800000
1.000000 0.160784 0.858824
0.000000 0.466667 0.800000
0.168627 0.431373 0.800000
0.380392 0.415686 0.800000
0.556863 0.380392 0.800000
0.764706 0.380392 0.800000
1.000000 0.368627 0.843137
0.000000 0.666667 0.800000
0.168627 0.643137 0.800000
0.380392 0.623529 0.800000
0.588235 0.607843 0.800000
0.784314 0.588235 0.800000
1.000000 0.580392 0.823529
0.000000 0.800000 0.733333
0.168627 0.800000 0.749020
0.380392 0.800000 0.764706
0.588235 0.800000 0.784314
0.800000 0.800000 0.800000
1.000000 0.788235 0.807843
0.000000 1.000000 0.717647
0.160784 1.000000 0.721569
0.368627 1.000000 0.737255
0.580392 1.000000 0.756863
0.807843 1.000000 0.788235
1.000000 0.984314 0.788235
0.000000 0.082353 1.000000
0.117647 0.000000 1.000000
0.317647 0.000000 1.000000
0.517647 0.000000 1.000000
0.717647 0.000000 1.000000
0.917647 0.000000 1.000000
0.000000 0.282353 1.000000
0.160784 0.231373 1.000000
0.301961 0.160784 1.000000
0.509804 0.160784 1.000000
0.721569 0.160784 1.000000
0.929412 0.160784 1.000000
0.000000 0.482353 1.000000
0.160784 0.439216 1.000000
0.368627 0.423529 1.000000
0.529412 0.368627 1.000000
0.737255 0.368627 1.000000
0.949020 0.368627 1.000000
0.000000 0.682353 1.000000
0.160784 0.650980 1.000000
0.368627 0.631373 1.000000
0.580392 0.615686 1.000000
0.756863 0.580392 1.000000
0.964706 0.580392 1.000000
0.000000 0.882353 1.000000
0.160784 0.858824 1.000000
0.368627 0.843137 1.000000
0.580392 0.823529 1.000000
0.788235 0.807843 1.000000
0.984314 0.788235 1.000000
0.000000 1.000000 0.917647
0.160784 1.000000 0.929412
0.368627 1.000000 0.949020
0.580392 1.000000 0.964706
0.788235 1.000000 0.984314
1.000000 1.000000 1.000000
