pkg/planetgen/color/luts/arid.cube
TITLE "arid archetype LUT"
LUT_3D_SIZE 16
0.000000 0.000000 0.000000
0.066667 0.000000 0.003922
0.133333 0.000000 0.011765
0.200000 0.000000 0.015686
0.266667 0.000000 0.023529
0.333333 0.000000 0.027451
0.400000 0.000000 0.031373
0.466667 0.000000 0.039216
0.533333 0.000000 0.043137
0.600000 0.000000 0.050980
0.666667 0.000000 0.054902
0.733333 0.000000 0.062745
0.800000 0.000000 0.066667
0.866667 0.000000 0.070588
0.933333 0.000000 0.078431
1.000000 0.000000 0.082353
0.003922 0.066667 0.000000
0.066667 0.062745 0.000000
0.133333 0.054902 0.000000
0.200000 0.050980 0.000000
0.266667 0.043137 0.000000
0.333333 0.039216 0.000000
0.400000 0.035294 0.000000
0.466667 0.027451 0.000000
0.533333 0.023529 0.000000
0.600000 0.015686 0.000000
0.666667 0.011765 0.000000
0.733333 0.003922 0.000000
0.800000 0.000000 0.000000
0.866667 0.000000 0.003922
0.933333 0.000000 0.011765
1.000000 0.000000 0.015686
0.011765 0.133333 0.000000
0.078431 0.133333 0.000000
0.133333 0.121569 0.000000
0.200000 0.117647 0.000000
0.266667 0.109804 0.000000
0.333333 0.105882 0.000000
0.400000 0.101961 0.000000
0.466667 0.094118 0.000000
0.533333 0.090196 0.000000
0.600000 0.082353 0.000000
0.666667 0.078431 0.000000
0.733333 0.070588 0.000000
0.800000 0.066667 0.000000
0.866667 0.062745 0.000000
0.933333 0.054902 0.000000
1.000000 0.050980 0.000000
0.015686 0.200000 0.000000
0.082353 0.200000 0.000000
0.149020 0.200000 0.000000
0.200000 0.184314 0.000000
0.266667 0.176471 0.000000
0.333333 0.172549 0.000000
0.400000 0.168627 0.000000
0.466667 0.160784 0.000000
0.533333 0.156863 0.000000
0.600000 0.149020 0.000000
0.666667 0.145098 0.000000
0.733333 0.137255 0.000000
0.800000 0.133333 0.000000
0.866667 0.129412 0.000000
0.933333 0.121569 0.000000
1.000000 0.117647 0.000000
0.023529 0.266667 0.000000
0.090196 0.266667 0.000000
0.156863 0.266667 0.000000
0.223529 0.266667 0.000000
0.266667 0.243137 0.000000
0.333333 0.239216 0.000000
0.400000 0.235294 0.000000
0.466667 0.227451 0.000000
0.533333 0.223529 0.000000
0.600000 0.215686 0.000000
0.666667 0.211765 0.000000
0.733333 0.203922 0.000000
0.800000 0.200000 0.000000
0.866667 0.196078 0.000000
0.933333 0.188235 0.000000
1.000000 0.184314 0.000000
0.027451 0.333333 0.000000
0.094118 0.333333 0.000000
0.160784 0.333333 0.000000
0.227451 0.333333 0.000000
0.294118 0.333333 0.000000
0.333333 0.305882 0.000000
0.400000 0.301961 0.000000
0.466667 0.294118 0.000000
0.533333 0.290196 0.000000
0.600000 0.282353 0.000000
0.666667 0.278431 0.000000
0.733333 0.270588 0.000000
0.800000 0.266667 0.000000
0.866667 0.262745 0.000000
0.933333 0.254902 0.000000
1.000000 0.250980 0.000000
0.031373 0.400000 0.000000
0.101961 0.400000 0.000000
0.168627 0.400000 0.000000
0.231373 0.400000 0.000000
0.301961 0.400000 0.000000
0.368627 0.400000 0.000000
0.400000 0.368627 0.000000
0.466667 0.360784 0.000000
0.533333 0.356863 0.000000
0.600000 0.349020 0.000000
0.666667 0.345098 0.000000
0.733333 0.337255 0.000000
0.800000 0.333333 0.000000
0.866667 0.329412 0.000000
0.933333 0.321569 0.000000
1.000000 0.317647 0.000000
0.039216 0.466667 0.000000
0.105882 0.466667 0.000000
0.172549 0.466667 0.000000
0.239216 0.466667 0.000000
0.305882 0.466667 0.000000
0.372549 0.466667 0.000000
0.439216 0.466667 0.000000
0.466667 0.427451 0.000000
0.533333 0.423529 0.000000
0.600000 0.415686 0.000000
0.666667 0.411765 0.000000
0.733333 0.403922 0.000000
0.800000 0.400000 0.000000
0.866667 0.396078 0.000000
0.933333 0.388235 0.000000
1.000000 0.384314 0.000000
0.043137 0.533333 0.000000
0.109804 0.533333 0.000000
0.176471 0.533333 0.000000
0.243137 0.533333 0.000000
0.309804 0.533333 0.000000
0.376471 0.533333 0.000000
0.443137 0.533333 0.000000
0.509804 0.533333 0.000000
0.533333 0.490196 0.000000
0.600000 0.482353 0.000000
0.666667 0.478431 0.000000
0.733333 0.470588 0.000000
0.800000 0.466667 0.000000
0.866667 0.462745 0.000000
0.933333 0.454902 0.000000
1.000000 0.450980 0.000000
0.050980 0.600000 0.000000
0.117647 0.600000 0.000000
0.184314 0.600000 0.000000
0.250980 0.600000 0.000000
0.317647 0.600000 0.000000
0.384314 0.600000 0.000000
0.450980 0.600000 0.000000
0.517647 0.600000 0.000000
0.584314 0.600000 0.000000
0.600000 0.549020 0.000000
0.666667 0.545098 0.000000
0.733333 0.537255 0.000000
0.800000 0.533333 0.000000
0.866667 0.529412 0.000000
0.933333 0.521569 0.000000
1.000000 0.517647 0.000000
0.054902 0.666667 0.000000
0.121569 0.666667 0.000000
0.188235 0.666667 0.000000
0.254902 0.666667 0.000000
0.321569 0.666667 0.000000
0.388235 0.666667 0.000000
0.454902 0.666667 0.000000
0.521569 0.666667 0.000000
0.588235 0.666667 0.000000
0.654902 0.666667 0.000000
0.666667 0.611765 0.000000
0.733333 0.603922 0.000000
0.800000 0.600000 0.000000
0.866667 0.596078 0.000000
0.933333 0.588235 0.000000
1.000000 0.584314 0.000000
0.062745 0.733333 0.000000
0.129412 0.733333 0.000000
0.196078 0.733333 0.000000
0.262745 0.733333 0.000000
0.329412 0.733333 0.000000
0.396078 0.733333 0.000000
0.462745 0.733333 0.000000
0.529412 0.733333 0.000000
0.596078 0.733333 0.000000
0.662745 0.733333 0.000000
0.729412 0.733333 0.000000
0.733333 0.670588 0.000000
0.800000 0.666667 0.000000
0.866667 0.662745 0.000000
0.933333 0.654902 0.000000
1.000000 0.650980 0.000000
0.066667 0.800000 0.000000
0.133333 0.800000 0.000000
0.200000 0.800000 0.000000
0.266667 0.800000 0.000000
0.333333 0.800000 0.000000
0.400000 0.800000 0.000000
0.466667 0.800000 0.000000
0.533333 0.800000 0.000000
0.600000 0.800000 0.000000
0.666667 0.800000 0.000000
0.733333 0.800000 0.000000
0.800000 0.800000 0.000000
0.800000 0.733333 0.000000
0.866667 0.729412 0.000000
0.933333 0.721569 0.000000
1.000000 0.717647 0.000000
0.070588 0.866667 0.000000
0.137255 0.866667 0.000000
0.203922 0.866667 0.000000
0.270588 0.866667 0.000000
0.337255 0.866667 0.000000
0.403922 0.866667 0.000000
0.470588 0.866667 0.000000
0.537255 0.866667 0.000000
0.603922 0.866667 0.000000
0.670588 0.866667 0.000000
0.737255 0.866667 0.000000
0.803922 0.866667 0.000000
0.866667 0.862745 0.000000
0.866667 0.796078 0.000000
0.933333 0.788235 0.000000
1.000000 0.784314 0.000000
0.078431 0.933333 0.000000
0.145098 0.933333 0.000000
0.211765 0.933333 0.000000
0.278431 0.933333 0.000000
0.345098 0.933333 0.000000
0.411765 0.933333 0.000000
0.478431 0.933333 0.000000
0.545098 0.933333 0.000000
0.611765 0.933333 0.000000
0.678431 0.933333 0.000000
0.745098 0.933333 0.000000
0.811765 0.933333 0.000000
0.878431 0.933333 0.000000
0.933333 0.921569 0.000000
0.933333 0.854902 0.000000
1.000000 0.850980 0.000000
0.082353 1.000000 0.000000
0.149020 1.000000 0.000000
0.215686 1.000000 0.000000
0.282353 1.000000 0.000000
0.349020 1.000000 0.000000
0.415686 1.000000 0.000000
0.482353 1.000000 0.000000
0.549020 1.000000 0.000000
0.615686 1.000000 0.000000
0.682353 1.000000 0.000000
0.749020 1.000000 0.000000
0.815686 1.000000 0.000000
0.882353 1.000000 0.000000
0.949020 1.000000 0.000000
1.000000 0.984314 0.000000
1.000000 0.917647 0.000000
0.000000 0.003922 0.066667
0.062745 0.000000 0.066667
0.133333 0.000000 0.078431
0.200000 0.000000 0.082353
0.266667 0.000000 0.090196
0.333333 0.000000 0.094118
0.400000 0.000000 0.101961
0.466667 0.000000 0.105882
0.533333 0.000000 0.109804
0.600000 0.000000 0.117647
0.666667 0.000000 0.121569
0.733333 0.000000 0.129412
0.800000 0.000000 0.133333
0.866667 0.000000 0.137255
0.933333 0.000000 0.145098
1.000000 0.000000 0.149020
0.000000 0.066667 0.062745
0.066667 0.066667 0.066667
0.133333 0.062745 0.070588
0.200000 0.058824 0.070588
0.266667 0.054902 0.074510
0.333333 0.054902 0.078431
0.400000 0.050980 0.078431
0.466667 0.047059 0.082353
0.533333 0.043137 0.082353
0.600000 0.039216 0.086275
0.666667 0.035294 0.090196
0.733333 0.031373 0.090196
0.800000 0.031373 0.094118
0.866667 0.027451 0.098039
0.933333 0.023529 0.098039
1.000000 0.019608 0.101961
0.000000 0.133333 0.054902
0.070588 0.133333 0.062745
0.133333 0.129412 0.062745
0.200000 0.117647 0.058824
0.266667 0.109804 0.054902
0.333333 0.098039 0.054902
0.400000 0.090196 0.050980
0.466667 0.082353 0.047059
0.533333 0.070588 0.043137
0.600000 0.062745 0.039216
0.666667 0.054902 0.035294
0.733333 0.043137 0.031373
0.800000 0.035294 0.031373
0.866667 0.027451 0.027451
0.933333 0.023529 0.027451
1.000000 0.019608 0.031373
0.000000 0.200000 0.050980
0.070588 0.200000 0.058824
0.141176 0.200000 0.058824
0.200000 0.188235 0.058824
0.266667 0.180392 0.054902
0.333333 0.168627 0.054902
0.400000 0.160784 0.050980
0.466667 0.152941 0.047059
0.533333 0.141176 0.043137
0.600000 0.133333 0.039216
0.666667 0.125490 0.035294
0.733333 0.113725 0.031373
0.800000 0.105882 0.031373
0.866667 0.098039 0.027451
0.933333 0.086275 0.023529
1.000000 0.078431 0.019608
0.000000 0.266667 0.043137
0.074510 0.266667 0.054902
0.145098 0.266667 0.054902
0.215686 0.266667 0.054902
0.266667 0.250980 0.054902
0.333333 0.239216 0.054902
0.400000 0.231373 0.050980
0.466667 0.223529 0.047059
0.533333 0.211765 0.043137
0.600000 0.203922 0.039216
0.666667 0.196078 0.035294
0.733333 0.184314 0.031373
0.800000 0.176471 0.031373
0.866667 0.164706 0.027451
0.933333 0.156863 0.023529
1.000000 0.149020 0.019608
0.000000 0.333333 0.039216
0.078431 0.333333 0.054902
0.145098 0.333333 0.054902
0.215686 0.333333 0.054902
0.286275 0.333333 0.054902
0.333333 0.309804 0.054902
0.400000 0.301961 0.050980
0.466667 0.290196 0.047059
0.533333 0.282353 0.043137
0.600000 0.274510 0.039216
0.666667 0.262745 0.035294
0.733333 0.254902 0.031373
0.800000 0.247059 0.031373
0.866667 0.235294 0.027451
0.933333 0.227451 0.023529
1.000000 0.219608 0.019608
0.000000 0.400000 0.035294
0.078431 0.400000 0.050980
0.149020 0.400000 0.050980
0.219608 0.400000 0.050980
0.290196 0.400000 0.050980
0.360784 0.400000 0.050980
0.400000 0.372549 0.050980
0.466667 0.360784 0.047059
0.533333 0.352941 0.043137
0.600000 0.345098 0.039216
0.666667 0.333333 0.035294
0.733333 0.325490 0.031373
0.800000 0.317647 0.031373
0.866667 0.305882 0.027451
0.933333 0.298039 0.023529
1.000000 0.290196 0.019608
0.000000 0.466667 0.027451
0.082353 0.466667 0.047059
0.152941 0.466667 0.047059
0.223529 0.466667 0.047059
0.290196 0.466667 0.047059
0.360784 0.466667 0.047059
0.431373 0.466667 0.047059
0.466667 0.431373 0.047059
0.533333 0.423529 0.043137
0.600000 0.411765 0.039216
0.666667 0.403922 0.035294
0.733333 0.396078 0.031373
0.800000 0.384314 0.031373
0.866667 0.376471 0.027451
0.933333 0.368627 0.023529
1.000000 0.356863 0.019608
0.000000 0.533333 0.023529
0.082353 0.533333 0.043137
0.152941 0.533333 0.043137
0.223529 0.533333 0.043137
0.294118 0.533333 0.043137
0.364706 0.533333 0.043137
0.435294 0.533333 0.043137
0.505882 0.533333 0.043137
0.533333 0.494118 0.043137
0.600000 0.482353 0.039216
0.666667 0.474510 0.035294
0.733333 0.466667 0.031373
0.800000 0.454902 0.031373
0.866667 0.447059 0.027451
0.933333 0.439216 0.023529
1.000000 0.427451 0.019608
0.000000 0.600000 0.015686
0.086275 0.600000 0.039216
0.156863 0.600000 0.039216
0.227451 0.600000 0.039216
0.298039 0.600000 0.039216
0.364706 0.600000 0.039216
0.435294 0.600000 0.039216
0.505882 0.600000 0.039216
0.576471 0.600000 0.039216
0.600000 0.552941 0.039216
0.666667 0.545098 0.035294
0.733333 0.533333 0.031373
0.800000 0.525490 0.031373
0.866667 0.517647 0.027451
0.933333 0.505882 0.023529
1.000000 0.498039 0.019608
0.000000 0.666667 0.011765
0.090196 0.666667 0.035294
0.160784 0.666667 0.035294
0.227451 0.666667 0.035294
0.298039 0.666667 0.035294
0.368627 0.666667 0.035294
0.439216 0.666667 0.035294
0.509804 0.666667 0.035294
0.580392 0.666667 0.035294
0.650980 0.666667 0.035294
0.666667 0.615686 0.035294
0.733333 0.603922 0.031373
0.800000 0.596078 0.031373
0.866667 0.588235 0.027451
0.933333 0.576471 0.023529
1.000000 0.568627 0.019608
0.000000 0.733333 0.003922
0.090196 0.733333 0.031373
0.160784 0.733333 0.031373
0.231373 0.733333 0.031373
0.301961 0.733333 0.031373
0.372549 0.733333 0.031373
0.443137 0.733333 0.031373
0.509804 0.733333 0.031373
0.580392 0.733333 0.031373
0.650980 0.733333 0.031373
0.721569 0.733333 0.031373
0.733333 0.674510 0.031373
0.800000 0.666667 0.031373
0.866667 0.654902 0.027451
0.933333 0.647059 0.023529
1.000000 0.639216 0.019608
0.000000 0.800000 0.000000
0.094118 0.800000 0.031373
0.164706 0.800000 0.031373
0.235294 0.800000 0.031373
0.305882 0.800000 0.031373
0.372549 0.800000 0.031373
0.443137 0.800000 0.031373
0.513725 0.800000 0.031373
0.584314 0.800000 0.031373
0.654902 0.800000 0.031373
0.725490 0.800000 0.031373
0.796078 0.800000 0.031373
0.800000 0.737255 0.031373
0.866667 0.725490 0.027451
0.933333 0.717647 0.023529
1.000000 0.709804 0.019608
0.003922 0.866667 0.000000
0.098039 0.866667 0.027451
0.168627 0.866667 0.027451
0.235294 0.866667 0.027451
0.305882 0.866667 0.027451
0.376471 0.866667 0.027451
0.447059 0.866667 0.027451
0.517647 0.866667 0.027451
0.588235 0.866667 0.027451
0.654902 0.866667 0.027451
0.725490 0.866667 0.027451
0.796078 0.866667 0.027451
0.866667 0.866667 0.027451
0.866667 0.796078 0.027451
0.933333 0.788235 0.023529
1.000000 0.776471 0.019608
0.011765 0.933333 0.000000
0.098039 0.933333 0.023529
0.168627 0.933333 0.023529
0.239216 0.933333 0.023529
0.309804 0.933333 0.023529
0.380392 0.933333 0.023529
0.450980 0.933333 0.023529
0.517647 0.933333 0.023529
0.588235 0.933333 0.023529
0.658824 0.933333 0.023529
0.729412 0.933333 0.023529
0.800000 0.933333 0.023529
0.870588 0.933333 0.023529
0.933333 0.929412 0.023529
0.933333 0.858824 0.023529
1.000000 0.847059 0.019608
0.015686 1.000000 0.000000
0.101961 1.000000 0.019608
0.172549 1.000000 0.019608
0.243137 1.000000 0.019608
0.309804 1.000000 0.019608
0.380392 1.000000 0.019608
0.450980 1.000000 0.019608
0.521569 1.000000 0.019608
0.592157 1.000000 0.019608
0.662745 1.000000 0.019608
0.733333 1.000000 0.019608
0.800000 1.000000 0.019608
0.870588 1.000000 0.019608
0.941176 1.000000 0.019608
1.000000 0.988235 0.019608
1.000000 0.917647 0.019608
0.000000 0.011765 0.133333
0.054902 0.000000 0.133333
0.121569 0.000000 0.133333
0.200000 0.000000 0.149020
0.266667 0.000000 0.156863
0.333333 0.000000 0.160784
0.400000 0.000000 0.168627
0.466667 0.000000 0.172549
0.533333 0.000000 0.176471
0.600000 0.000000 0.184314
0.666667 0.000000 0.188235
0.733333 0.000000 0.196078
0.800000 0.000000 0.200000
0.866667 0.000000 0.203922
0.933333 0.000000 0.211765
1.000000 0.000000 0.215686
0.000000 0.078431 0.133333
0.062745 0.070588 0.133333
0.129412 0.062745 0.133333
0.200000 0.058824 0.141176
0.266667 0.054902 0.145098
0.333333 0.054902 0.145098
0.400000 0.050980 0.149020
0.466667 0.047059 0.152941
0.533333 0.043137 0.152941
0.600000 0.039216 0.156863
0.666667 0.035294 0.160784
0.733333 0.031373 0.160784
0.800000 0.031373 0.164706
0.866667 0.027451 0.168627
0.933333 0.023529 0.168627
1.000000 0.019608 0.172549
0.000000 0.133333 0.121569
0.062745 0.133333 0.129412
0.133333 0.133333 0.133333
0.200000 0.129412 0.137255
0.266667 0.125490 0.137255
0.333333 0.121569 0.141176
0.400000 0.121569 0.145098
0.466667 0.117647 0.145098
0.533333 0.113725 0.149020
0.600000 0.109804 0.149020
0.666667 0.105882 0.152941
0.733333 0.101961 0.156863
0.800000 0.098039 0.156863
0.866667 0.098039 0.160784
0.933333 0.094118 0.164706
1.000000 0.090196 0.164706
0.000000 0.200000 0.117647
0.058824 0.200000 0.117647
0.137255 0.200000 0.129412
0.200000 0.196078 0.129412
0.266667 0.184314 0.125490
0.333333 0.176471 0.121569
0.400000 0.168627 0.121569
0.466667 0.156863 0.117647
0.533333 0.149020 0.113725
0.600000 0.137255 0.109804
0.666667 0.129412 0.105882
0.733333 0.121569 0.101961
0.800000 0.109804 0.098039
0.866667 0.101961 0.098039
0.933333 0.094118 0.094118
1.000000 0.090196 0.094118
0.000000 0.266667 0.109804
0.054902 0.266667 0.109804
0.137255 0.266667 0.125490
0.207843 0.266667 0.125490
0.266667 0.254902 0.125490
0.333333 0.247059 0.121569
0.400000 0.235294 0.121569
0.466667 0.227451 0.117647
0.533333 0.219608 0.113725
0.600000 0.207843 0.109804
0.666667 0.200000 0.105882
0.733333 0.192157 0.101961
0.800000 0.180392 0.098039
0.866667 0.172549 0.098039
0.933333 0.164706 0.094118
1.000000 0.152941 0.090196
0.000000 0.333333 0.105882
0.054902 0.333333 0.098039
0.141176 0.333333 0.121569
0.211765 0.333333 0.121569
0.282353 0.333333 0.121569
0.333333 0.317647 0.121569
0.400000 0.305882 0.121569
0.466667 0.298039 0.117647
0.533333 0.290196 0.113725
0.600000 0.278431 0.109804
0.666667 0.270588 0.105882
0.733333 0.262745 0.101961
0.800000 0.250980 0.098039
0.866667 0.243137 0.098039
0.933333 0.231373 0.094118
1.000000 0.223529 0.090196
0.000000 0.400000 0.101961
0.050980 0.400000 0.090196
0.145098 0.400000 0.121569
0.211765 0.400000 0.121569
0.282353 0.400000 0.121569
0.352941 0.400000 0.121569
0.400000 0.376471 0.121569
0.466667 0.368627 0.117647
0.533333 0.356863 0.113725
0.600000 0.349020 0.109804
0.666667 0.341176 0.105882
0.733333 0.329412 0.101961
0.800000 0.321569 0.098039
0.866667 0.313725 0.098039
0.933333 0.301961 0.094118
1.000000 0.294118 0.090196
0.000000 0.466667 0.094118
0.047059 0.466667 0.082353
0.145098 0.466667 0.117647
0.215686 0.466667 0.117647
0.286275 0.466667 0.117647
0.356863 0.466667 0.117647
0.427451 0.466667 0.117647
0.466667 0.439216 0.117647
0.533333 0.427451 0.113725
0.600000 0.419608 0.109804
0.666667 0.411765 0.105882
0.733333 0.400000 0.101961
0.800000 0.392157 0.098039
0.866667 0.384314 0.098039
0.933333 0.372549 0.094118
1.000000 0.364706 0.090196
0.000000 0.533333 0.090196
0.043137 0.533333 0.070588
0.149020 0.533333 0.113725
0.219608 0.533333 0.113725
0.290196 0.533333 0.113725
0.356863 0.533333 0.113725
0.427451 0.533333 0.113725
0.498039 0.533333 0.113725
0.533333 0.498039 0.113725
0.600000 0.490196 0.109804
0.666667 0.478431 0.105882
0.733333 0.470588 0.101961
0.800000 0.462745 0.098039
0.866667 0.450980 0.098039
0.933333 0.443137 0.094118
1.000000 0.435294 0.090196
0.000000 0.600000 0.082353
0.039216 0.600000 0.062745
0.149020 0.600000 0.109804
0.219608 0.600000 0.109804
0.290196 0.600000 0.109804
0.360784 0.600000 0.109804
0.431373 0.600000 0.109804
0.501961 0.600000 0.109804
0.572549 0.600000 0.109804
0.600000 0.560784 0.109804
0.666667 0.549020 0.105882
0.733333 0.541176 0.101961
0.800000 0.533333 0.098039
0.866667 0.521569 0.098039
0.933333 0.513725 0.094118
1.000000 0.505882 0.090196
0.000000 0.666667 0.078431
0.035294 0.666667 0.054902
0.152941 0.666667 0.105882
0.223529 0.666667 0.105882
0.294118 0.666667 0.105882
0.364706 0.666667 0.105882
0.431373 0.666667 0.105882
0.501961 0.666667 0.105882
0.572549 0.666667 0.105882
0.643137 0.666667 0.105882
0.666667 0.619608 0.105882
0.733333 0.611765 0.101961
0.800000 0.600000 0.098039
0.866667 0.592157 0.098039
0.933333 0.584314 0.094118
1.000000 0.572549 0.090196
0.000000 0.733333 0.070588
0.031373 0.733333 0.043137
0.156863 0.733333 0.101961
0.227451 0.733333 0.101961
0.294118 0.733333 0.101961
0.364706 0.733333 0.101961
0.435294 0.733333 0.101961
0.505882 0.733333 0.101961
0.576471 0.733333 0.101961
0.647059 0.733333 0.101961
0.717647 0.733333 0.101961
0.733333 0.682353 0.101961
0.800000 0.670588 0.098039
0.866667 0.662745 0.098039
0.933333 0.654902 0.094118
1.000000 0.643137 0.090196
0.000000 0.800000 0.066667
0.031373 0.800000 0.035294
0.156863 0.800000 0.098039
0.227451 0.800000 0.098039
0.298039 0.800000 0.098039
0.368627 0.800000 0.098039
0.439216 0.800000 0.098039
0.509804 0.800000 0.098039
0.576471 0.800000 0.098039
0.647059 0.800000 0.098039
0.717647 0.800000 0.098039
0.788235 0.800000 0.098039
0.800000 0.741176 0.098039
0.866667 0.733333 0.098039
0.933333 0.721569 0.094118
1.000000 0.713725 0.090196
0.000000 0.866667 0.062745
0.027451 0.866667 0.027451
0.160784 0.866667 0.098039
0.231373 0.866667 0.098039
0.301961 0.866667 0.098039
0.372549 0.866667 0.098039
0.439216 0.866667 0.098039
0.509804 0.866667 0.098039
0.580392 0.866667 0.098039
0.650980 0.866667 0.098039
0.721569 0.866667 0.098039
0.792157 0.866667 0.098039
0.862745 0.866667 0.098039
0.866667 0.803922 0.098039
0.933333 0.792157 0.094118
1.000000 0.784314 0.090196
0.000000 0.933333 0.054902
0.027451 0.933333 0.023529
0.164706 0.933333 0.094118
0.231373 0.933333 0.094118
0.301961 0.933333 0.094118
0.372549 0.933333 0.094118
0.443137 0.933333 0.094118
0.513725 0.933333 0.094118
0.584314 0.933333 0.094118
0.654902 0.933333 0.094118
0.721569 0.933333 0.094118
0.792157 0.933333 0.094118
0.862745 0.933333 0.094118
0.933333 0.933333 0.094118
0.933333 0.862745 0.094118
1.000000 0.854902 0.090196
0.000000 1.000000 0.050980
0.031373 1.000000 0.019608
0.164706 1.000000 0.090196
0.235294 1.000000 0.090196
0.305882 1.000000 0.090196
0.376471 1.000000 0.090196
0.447059 1.000000 0.090196
0.517647 1.000000 0.090196
0.584314 1.000000 0.090196
0.654902 1.000000 0.090196
0.725490 1.000000 0.090196
0.796078 1.000000 0.090196
0.866667 1.000000 0.090196
0.937255 1.000000 0.090196
1.000000 0.996078 0.090196
1.000000 0.925490 0.090196
0.000000 0.015686 0.200000
0.050980 0.000000 0.200000
0.117647 0.000000 0.200000
0.184314 0.000000 0.200000
0.266667 0.000000 0.223529
0.333333 0.000000 0.227451
0.400000 0.000000 0.231373
0.466667 0.000000 0.239216
0.533333 0.000000 0.243137
0.600000 0.000000 0.250980
0.666667 0.000000 0.254902
0.733333 0.000000 0.262745
0.800000 0.000000 0.266667
0.866667 0.000000 0.270588
0.933333 0.000000 0.278431
1.000000 0.000000 0.282353
0.000000 0.082353 0.200000
0.058824 0.070588 0.200000
0.117647 0.058824 0.200000
0.188235 0.058824 0.200000
0.266667 0.054902 0.215686
0.333333 0.054902 0.215686
0.400000 0.050980 0.219608
0.466667 0.047059 0.223529
0.533333 0.043137 0.223529
0.600000 0.039216 0.227451
0.666667 0.035294 0.227451
0.733333 0.031373 0.231373
0.800000 0.031373 0.235294
0.866667 0.027451 0.235294
0.933333 0.023529 0.239216
1.000000 0.019608 0.243137
0.000000 0.149020 0.200000
0.058824 0.141176 0.200000
0.129412 0.137255 0.200000
0.196078 0.129412 0.200000
0.266667 0.125490 0.207843
0.333333 0.121569 0.211765
0.400000 0.121569 0.211765
0.466667 0.117647 0.215686
0.533333 0.113725 0.219608
0.600000 0.109804 0.219608
0.666667 0.105882 0.223529
0.733333 0.101961 0.227451
0.800000 0.098039 0.227451
0.866667 0.098039 0.231373
0.933333 0.094118 0.235294
1.000000 0.090196 0.235294
0.000000 0.200000 0.184314
0.058824 0.200000 0.188235
0.129412 0.200000 0.196078
0.200000 0.200000 0.200000
0.266667 0.196078 0.203922
0.333333 0.192157 0.203922
0.400000 0.188235 0.207843
0.466667 0.188235 0.211765
0.533333 0.184314 0.211765
0.600000 0.180392 0.215686
0.666667 0.176471 0.215686
0.733333 0.172549 0.219608
0.800000 0.168627 0.223529
0.866667 0.164706 0.223529
0.933333 0.164706 0.227451
1.000000 0.160784 0.231373
0.000000 0.266667 0.176471
0.054902 0.266667 0.180392
0.125490 0.266667 0.184314
0.203922 0.266667 0.196078
0.266667 0.262745 0.196078
0.333333 0.250980 0.192157
0.400000 0.243137 0.188235
0.466667 0.235294 0.188235
0.533333 0.223529 0.184314
0.600000 0.215686 0.180392
0.666667 0.203922 0.176471
0.733333 0.196078 0.172549
0.800000 0.188235 0.168627
0.866667 0.176471 0.164706
0.933333 0.168627 0.164706
1.000000 0.160784 0.160784
0.000000 0.333333 0.172549
0.054902 0.333333 0.168627
0.121569 0.333333 0.176471
0.203922 0.333333 0.192157
0.274510 0.333333 0.192157
0.333333 0.321569 0.192157
0.400000 0.313725 0.188235
0.466667 0.301961 0.188235
0.533333 0.294118 0.184314
0.600000 0.286275 0.180392
0.666667 0.274510 0.176471
0.733333 0.266667 0.172549
0.800000 0.258824 0.168627
0.866667 0.247059 0.164706
0.933333 0.239216 0.164706
1.000000 0.231373 0.160784
0.000000 0.400000 0.164706
0.050980 0.400000 0.160784
0.121569 0.400000 0.164706
0.207843 0.400000 0.188235
0.278431 0.400000 0.188235
0.349020 0.400000 0.188235
0.400000 0.384314 0.188235
0.466667 0.372549 0.188235
0.533333 0.364706 0.184314
0.600000 0.356863 0.180392
0.666667 0.345098 0.176471
0.733333 0.337255 0.172549
0.800000 0.329412 0.168627
0.866667 0.317647 0.164706
0.933333 0.309804 0.164706
1.000000 0.298039 0.160784
0.000000 0.466667 0.160784
0.047059 0.466667 0.152941
0.117647 0.466667 0.156863
0.211765 0.466667 0.188235
0.278431 0.466667 0.188235
0.349020 0.466667 0.188235
0.419608 0.466667 0.188235
