pkg/planetgen/color/luts/glacial.cube
TITLE "glacial archetype LUT"
LUT_3D_SIZE 6
0.000000 0.000000 0.000000
0.211765 0.070588 0.043137
0.419608 0.141176 0.082353
0.631373 0.211765 0.125490
0.839216 0.278431 0.168627
1.000000 0.333333 0.200000
0.043137 0.211765 0.070588
0.180392 0.211765 0.043137
0.419608 0.309804 0.082353
0.631373 0.376471 0.125490
0.839216 0.447059 0.168627
1.000000 0.494118 0.200000
0.082353 0.419608 0.141176
0.196078 0.419608 0.082353
0.364706 0.419608 0.082353
0.631373 0.545098 0.125490
0.839216 0.615686 0.168627
1.000000 0.654902 0.200000
0.125490 0.631373 0.211765
0.211765 0.631373 0.125490
0.376471 0.631373 0.125490
0.545098 0.631373 0.125490
0.839216 0.784314 0.168627
1.000000 0.811765 0.200000
0.168627 0.839216 0.278431
0.223529 0.839216 0.168627
0.392157 0.839216 0.168627
0.560784 0.839216 0.168627
0.729412 0.839216 0.168627
1.000000 0.972549 0.200000
0.200000 1.000000 0.333333
0.227451 1.000000 0.200000
0.388235 1.000000 0.200000
0.545098 1.000000 0.200000
0.705882 1.000000 0.200000
0.866667 1.000000 0.200000
0.070588 0.043137 0.211765
0.211765 0.043137 0.180392
0.419608 0.082353 0.196078
0.631373 0.125490 0.211765
0.839216 0.168627 0.223529
1.000000 0.200000 0.227451
0.043137 0.180392 0.211765
0.211765 0.211765 0.211765
0.419608 0.278431 0.250980
0.631373 0.349020 0.294118
0.839216 0.419608 0.337255
1.000000 0.466667 0.360784
0.082353 0.419608 0.309804
0.250980 0.419608 0.278431
0.392157 0.419608 0.250980
0.631373 0.517647 0.294118
0.839216 0.588235 0.337255
1.000000 0.627451 0.360784
0.125490 0.631373 0.376471
0.294118 0.631373 0.349020
0.407843 0.631373 0.294118
0.572549 0.631373 0.294118
0.839216 0.756863 0.337255
1.000000 0.788235 0.360784
0.168627 0.839216 0.447059
0.337255 0.839216 0.419608
0.419608 0.839216 0.337255
0.588235 0.839216 0.337255
0.756863 0.839216 0.337255
1.000000 0.945098 0.360784
0.200000 1.000000 0.494118
0.360784 1.000000 0.466667
0.411765 1.000000 0.360784
0.572549 1.000000 0.360784
0.733333 1.000000 0.360784
0.894118 1.000000 0.360784
0.141176 0.082353 0.419608
0.309804 0.082353 0.419608
0.419608 0.082353 0.364706
0.631373 0.125490 0.376471
0.839216 0.168627 0.392157
1.000000 0.200000 0.388235
0.082353 0.196078 0.419608
0.278431 0.250980 0.419608
0.419608 0.250980 0.392157
0.631373 0.294118 0.407843
0.839216 0.337255 0.419608
1.000000 0.360784 0.411765
0.082353 0.364706 0.419608
0.250980 0.392157 0.419608
0.419608 0.419608 0.419608
0.631373 0.490196 0.462745
0.839216 0.560784 0.505882
1.000000 0.600000 0.521569
0.125490 0.631373 0.545098
0.294118 0.631373 0.517647
0.462745 0.631373 0.490196
0.603922 0.631373 0.462745
0.839216 0.729412 0.505882
1.000000 0.760784 0.521569
0.168627 0.839216 0.615686
0.337255 0.839216 0.588235
0.505882 0.839216 0.560784
0.615686 0.839216 0.505882
0.784314 0.839216 0.505882
1.000000 0.921569 0.521569
0.200000 1.000000 0.654902
0.360784 1.000000 0.627451
0.521569 1.000000 0.600000
0.600000 1.000000 0.521569
0.760784 1.000000 0.521569
0.921569 1.000000 0.521569
0.211765 0.125490 0.631373
0.376471 0.125490 0.631373
0.545098 0.125490 0.631373
0.631373 0.125490 0.545098
0.839216 0.168627 0.560784
1.000000 0.200000 0.545098
0.125490 0.211765 0.631373
0.349020 0.294118 0.631373
0.517647 0.294118 0.631373
0.631373 0.294118 0.572549
0.839216 0.337255 0.588235
1.000000 0.360784 0.572549
0.125490 0.376471 0.631373
0.294118 0.407843 0.631373
0.490196 0.462745 0.631373
0.631373 0.462745 0.603922
0.839216 0.505882 0.615686
1.000000 0.521569 0.600000
0.125490 0.545098 0.631373
0.294118 0.572549 0.631373
0.462745 0.603922 0.631373
0.631373 0.631373 0.631373
0.839216 0.701961 0.670588
1.000000 0.733333 0.678431
0.168627 0.839216 0.784314
0.337255 0.839216 0.756863
0.505882 0.839216 0.729412
0.670588 0.839216 0.701961
0.811765 0.839216 0.670588
1.000000 0.894118 0.678431
0.200000 1.000000 0.811765
0.360784 1.000000 0.788235
0.521569 1.000000 0.760784
0.678431 1.000000 0.733333
0.788235 1.000000 0.678431
0.945098 1.000000 0.678431
0.278431 0.168627 0.839216
0.447059 0.168627 0.839216
0.615686 0.168627 0.839216
0.784314 0.168627 0.839216
0.839216 0.168627 0.729412
1.000000 0.200000 0.705882
0.168627 0.223529 0.839216
0.419608 0.337255 0.839216
0.588235 0.337255 0.839216
0.756863 0.337255 0.839216
0.839216 0.337255 0.756863
1.000000 0.360784 0.733333
0.168627 0.392157 0.839216
0.337255 0.419608 0.839216
0.560784 0.505882 0.839216
0.729412 0.505882 0.839216
0.839216 0.505882 0.784314
1.000000 0.521569 0.760784
0.168627 0.560784 0.839216
0.337255 0.588235 0.839216
0.505882 0.615686 0.839216
0.701961 0.670588 0.839216
0.839216 0.670588 0.811765
1.000000 0.678431 0.788235
0.168627 0.729412 0.839216
0.337255 0.756863 0.839216
0.505882 0.784314 0.839216
0.670588 0.811765 0.839216
0.839216 0.839216 0.839216
1.000000 0.866667 0.839216
0.200000 1.000000 0.972549
0.360784 1.000000 0.945098
0.521569 1.000000 0.921569
0.678431 1.000000 0.894118
0.839216 1.000000 0.866667
0.972549 1.000000 0.839216
0.333333 0.200000 1.000000
0.494118 0.200000 1.000000
0.654902 0.200000 1.000000
0.811765 0.200000 1.000000
0.972549 0.200000 1.000000
1.000000 0.200000 0.866667
0.200000 0.227451 1.000000
0.466667 0.360784 1.000000
0.627451 0.360784 1.000000
0.788235 0.360784 1.000000
0.945098 0.360784 1.000000
1.000000 0.360784 0.894118
0.200000 0.388235 1.000000
0.360784 0.411765 1.000000
0.600000 0.521569 1.000000
0.760784 0.521569 1.000000
0.921569 0.521569 1.000000
1.000000 0.521569 0.921569
0.200000 0.545098 1.000000
0.360784 0.572549 1.000000
0.521569 0.600000 1.000000
0.733333 0.678431 1.000000
0.894118 0.678431 1.000000
1.000000 0.678431 0.945098
0.200000 0.705882 1.000000
0.360784 0.733333 1.000000
0.521569 0.760784 1.000000
0.678431 0.788235 1.000000
0.866667 0.839216 1.000000
1.000000 0.839216 0.972549
0.200000 0.866667 1.000000
0.360784 0.894118 1.000000
0.521569 0.921569 1.000000
0.678431 0.945098 1.000000
0.839216 0.972549 1.000000
1.000000 1.000000 1.000000
