pkg/planetgen/color/luts/glacial.cube
TITLE "glacial archetype LUT"
LUT_3D_SIZE 16
0.000000 0.000000 0.000000
0.070588 0.023529 0.015686
0.141176 0.047059 0.027451
0.211765 0.070588 0.043137
0.278431 0.094118 0.054902
0.349020 0.117647 0.070588
0.419608 0.141176 0.082353
0.490196 0.164706 0.098039
0.560784 0.188235 0.113725
0.631373 0.211765 0.125490
0.701961 0.235294 0.141176
0.768627 0.254902 0.152941
0.839216 0.278431 0.168627
0.909804 0.301961 0.180392
0.980392 0.325490 0.196078
1.000000 0.333333 0.200000
0.015686 0.070588 0.023529
0.058824 0.070588 0.015686
0.141176 0.101961 0.027451
0.211765 0.125490 0.043137
0.278431 0.149020 0.054902
0.349020 0.172549 0.070588
0.419608 0.196078 0.082353
0.490196 0.219608 0.098039
0.560784 0.243137 0.113725
0.631373 0.266667 0.125490
0.701961 0.290196 0.141176
0.768627 0.313725 0.152941
0.839216 0.337255 0.168627
0.909804 0.360784 0.180392
0.980392 0.384314 0.196078
1.000000 0.388235 0.200000
0.027451 0.141176 0.047059
0.066667 0.141176 0.027451
0.121569 0.141176 0.027451
0.211765 0.180392 0.043137
0.278431 0.203922 0.054902
0.349020 0.227451 0.070588
0.419608 0.250980 0.082353
0.490196 0.274510 0.098039
0.560784 0.298039 0.113725
0.631373 0.321569 0.125490
0.701961 0.345098 0.141176
0.768627 0.368627 0.152941
0.839216 0.392157 0.168627
0.909804 0.415686 0.180392
0.980392 0.439216 0.196078
1.000000 0.439216 0.200000
0.043137 0.211765 0.070588
0.070588 0.211765 0.043137
0.125490 0.211765 0.043137
0.180392 0.211765 0.043137
0.278431 0.262745 0.054902
0.349020 0.286275 0.070588
0.419608 0.309804 0.082353
0.490196 0.329412 0.098039
0.560784 0.352941 0.113725
0.631373 0.376471 0.125490
0.701961 0.400000 0.141176
0.768627 0.423529 0.152941
0.839216 0.447059 0.168627
0.909804 0.470588 0.180392
0.980392 0.494118 0.196078
1.000000 0.494118 0.200000
0.054902 0.278431 0.094118
0.074510 0.278431 0.054902
0.129412 0.278431 0.054902
0.188235 0.278431 0.054902
0.243137 0.278431 0.054902
0.349020 0.341176 0.070588
0.419608 0.364706 0.082353
0.490196 0.388235 0.098039
0.560784 0.411765 0.113725
0.631373 0.435294 0.125490
0.701961 0.458824 0.141176
0.768627 0.482353 0.152941
0.839216 0.505882 0.168627
0.909804 0.525490 0.180392
0.980392 0.549020 0.196078
1.000000 0.545098 0.200000
0.070588 0.349020 0.117647
0.078431 0.349020 0.070588
0.137255 0.349020 0.070588
0.192157 0.349020 0.070588
0.247059 0.349020 0.070588
0.301961 0.349020 0.070588
0.419608 0.419608 0.082353
0.490196 0.443137 0.098039
0.560784 0.466667 0.113725
0.631373 0.490196 0.125490
0.701961 0.513725 0.141176
0.768627 0.537255 0.152941
0.839216 0.560784 0.168627
0.909804 0.584314 0.180392
0.980392 0.607843 0.196078
1.000000 0.600000 0.200000
0.082353 0.419608 0.141176
0.082353 0.419608 0.082353
0.141176 0.419608 0.082353
0.196078 0.419608 0.082353
0.250980 0.419608 0.082353
0.309804 0.419608 0.082353
0.364706 0.419608 0.082353
0.482353 0.490196 0.098039
0.560784 0.521569 0.113725
0.631373 0.545098 0.125490
0.701961 0.568627 0.141176
0.768627 0.592157 0.152941
0.839216 0.615686 0.168627
0.909804 0.639216 0.180392
0.980392 0.662745 0.196078
1.000000 0.654902 0.200000
0.098039 0.490196 0.164706
0.098039 0.490196 0.105882
0.145098 0.490196 0.098039
0.200000 0.490196 0.098039
0.254902 0.490196 0.098039
0.313725 0.490196 0.098039
0.368627 0.490196 0.098039
0.423529 0.490196 0.098039
0.541176 0.560784 0.113725
0.631373 0.603922 0.125490
0.701961 0.623529 0.141176
0.768627 0.647059 0.152941
0.839216 0.670588 0.168627
0.909804 0.694118 0.180392
0.980392 0.717647 0.196078
1.000000 0.705882 0.200000
0.113725 0.560784 0.188235
0.113725 0.560784 0.129412
0.149020 0.560784 0.113725
0.203922 0.560784 0.113725
0.262745 0.560784 0.113725
0.317647 0.560784 0.113725
0.372549 0.560784 0.113725
0.427451 0.560784 0.113725
0.486275 0.560784 0.113725
0.603922 0.631373 0.125490
0.701961 0.682353 0.141176
0.768627 0.705882 0.152941
0.839216 0.729412 0.168627
0.909804 0.752941 0.180392
0.980392 0.776471 0.196078
1.000000 0.760784 0.200000
0.125490 0.631373 0.211765
0.125490 0.631373 0.152941
0.152941 0.631373 0.125490
0.211765 0.631373 0.125490
0.266667 0.631373 0.125490
0.321569 0.631373 0.125490
0.376471 0.631373 0.125490
0.435294 0.631373 0.125490
0.490196 0.631373 0.125490
0.545098 0.631373 0.125490
0.662745 0.701961 0.141176
0.768627 0.760784 0.152941
0.839216 0.784314 0.168627
0.909804 0.807843 0.180392
0.980392 0.831373 0.196078
1.000000 0.811765 0.200000
0.141176 0.701961 0.231373
0.141176 0.701961 0.176471
0.156863 0.701961 0.141176
0.215686 0.701961 0.141176
0.270588 0.701961 0.141176
0.325490 0.701961 0.141176
0.384314 0.701961 0.141176
0.439216 0.701961 0.141176
0.494118 0.701961 0.141176
0.549020 0.701961 0.141176
0.607843 0.701961 0.141176
0.721569 0.768627 0.152941
0.839216 0.839216 0.168627
0.909804 0.862745 0.180392
0.980392 0.886275 0.196078
1.000000 0.866667 0.200000
0.152941 0.768627 0.254902
0.152941 0.768627 0.200000
0.164706 0.768627 0.152941
0.219608 0.768627 0.152941
0.274510 0.768627 0.152941
0.329412 0.768627 0.152941
0.388235 0.768627 0.152941
0.443137 0.768627 0.152941
0.498039 0.768627 0.152941
0.556863 0.768627 0.152941
0.611765 0.768627 0.152941
0.666667 0.768627 0.152941
0.784314 0.839216 0.168627
0.901961 0.909804 0.180392
0.980392 0.941176 0.196078
1.000000 0.921569 0.200000
0.168627 0.839216 0.278431
0.168627 0.839216 0.223529
0.168627 0.839216 0.168627
0.223529 0.839216 0.168627
0.278431 0.839216 0.168627
0.337255 0.839216 0.168627
0.392157 0.839216 0.168627
0.447059 0.839216 0.168627
0.505882 0.839216 0.168627
0.560784 0.839216 0.168627
0.615686 0.839216 0.168627
0.670588 0.839216 0.168627
0.729412 0.839216 0.168627
0.843137 0.909804 0.180392
0.960784 0.980392 0.196078
1.000000 0.972549 0.200000
0.180392 0.909804 0.301961
0.180392 0.909804 0.247059
0.180392 0.909804 0.192157
0.227451 0.909804 0.180392
0.286275 0.909804 0.180392
0.341176 0.909804 0.180392
0.396078 0.909804 0.180392
0.450980 0.909804 0.180392
0.509804 0.909804 0.180392
0.564706 0.909804 0.180392
0.619608 0.909804 0.180392
0.678431 0.909804 0.180392
0.733333 0.909804 0.180392
0.788235 0.909804 0.180392
0.905882 0.980392 0.196078
0.972549 1.000000 0.200000
0.196078 0.980392 0.325490
0.196078 0.980392 0.270588
0.196078 0.980392 0.215686
0.235294 0.980392 0.196078
0.290196 0.980392 0.196078
0.345098 0.980392 0.196078
0.400000 0.980392 0.196078
0.458824 0.980392 0.196078
0.513725 0.980392 0.196078
0.568627 0.980392 0.196078
0.623529 0.980392 0.196078
0.682353 0.980392 0.196078
0.737255 0.980392 0.196078
0.792157 0.980392 0.196078
0.850980 0.980392 0.196078
0.921569 1.000000 0.200000
0.200000 1.000000 0.333333
0.200000 1.000000 0.278431
0.200000 1.000000 0.227451
0.227451 1.000000 0.200000
0.278431 1.000000 0.200000
0.333333 1.000000 0.200000
0.388235 1.000000 0.200000
0.439216 1.000000 0.200000
0.494118 1.000000 0.200000
0.545098 1.000000 0.200000
0.600000 1.000000 0.200000
0.654902 1.000000 0.200000
0.705882 1.000000 0.200000
0.760784 1.000000 0.200000
0.811765 1.000000 0.200000
0.866667 1.000000 0.200000
0.023529 0.015686 0.070588
0.070588 0.015686 0.058824
0.141176 0.027451 0.066667
0.211765 0.043137 0.070588
0.278431 0.054902 0.074510
0.349020 0.070588 0.078431
0.419608 0.082353 0.082353
0.490196 0.105882 0.098039
0.560784 0.129412 0.113725
0.631373 0.152941 0.125490
0.701961 0.176471 0.141176
0.768627 0.200000 0.152941
0.839216 0.223529 0.168627
0.909804 0.247059 0.180392
0.980392 0.270588 0.196078
1.000000 0.278431 0.200000
0.015686 0.058824 0.070588
0.070588 0.070588 0.070588
0.141176 0.094118 0.082353
0.211765 0.117647 0.098039
0.278431 0.141176 0.113725
0.349020 0.164706 0.125490
0.419608 0.188235 0.141176
0.490196 0.211765 0.152941
0.560784 0.231373 0.168627
0.631373 0.254902 0.180392
0.701961 0.278431 0.196078
0.768627 0.301961 0.211765
0.839216 0.325490 0.223529
0.909804 0.349020 0.239216
0.980392 0.372549 0.250980
1.000000 0.376471 0.254902
0.027451 0.141176 0.101961
0.082353 0.141176 0.094118
0.129412 0.141176 0.082353
0.211765 0.172549 0.098039
0.278431 0.196078 0.113725
0.349020 0.219608 0.125490
0.419608 0.243137 0.141176
0.490196 0.266667 0.152941
0.560784 0.290196 0.168627
0.631373 0.313725 0.180392
0.701961 0.337255 0.196078
0.768627 0.360784 0.211765
0.839216 0.384314 0.223529
0.909804 0.407843 0.239216
0.980392 0.427451 0.250980
1.000000 0.431373 0.254902
0.043137 0.211765 0.125490
0.098039 0.211765 0.117647
0.137255 0.211765 0.098039
0.192157 0.211765 0.098039
0.278431 0.250980 0.113725
0.349020 0.274510 0.125490
0.419608 0.298039 0.141176
0.490196 0.321569 0.152941
0.560784 0.345098 0.168627
0.631373 0.368627 0.180392
0.701961 0.392157 0.196078
0.768627 0.415686 0.211765
0.839216 0.439216 0.223529
0.909804 0.462745 0.239216
0.980392 0.486275 0.250980
1.000000 0.486275 0.254902
0.054902 0.278431 0.149020
0.113725 0.278431 0.141176
0.141176 0.278431 0.113725
0.196078 0.278431 0.113725
0.250980 0.278431 0.113725
0.349020 0.329412 0.125490
0.419608 0.352941 0.141176
0.490196 0.376471 0.152941
0.560784 0.400000 0.168627
0.631373 0.423529 0.180392
0.701961 0.447059 0.196078
0.768627 0.470588 0.211765
0.839216 0.494118 0.223529
0.909804 0.517647 0.239216
0.980392 0.541176 0.250980
1.000000 0.537255 0.254902
0.070588 0.349020 0.172549
0.125490 0.349020 0.164706
0.145098 0.349020 0.125490
0.200000 0.349020 0.125490
0.254902 0.349020 0.125490
0.313725 0.349020 0.125490
0.419608 0.411765 0.141176
0.490196 0.435294 0.152941
0.560784 0.458824 0.168627
0.631373 0.482353 0.180392
0.701961 0.505882 0.196078
0.768627 0.525490 0.211765
0.839216 0.549020 0.223529
0.909804 0.572549 0.239216
0.980392 0.596078 0.250980
1.000000 0.592157 0.254902
0.082353 0.419608 0.196078
0.141176 0.419608 0.188235
0.149020 0.419608 0.141176
0.203922 0.419608 0.141176
0.262745 0.419608 0.141176
0.317647 0.419608 0.141176
0.372549 0.419608 0.141176
0.490196 0.490196 0.152941
0.560784 0.513725 0.168627
0.631373 0.537255 0.180392
0.701961 0.560784 0.196078
0.768627 0.584314 0.211765
0.839216 0.607843 0.223529
0.909804 0.631373 0.239216
0.980392 0.654902 0.250980
1.000000 0.643137 0.254902
0.098039 0.490196 0.219608
0.152941 0.490196 0.211765
0.152941 0.490196 0.152941
0.211765 0.490196 0.152941
0.266667 0.490196 0.152941
0.321569 0.490196 0.152941
0.376471 0.490196 0.152941
0.435294 0.490196 0.152941
0.549020 0.560784 0.168627
0.631373 0.592157 0.180392
0.701961 0.615686 0.196078
0.768627 0.639216 0.211765
0.839216 0.662745 0.223529
0.909804 0.686275 0.239216
0.980392 0.709804 0.250980
1.000000 0.698039 0.254902
0.113725 0.560784 0.243137
0.168627 0.560784 0.231373
0.168627 0.560784 0.176471
0.215686 0.560784 0.168627
0.270588 0.560784 0.168627
0.325490 0.560784 0.168627
0.384314 0.560784 0.168627
0.439216 0.560784 0.168627
0.494118 0.560784 0.168627
0.611765 0.631373 0.180392
0.701961 0.670588 0.196078
0.768627 0.694118 0.211765
0.839216 0.717647 0.223529
0.909804 0.741176 0.239216
0.980392 0.764706 0.250980
1.000000 0.752941 0.254902
0.125490 0.631373 0.266667
0.180392 0.631373 0.254902
0.180392 0.631373 0.200000
0.219608 0.631373 0.180392
0.274510 0.631373 0.180392
0.329412 0.631373 0.180392
0.388235 0.631373 0.180392
0.443137 0.631373 0.180392
0.498039 0.631373 0.180392
0.556863 0.631373 0.180392
0.670588 0.701961 0.196078
0.768627 0.752941 0.211765
0.839216 0.776471 0.223529
0.909804 0.796078 0.239216
0.980392 0.819608 0.250980
1.000000 0.803922 0.254902
0.141176 0.701961 0.290196
0.196078 0.701961 0.278431
0.196078 0.701961 0.223529
0.223529 0.701961 0.196078
0.278431 0.701961 0.196078
0.337255 0.701961 0.196078
0.392157 0.701961 0.196078
0.447059 0.701961 0.196078
0.505882 0.701961 0.196078
0.560784 0.701961 0.196078
0.615686 0.701961 0.196078
0.733333 0.768627 0.211765
0.839216 0.831373 0.223529
0.909804 0.854902 0.239216
0.980392 0.878431 0.250980
1.000000 0.858824 0.254902
0.152941 0.768627 0.313725
0.211765 0.768627 0.301961
0.211765 0.768627 0.247059
0.227451 0.768627 0.211765
0.286275 0.768627 0.211765
0.341176 0.768627 0.211765
0.396078 0.768627 0.211765
0.450980 0.768627 0.211765
0.509804 0.768627 0.211765
0.564706 0.768627 0.211765
0.619608 0.768627 0.211765
0.678431 0.768627 0.211765
0.792157 0.839216 0.223529
0.909804 0.909804 0.239216
0.980392 0.933333 0.250980
1.000000 0.909804 0.254902
0.168627 0.839216 0.337255
0.223529 0.839216 0.325490
0.223529 0.839216 0.270588
0.231373 0.839216 0.223529
0.290196 0.839216 0.223529
0.345098 0.839216 0.223529
0.400000 0.839216 0.223529
0.458824 0.839216 0.223529
0.513725 0.839216 0.223529
0.568627 0.839216 0.223529
0.623529 0.839216 0.223529
0.682353 0.839216 0.223529
0.737255 0.839216 0.223529
0.854902 0.909804 0.239216
0.972549 0.980392 0.250980
1.000000 0.964706 0.254902
0.180392 0.909804 0.360784
0.239216 0.909804 0.349020
0.239216 0.909804 0.294118
0.239216 0.909804 0.239216
0.294118 0.909804 0.239216
0.349020 0.909804 0.239216
0.407843 0.909804 0.239216
0.462745 0.909804 0.239216
0.517647 0.909804 0.239216
0.572549 0.909804 0.239216
0.631373 0.909804 0.239216
0.686275 0.909804 0.239216
0.741176 0.909804 0.239216
0.796078 0.909804 0.239216
0.913725 0.980392 0.250980
0.980392 1.000000 0.254902
0.196078 0.980392 0.384314
0.250980 0.980392 0.372549
0.250980 0.980392 0.317647
0.250980 0.980392 0.262745
0.298039 0.980392 0.250980
0.352941 0.980392 0.250980
0.411765 0.980392 0.250980
0.466667 0.980392 0.250980
0.521569 0.980392 0.250980
0.580392 0.980392 0.250980
0.635294 0.980392 0.250980
0.690196 0.980392 0.250980
0.745098 0.980392 0.250980
0.803922 0.980392 0.250980
0.858824 0.980392 0.250980
0.929412 1.000000 0.254902
0.200000 1.000000 0.388235
0.254902 1.000000 0.376471
0.254902 1.000000 0.325490
0.254902 1.000000 0.270588
0.290196 1.000000 0.254902
0.341176 1.000000 0.254902
0.396078 1.000000 0.254902
0.447059 1.000000 0.254902
0.501961 1.000000 0.254902
0.556863 1.000000 0.254902
0.607843 1.000000 0.254902
0.662745 1.000000 0.254902
0.713725 1.000000 0.254902
0.768627 1.000000 0.254902
0.823529 1.000000 0.254902
0.874510 1.000000 0.254902
0.047059 0.027451 0.141176
0.101961 0.027451 0.141176
0.141176 0.027451 0.121569
0.211765 0.043137 0.125490
0.278431 0.054902 0.129412
0.349020 0.070588 0.137255
0.419608 0.082353 0.141176
0.490196 0.098039 0.145098
0.560784 0.113725 0.149020
0.631373 0.125490 0.152941
0.701961 0.141176 0.156863
0.768627 0.152941 0.164706
0.839216 0.168627 0.168627
0.909804 0.192157 0.180392
0.980392 0.215686 0.196078
1.000000 0.227451 0.200000
0.027451 0.066667 0.141176
0.094118 0.082353 0.141176
0.141176 0.082353 0.129412
0.211765 0.098039 0.137255
0.278431 0.113725 0.141176
0.349020 0.125490 0.145098
0.419608 0.141176 0.149020
0.490196 0.152941 0.152941
0.560784 0.176471 0.168627
0.631373 0.200000 0.180392
0.701961 0.223529 0.196078
0.768627 0.247059 0.211765
0.839216 0.270588 0.223529
0.909804 0.294118 0.239216
0.980392 0.317647 0.250980
1.000000 0.325490 0.254902
0.027451 0.121569 0.141176
0.082353 0.129412 0.141176
0.141176 0.141176 0.141176
0.211765 0.164706 0.152941
0.278431 0.188235 0.168627
0.349020 0.211765 0.180392
0.419608 0.231373 0.196078
0.490196 0.254902 0.211765
0.560784 0.278431 0.223529
0.631373 0.301961 0.239216
0.701961 0.325490 0.250980
0.768627 0.349020 0.266667
0.839216 0.372549 0.278431
0.909804 0.396078 0.294118
0.980392 0.419608 0.309804
1.000000 0.423529 0.305882
0.043137 0.211765 0.180392
0.098039 0.211765 0.172549
0.152941 0.211765 0.164706
0.200000 0.211765 0.152941
0.278431 0.243137 0.168627
0.349020 0.266667 0.180392
0.419608 0.290196 0.196078
0.490196 0.313725 0.211765
0.560784 0.337255 0.223529
0.631373 0.360784 0.239216
0.701961 0.384314 0.250980
0.768627 0.407843 0.266667
0.839216 0.427451 0.278431
0.909804 0.450980 0.294118
0.980392 0.474510 0.309804
1.000000 0.474510 0.305882
0.054902 0.278431 0.203922
0.113725 0.278431 0.196078
0.168627 0.278431 0.188235
0.203922 0.278431 0.168627
0.262745 0.278431 0.168627
0.349020 0.321569 0.180392
0.419608 0.345098 0.196078
0.490196 0.368627 0.211765
0.560784 0.392157 0.223529
0.631373 0.415686 0.239216
0.701961 0.439216 0.250980
0.768627 0.462745 0.266667
0.839216 0.486275 0.278431
0.909804 0.509804 0.294118
0.980392 0.533333 0.309804
1.000000 0.529412 0.305882
0.070588 0.349020 0.227451
0.125490 0.349020 0.219608
0.180392 0.349020 0.211765
0.211765 0.349020 0.180392
0.266667 0.349020 0.180392
0.321569 0.349020 0.180392
0.419608 0.400000 0.196078
0.490196 0.423529 0.211765
0.560784 0.447059 0.223529
0.631373 0.470588 0.239216
0.701961 0.494118 0.250980
0.768627 0.517647 0.266667
0.839216 0.541176 0.278431
0.909804 0.564706 0.294118
0.980392 0.588235 0.309804
1.000000 0.580392 0.305882
0.082353 0.419608 0.250980
0.141176 0.419608 0.243137
0.196078 0.419608 0.231373
0.215686 0.419608 0.196078
0.270588 0.419608 0.196078
0.325490 0.419608 0.196078
0.384314 0.419608 0.196078
0.490196 0.482353 0.211765
0.560784 0.505882 0.223529
0.631373 0.525490 0.239216
0.701961 0.549020 0.250980
0.768627 0.572549 0.266667
0.839216 0.596078 0.278431
0.909804 0.619608 0.294118
0.980392 0.643137 0.309804
1.000000 0.635294 0.305882
0.098039 0.490196 0.274510
0.152941 0.490196 0.266667
0.211765 0.490196 0.254902
0.219608 0.490196 0.211765
0.274510 0.490196 0.211765
0.329412 0.490196 0.211765
0.388235 0.490196 0.211765
0.443137 0.490196 0.211765
0.560784 0.560784 0.223529
0.631373 0.584314 0.239216
0.701961 0.607843 0.250980
0.768627 0.631373 0.266667
0.839216 0.654902 0.278431
0.909804 0.678431 0.294118
0.980392 0.701961 0.309804
1.000000 0.690196 0.305882
0.113725 0.560784 0.298039
0.168627 0.560784 0.290196
0.223529 0.560784 0.278431
0.223529 0.560784 0.223529
0.278431 0.560784 0.223529
0.337255 0.560784 0.223529
0.392157 0.560784 0.223529
0.447059 0.560784 0.223529
0.505882 0.560784 0.223529
0.619608 0.631373 0.239216
0.701961 0.662745 0.250980
0.768627 0.686275 0.266667
0.839216 0.709804 0.278431
0.909804 0.733333 0.294118
0.980392 0.756863 0.309804
1.000000 0.741176 0.305882
0.125490 0.631373 0.321569
0.180392 0.631373 0.313725
0.239216 0.631373 0.301961
0.239216 0.631373 0.247059
0.286275 0.631373 0.239216
0.341176 0.631373 0.239216
0.396078 0.631373 0.239216
0.450980 0.631373 0.239216
0.509804 0.631373 0.239216
0.564706 0.631373 0.239216
0.682353 0.701961 0.250980
0.768627 0.741176 0.266667
0.839216 0.764706 0.278431
0.909804 0.788235 0.294118
0.980392 0.811765 0.309804
1.000000 0.796078 0.305882
0.141176 0.701961 0.345098
0.196078 0.701961 0.337255
0.250980 0.701961 0.325490
0.250980 0.701961 0.270588
0.290196 0.701961 0.250980
0.345098 0.701961 0.250980
0.400000 0.701961 0.250980
0.458824 0.701961 0.250980
0.513725 0.701961 0.250980
0.568627 0.701961 0.250980
0.623529 0.701961 0.250980
0.741176 0.768627 0.266667
0.839216 0.819608 0.278431
0.909804 0.843137 0.294118
0.980392 0.866667 0.309804
1.000000 0.847059 0.305882
0.152941 0.768627 0.368627
0.211765 0.768627 0.360784
0.266667 0.768627 0.349020
0.266667 0.768627 0.294118
0.294118 0.768627 0.266667
0.349020 0.768627 0.266667
0.407843 0.768627 0.266667
0.462745 0.768627 0.266667
0.517647 0.768627 0.266667
0.572549 0.768627 0.266667
0.631373 0.768627 0.266667
0.686275 0.768627 0.266667
0.803922 0.839216 0.278431
0.909804 0.901961 0.294118
0.980392 0.925490 0.309804
1.000000 0.901961 0.305882
0.168627 0.839216 0.392157
0.223529 0.839216 0.384314
0.278431 0.839216 0.372549
0.278431 0.839216 0.317647
0.298039 0.839216 0.278431
0.352941 0.839216 0.278431
0.411765 0.839216 0.278431
0.466667 0.839216 0.278431
0.521569 0.839216 0.278431
0.580392 0.839216 0.278431
0.635294 0.839216 0.278431
0.690196 0.839216 0.278431
0.745098 0.839216 0.278431
0.862745 0.909804 0.294118
0.980392 0.980392 0.309804
1.000000 0.956863 0.305882
0.180392 0.909804 0.415686
0.239216 0.909804 0.407843
0.294118 0.909804 0.396078
0.294118 0.909804 0.341176
0.301961 0.909804 0.294118
0.360784 0.909804 0.294118
0.415686 0.909804 0.294118
0.470588 0.909804 0.294118
0.525490 0.909804 0.294118
0.584314 0.909804 0.294118
0.639216 0.909804 0.294118
0.694118 0.909804 0.294118
0.752941 0.909804 0.294118
0.807843 0.909804 0.294118
0.925490 0.980392 0.309804
0.992157 1.000000 0.305882
0.196078 0.980392 0.439216
0.250980 0.980392 0.427451
0.309804 0.980392 0.419608
0.309804 0.980392 0.364706
0.309804 0.980392 0.309804
0.364706 0.980392 0.309804
0.419608 0.980392 0.309804
0.474510 0.980392 0.309804
0.533333 0.980392 0.309804
0.588235 0.980392 0.309804
0.643137 0.980392 0.309804
0.701961 0.980392 0.309804
0.756863 0.980392 0.309804
0.811765 0.980392 0.309804
0.866667 0.980392 0.309804
0.937255 1.000000 0.305882
0.200000 1.000000 0.439216
0.254902 1.000000 0.431373
0.305882 1.000000 0.423529
0.305882 1.000000 0.368627
0.305882 1.000000 0.313725
0.352941 1.000000 0.305882
0.403922 1.000000 0.305882
0.458824 1.000000 0.305882
0.509804 1.000000 0.305882
0.564706 1.000000 0.305882
0.619608 1.000000 0.305882
0.670588 1.000000 0.305882
0.725490 1.000000 0.305882
0.776471 1.000000 0.305882
0.831373 1.000000 0.305882
0.886275 1.000000 0.305882
0.070588 0.043137 0.211765
0.125490 0.043137 0.211765
0.180392 0.043137 0.211765
0.211765 0.043137 0.180392
0.278431 0.054902 0.188235
0.349020 0.070588 0.192157
0.419608 0.082353 0.196078
0.490196 0.098039 0.200000
0.560784 0.113725 0.203922
0.631373 0.125490 0.211765
0.701961 0.141176 0.215686
0.768627 0.152941 0.219608
0.839216 0.168627 0.223529
0.909804 0.180392 0.227451
0.980392 0.196078 0.235294
1.000000 0.200000 0.227451
0.043137 0.070588 0.211765
0.117647 0.098039 0.211765
0.172549 0.098039 0.211765
0.211765 0.098039 0.192157
0.278431 0.113725 0.196078
0.349020 0.125490 0.200000
0.419608 0.141176 0.203922
0.490196 0.152941 0.211765
0.560784 0.168627 0.215686
0.631373 0.180392 0.219608
0.701961 0.196078 0.223529
0.768627 0.211765 0.227451
0.839216 0.223529 0.235294
0.909804 0.239216 0.239216
0.980392 0.262745 0.250980
1.000000 0.270588 0.254902
0.043137 0.125490 0.211765
0.098039 0.137255 0.211765
0.164706 0.152941 0.211765
0.211765 0.152941 0.200000
0.278431 0.168627 0.203922
0.349020 0.180392 0.211765
0.419608 0.196078 0.215686
0.490196 0.211765 0.219608
0.560784 0.223529 0.223529
0.631373 0.247059 0.239216
0.701961 0.270588 0.250980
0.768627 0.294118 0.266667
0.839216 0.317647 0.278431
0.909804 0.341176 0.294118
0.980392 0.364706 0.309804
1.000000 0.368627 0.305882
0.043137 0.180392 0.211765
0.098039 0.192157 0.211765
0.152941 0.200000 0.211765
0.211765 0.211765 0.211765
0.278431 0.235294 0.223529
0.349020 0.254902 0.239216
0.419608 0.278431 0.250980
0.490196 0.301961 0.266667
0.560784 0.325490 0.278431
0.631373 0.349020 0.294118
0.701961 0.372549 0.309804
0.768627 0.396078 0.321569
0.839216 0.419608 0.337255
0.909804 0.443137 0.349020
0.980392 0.466667 0.364706
1.000000 0.466667 0.360784
0.054902 0.278431 0.262745
0.113725 0.278431 0.250980
0.168627 0.278431 0.243137
0.223529 0.278431 0.235294
0.270588 0.278431 0.223529
0.349020 0.313725 0.239216
0.419608 0.337255 0.250980
0.490196 0.360784 0.266667
0.560784 0.384314 0.278431
0.631373 0.407843 0.294118
0.701961 0.427451 0.309804
0.768627 0.450980 0.321569
0.839216 0.474510 0.337255
0.909804 0.498039 0.349020
0.980392 0.521569 0.364706
1.000000 0.521569 0.360784
0.070588 0.349020 0.286275
0.125490 0.349020 0.274510
0.180392 0.349020 0.266667
0.239216 0.349020 0.254902
0.274510 0.349020 0.239216
0.329412 0.349020 0.239216
0.419608 0.392157 0.250980
0.490196 0.415686 0.266667
0.560784 0.439216 0.278431
0.631373 0.462745 0.294118
0.701961 0.486275 0.309804
0.768627 0.509804 0.321569
0.839216 0.533333 0.337255
0.909804 0.556863 0.349020
0.980392 0.580392 0.364706
1.000000 0.572549 0.360784
0.082353 0.419608 0.309804
0.141176 0.419608 0.298039
0.196078 0.419608 0.290196
0.250980 0.419608 0.278431
0.278431 0.419608 0.250980
0.337255 0.419608 0.250980
0.392157 0.419608 0.250980
0.490196 0.470588 0.266667
0.560784 0.494118 0.278431
0.631373 0.517647 0.294118
0.701961 0.541176 0.309804
0.768627 0.564706 0.321569
0.839216 0.588235 0.337255
0.909804 0.611765 0.349020
0.980392 0.635294 0.364706
1.000000 0.627451 0.360784
0.098039 0.490196 0.329412
0.152941 0.490196 0.321569
0.211765 0.490196 0.313725
0.266667 0.490196 0.301961
0.286275 0.490196 0.266667
0.341176 0.490196 0.266667
0.396078 0.490196 0.266667
