pkg/planetgen/color/luts/hothouse.cube
TITLE "hothouse archetype LUT"
LUT_3D_SIZE 6
0.000000 0.000000 0.000000
0.188235 0.000000 0.039216
0.380392 0.000000 0.074510
0.568627 0.000000 0.113725
0.760784 0.000000 0.152941
0.949020 0.000000 0.188235
0.039216 0.188235 0.000000
0.188235 0.152941 0.000000
0.380392 0.113725 0.000000
0.568627 0.074510 0.000000
0.760784 0.039216 0.000000
0.949020 0.000000 0.000000
0.074510 0.380392 0.000000
0.266667 0.380392 0.000000
0.380392 0.305882 0.000000
0.568627 0.266667 0.000000
0.760784 0.227451 0.000000
0.949020 0.188235 0.000000
0.113725 0.568627 0.000000
0.305882 0.568627 0.000000
0.494118 0.568627 0.000000
0.568627 0.454902 0.000000
0.760784 0.419608 0.000000
0.949020 0.380392 0.000000
0.152941 0.760784 0.000000
0.341176 0.760784 0.000000
0.533333 0.760784 0.000000
0.721569 0.760784 0.000000
0.760784 0.607843 0.000000
0.949020 0.568627 0.000000
0.188235 0.949020 0.000000
0.380392 0.949020 0.000000
0.568627 0.949020 0.000000
0.760784 0.949020 0.000000
0.949020 0.949020 0.000000
0.949020 0.760784 0.000000
0.000000 0.039216 0.188235
0.152941 0.000000 0.188235
0.380392 0.000000 0.266667
0.568627 0.000000 0.305882
0.760784 0.000000 0.341176
0.949020 0.000000 0.380392
0.000000 0.188235 0.152941
0.188235 0.188235 0.188235
0.380392 0.180392 0.219608
0.568627 0.172549 0.250980
0.760784 0.160784 0.282353
0.949020 0.152941 0.309804
0.000000 0.380392 0.113725
0.219608 0.380392 0.180392
0.380392 0.341176 0.180392
0.568627 0.290196 0.172549
0.760784 0.243137 0.160784
0.949020 0.192157 0.152941
0.000000 0.568627 0.074510
0.250980 0.568627 0.172549
0.450980 0.568627 0.172549
0.568627 0.490196 0.172549
0.760784 0.439216 0.160784
0.949020 0.392157 0.152941
0.000000 0.760784 0.039216
0.282353 0.760784 0.160784
0.482353 0.760784 0.160784
0.678431 0.760784 0.160784
0.760784 0.639216 0.160784
0.949020 0.592157 0.152941
0.000000 0.949020 0.000000
0.309804 0.949020 0.152941
0.509804 0.949020 0.152941
0.709804 0.949020 0.152941
0.909804 0.949020 0.152941
0.949020 0.792157 0.152941
0.000000 0.074510 0.380392
0.113725 0.000000 0.380392
0.305882 0.000000 0.380392
0.568627 0.000000 0.494118
0.760784 0.000000 0.533333
0.949020 0.000000 0.568627
0.000000 0.266667 0.380392
0.180392 0.219608 0.380392
0.341176 0.180392 0.380392
0.568627 0.172549 0.450980
0.760784 0.160784 0.482353
0.949020 0.152941 0.509804
0.000000 0.380392 0.305882
0.180392 0.380392 0.341176
0.380392 0.380392 0.380392
0.568627 0.368627 0.411765
0.760784 0.360784 0.439216
0.949020 0.352941 0.470588
0.000000 0.568627 0.266667
0.172549 0.568627 0.290196
0.411765 0.568627 0.368627
0.568627 0.529412 0.368627
0.760784 0.482353 0.360784
0.949020 0.431373 0.352941
0.000000 0.760784 0.227451
0.160784 0.760784 0.243137
0.439216 0.760784 0.360784
0.639216 0.760784 0.360784
0.760784 0.678431 0.360784
0.949020 0.631373 0.352941
0.000000 0.949020 0.188235
0.152941 0.949020 0.192157
0.470588 0.949020 0.352941
0.670588 0.949020 0.352941
0.870588 0.949020 0.352941
0.949020 0.831373 0.352941
0.000000 0.113725 0.568627
0.074510 0.000000 0.568627
0.266667 0.000000 0.568627
0.454902 0.000000 0.568627
0.760784 0.000000 0.721569
0.949020 0.000000 0.760784
0.000000 0.305882 0.568627
0.172549 0.250980 0.568627
0.290196 0.172549 0.568627
0.490196 0.172549 0.568627
0.760784 0.160784 0.678431
0.949020 0.152941 0.709804
0.000000 0.494118 0.568627
0.172549 0.450980 0.568627
0.368627 0.411765 0.568627
0.529412 0.368627 0.568627
0.760784 0.360784 0.639216
0.949020 0.352941 0.670588
0.000000 0.568627 0.454902
0.172549 0.568627 0.490196
0.368627 0.568627 0.529412
0.568627 0.568627 0.568627
0.760784 0.560784 0.600000
0.949020 0.552941 0.631373
0.000000 0.760784 0.419608
0.160784 0.760784 0.439216
0.360784 0.760784 0.482353
0.600000 0.760784 0.560784
0.760784 0.721569 0.560784
0.949020 0.670588 0.552941
0.000000 0.949020 0.380392
0.152941 0.949020 0.392157
0.352941 0.949020 0.431373
0.631373 0.949020 0.552941
0.831373 0.949020 0.552941
0.949020 0.870588 0.552941
0.000000 0.152941 0.760784
0.039216 0.000000 0.760784
0.227451 0.000000 0.760784
0.419608 0.000000 0.760784
0.607843 0.000000 0.760784
0.949020 0.000000 0.949020
0.000000 0.341176 0.760784
0.160784 0.282353 0.760784
0.243137 0.160784 0.760784
0.439216 0.160784 0.760784
0.639216 0.160784 0.760784
0.949020 0.152941 0.909804
0.000000 0.533333 0.760784
0.160784 0.482353 0.760784
0.360784 0.439216 0.760784
0.482353 0.360784 0.760784
0.678431 0.360784 0.760784
0.949020 0.352941 0.870588
0.000000 0.721569 0.760784
0.160784 0.678431 0.760784
0.360784 0.639216 0.760784
0.560784 0.600000 0.760784
0.721569 0.560784 0.760784
0.949020 0.552941 0.831373
0.000000 0.760784 0.607843
0.160784 0.760784 0.639216
0.360784 0.760784 0.678431
0.560784 0.760784 0.721569
0.760784 0.760784 0.760784
0.949020 0.749020 0.792157
0.000000 0.949020 0.568627
0.152941 0.949020 0.592157
0.352941 0.949020 0.631373
0.552941 0.949020 0.670588
0.792157 0.949020 0.749020
0.949020 0.909804 0.749020
0.000000 0.188235 0.949020
0.000000 0.000000 0.949020
0.188235 0.000000 0.949020
0.380392 0.000000 0.949020
0.568627 0.000000 0.949020
0.760784 0.000000 0.949020
0.000000 0.380392 0.949020
0.152941 0.309804 0.949020
0.192157 0.152941 0.949020
0.392157 0.152941 0.949020
0.592157 0.152941 0.949020
0.792157 0.152941 0.949020
0.000000 0.568627 0.949020
0.152941 0.509804 0.949020
0.352941 0.470588 0.949020
0.431373 0.352941 0.949020
0.631373 0.352941 0.949020
0.831373 0.352941 0.949020
0.000000 0.760784 0.949020
0.152941 0.709804 0.949020
0.352941 0.670588 0.949020
0.552941 0.631373 0.949020
0.670588 0.552941 0.949020
0.870588 0.552941 0.949020
0.000000 0.949020 0.949020
0.152941 0.909804 0.949020
0.352941 0.870588 0.949020
0.552941 0.831373 0.949020
0.749020 0.792157 0.949020
0.909804 0.749020 0.949020
0.000000 0.949020 0.760784
0.152941 0.949020 0.792157
0.352941 0.949020 0.831373
0.552941 0.949020 0.870588
0.749020 0.949020 0.909804
0.949020 0.949020 0.949020
