pkg/planetgen/color/luts/hothouse.cube
TITLE "hothouse archetype LUT"
LUT_3D_SIZE 16
0.000000 0.000000 0.000000
0.062745 0.000000 0.011765
0.125490 0.000000 0.023529
0.188235 0.000000 0.039216
0.254902 0.000000 0.050980
0.317647 0.000000 0.062745
0.380392 0.000000 0.074510
0.443137 0.000000 0.090196
0.505882 0.000000 0.101961
0.568627 0.000000 0.113725
0.635294 0.000000 0.125490
0.698039 0.000000 0.141176
0.760784 0.000000 0.152941
0.823529 0.000000 0.164706
0.886275 0.000000 0.176471
0.949020 0.000000 0.188235
0.011765 0.062745 0.000000
0.062745 0.050980 0.000000
0.125490 0.039216 0.000000
0.188235 0.023529 0.000000
0.254902 0.011765 0.000000
0.317647 0.000000 0.000000
0.380392 0.000000 0.011765
0.443137 0.000000 0.023529
0.505882 0.000000 0.039216
0.568627 0.000000 0.050980
0.635294 0.000000 0.062745
0.698039 0.000000 0.074510
0.760784 0.000000 0.090196
0.823529 0.000000 0.101961
0.886275 0.000000 0.113725
0.949020 0.000000 0.125490
0.023529 0.125490 0.000000
0.090196 0.125490 0.000000
0.125490 0.101961 0.000000
0.188235 0.090196 0.000000
0.254902 0.074510 0.000000
0.317647 0.062745 0.000000
0.380392 0.050980 0.000000
0.443137 0.039216 0.000000
0.505882 0.023529 0.000000
0.568627 0.011765 0.000000
0.635294 0.000000 0.000000
0.698039 0.000000 0.011765
0.760784 0.000000 0.023529
0.823529 0.000000 0.039216
0.886275 0.000000 0.050980
0.949020 0.000000 0.062745
0.039216 0.188235 0.000000
0.101961 0.188235 0.000000
0.164706 0.188235 0.000000
0.188235 0.152941 0.000000
0.254902 0.141176 0.000000
0.317647 0.125490 0.000000
0.380392 0.113725 0.000000
0.443137 0.101961 0.000000
0.505882 0.090196 0.000000
0.568627 0.074510 0.000000
0.635294 0.062745 0.000000
0.698039 0.050980 0.000000
0.760784 0.039216 0.000000
0.823529 0.023529 0.000000
0.886275 0.011765 0.000000
0.949020 0.000000 0.000000
0.050980 0.254902 0.000000
0.113725 0.254902 0.000000
0.176471 0.254902 0.000000
0.239216 0.254902 0.000000
0.254902 0.203922 0.000000
0.317647 0.188235 0.000000
0.380392 0.176471 0.000000
0.443137 0.164706 0.000000
0.505882 0.152941 0.000000
0.568627 0.141176 0.000000
0.635294 0.125490 0.000000
0.698039 0.113725 0.000000
0.760784 0.101961 0.000000
0.823529 0.090196 0.000000
0.886275 0.074510 0.000000
0.949020 0.062745 0.000000
0.062745 0.317647 0.000000
0.125490 0.317647 0.000000
0.188235 0.317647 0.000000
0.254902 0.317647 0.000000
0.317647 0.317647 0.000000
0.317647 0.254902 0.000000
0.380392 0.239216 0.000000
0.443137 0.227451 0.000000
0.505882 0.215686 0.000000
0.568627 0.203922 0.000000
0.635294 0.188235 0.000000
0.698039 0.176471 0.000000
0.760784 0.164706 0.000000
0.823529 0.152941 0.000000
0.886275 0.141176 0.000000
0.949020 0.125490 0.000000
0.074510 0.380392 0.000000
0.141176 0.380392 0.000000
0.203922 0.380392 0.000000
0.266667 0.380392 0.000000
0.329412 0.380392 0.000000
0.380392 0.368627 0.000000
0.380392 0.305882 0.000000
0.443137 0.290196 0.000000
0.505882 0.278431 0.000000
0.568627 0.266667 0.000000
0.635294 0.254902 0.000000
0.698039 0.239216 0.000000
0.760784 0.227451 0.000000
0.823529 0.215686 0.000000
0.886275 0.203922 0.000000
0.949020 0.188235 0.000000
0.090196 0.443137 0.000000
0.152941 0.443137 0.000000
0.215686 0.443137 0.000000
0.278431 0.443137 0.000000
0.341176 0.443137 0.000000
0.403922 0.443137 0.000000
0.443137 0.419608 0.000000
0.443137 0.352941 0.000000
0.505882 0.341176 0.000000
0.568627 0.329412 0.000000
0.635294 0.317647 0.000000
0.698039 0.305882 0.000000
0.760784 0.290196 0.000000
0.823529 0.278431 0.000000
0.886275 0.266667 0.000000
0.949020 0.254902 0.000000
0.101961 0.505882 0.000000
0.164706 0.505882 0.000000
0.227451 0.505882 0.000000
0.290196 0.505882 0.000000
0.352941 0.505882 0.000000
0.419608 0.505882 0.000000
0.482353 0.505882 0.000000
0.505882 0.470588 0.000000
0.505882 0.403922 0.000000
0.568627 0.392157 0.000000
0.635294 0.380392 0.000000
0.698039 0.368627 0.000000
0.760784 0.352941 0.000000
0.823529 0.341176 0.000000
0.886275 0.329412 0.000000
0.949020 0.317647 0.000000
0.113725 0.568627 0.000000
0.176471 0.568627 0.000000
0.239216 0.568627 0.000000
0.305882 0.568627 0.000000
0.368627 0.568627 0.000000
0.431373 0.568627 0.000000
0.494118 0.568627 0.000000
0.556863 0.568627 0.000000
0.568627 0.517647 0.000000
0.568627 0.454902 0.000000
0.635294 0.443137 0.000000
0.698039 0.431373 0.000000
0.760784 0.419608 0.000000
0.823529 0.403922 0.000000
0.886275 0.392157 0.000000
0.949020 0.380392 0.000000
0.125490 0.635294 0.000000
0.188235 0.635294 0.000000
0.254902 0.635294 0.000000
0.317647 0.635294 0.000000
0.380392 0.635294 0.000000
0.443137 0.635294 0.000000
0.505882 0.635294 0.000000
0.568627 0.635294 0.000000
0.635294 0.635294 0.000000
0.635294 0.568627 0.000000
0.635294 0.505882 0.000000
0.698039 0.494118 0.000000
0.760784 0.482353 0.000000
0.823529 0.470588 0.000000
0.886275 0.454902 0.000000
0.949020 0.443137 0.000000
0.141176 0.698039 0.000000
0.203922 0.698039 0.000000
0.266667 0.698039 0.000000
0.329412 0.698039 0.000000
0.392157 0.698039 0.000000
0.454902 0.698039 0.000000
0.517647 0.698039 0.000000
0.584314 0.698039 0.000000
0.647059 0.698039 0.000000
0.698039 0.682353 0.000000
0.698039 0.619608 0.000000
0.698039 0.556863 0.000000
0.760784 0.545098 0.000000
0.823529 0.533333 0.000000
0.886275 0.517647 0.000000
0.949020 0.505882 0.000000
0.152941 0.760784 0.000000
0.215686 0.760784 0.000000
0.278431 0.760784 0.000000
0.341176 0.760784 0.000000
0.403922 0.760784 0.000000
0.470588 0.760784 0.000000
0.533333 0.760784 0.000000
0.596078 0.760784 0.000000
0.658824 0.760784 0.000000
0.721569 0.760784 0.000000
0.760784 0.733333 0.000000
0.760784 0.670588 0.000000
0.760784 0.607843 0.000000
0.823529 0.596078 0.000000
0.886275 0.584314 0.000000
0.949020 0.568627 0.000000
0.164706 0.823529 0.000000
0.227451 0.823529 0.000000
0.290196 0.823529 0.000000
0.352941 0.823529 0.000000
0.419608 0.823529 0.000000
0.482353 0.823529 0.000000
0.545098 0.823529 0.000000
0.607843 0.823529 0.000000
0.670588 0.823529 0.000000
0.733333 0.823529 0.000000
0.796078 0.823529 0.000000
0.823529 0.784314 0.000000
0.823529 0.721569 0.000000
0.823529 0.658824 0.000000
0.886275 0.647059 0.000000
0.949020 0.635294 0.000000
0.176471 0.886275 0.000000
0.239216 0.886275 0.000000
0.305882 0.886275 0.000000
0.368627 0.886275 0.000000
0.431373 0.886275 0.000000
0.494118 0.886275 0.000000
0.556863 0.886275 0.000000
0.619608 0.886275 0.000000
0.682353 0.886275 0.000000
0.749020 0.886275 0.000000
0.811765 0.886275 0.000000
0.874510 0.886275 0.000000
0.886275 0.835294 0.000000
0.886275 0.772549 0.000000
0.886275 0.709804 0.000000
0.949020 0.698039 0.000000
0.188235 0.949020 0.000000
0.254902 0.949020 0.000000
0.317647 0.949020 0.000000
0.380392 0.949020 0.000000
0.443137 0.949020 0.000000
0.505882 0.949020 0.000000
0.568627 0.949020 0.000000
0.635294 0.949020 0.000000
0.698039 0.949020 0.000000
0.760784 0.949020 0.000000
0.823529 0.949020 0.000000
0.886275 0.949020 0.000000
0.949020 0.949020 0.000000
0.949020 0.886275 0.000000
0.949020 0.823529 0.000000
0.949020 0.760784 0.000000
0.000000 0.011765 0.062745
0.050980 0.000000 0.062745
0.125490 0.000000 0.090196
0.188235 0.000000 0.101961
0.254902 0.000000 0.113725
0.317647 0.000000 0.125490
0.380392 0.000000 0.141176
0.443137 0.000000 0.152941
0.505882 0.000000 0.164706
0.568627 0.000000 0.176471
0.635294 0.000000 0.188235
0.698039 0.000000 0.203922
0.760784 0.000000 0.215686
0.823529 0.000000 0.227451
0.886275 0.000000 0.239216
0.949020 0.000000 0.254902
0.000000 0.062745 0.050980
0.062745 0.062745 0.062745
0.125490 0.058824 0.074510
0.188235 0.058824 0.082353
0.254902 0.054902 0.094118
0.317647 0.050980 0.101961
0.380392 0.047059 0.113725
0.443137 0.043137 0.125490
0.505882 0.039216 0.133333
0.568627 0.039216 0.145098
0.635294 0.035294 0.152941
0.698039 0.031373 0.164706
0.760784 0.027451 0.176471
0.823529 0.023529 0.184314
0.886275 0.023529 0.196078
0.949020 0.019608 0.203922
0.000000 0.125490 0.039216
0.074510 0.125490 0.058824
0.125490 0.113725 0.058824
0.188235 0.098039 0.058824
0.254902 0.082353 0.054902
0.317647 0.062745 0.050980
0.380392 0.047059 0.047059
0.443137 0.043137 0.058824
0.505882 0.039216 0.066667
0.568627 0.039216 0.078431
0.635294 0.035294 0.086275
0.698039 0.031373 0.098039
0.760784 0.027451 0.109804
0.823529 0.023529 0.117647
0.886275 0.023529 0.129412
0.949020 0.019608 0.137255
0.000000 0.188235 0.023529
0.082353 0.188235 0.058824
0.149020 0.188235 0.058824
0.188235 0.164706 0.058824
0.254902 0.145098 0.054902
0.317647 0.129412 0.050980
0.380392 0.113725 0.047059
0.443137 0.098039 0.043137
0.505882 0.082353 0.039216
0.568627 0.062745 0.039216
0.635294 0.047059 0.035294
0.698039 0.031373 0.031373
0.760784 0.027451 0.043137
0.823529 0.023529 0.050980
0.886275 0.023529 0.062745
0.949020 0.019608 0.070588
0.000000 0.254902 0.011765
0.094118 0.254902 0.054902
0.160784 0.254902 0.054902
0.227451 0.254902 0.054902
0.254902 0.211765 0.054902
0.317647 0.196078 0.050980
0.380392 0.180392 0.047059
0.443137 0.164706 0.043137
0.505882 0.149020 0.039216
0.568627 0.129412 0.039216
0.635294 0.113725 0.035294
0.698039 0.098039 0.031373
0.760784 0.082353 0.027451
0.823529 0.066667 0.023529
0.886275 0.047059 0.023529
0.949020 0.031373 0.019608
0.000000 0.317647 0.000000
0.101961 0.317647 0.050980
0.168627 0.317647 0.050980
0.235294 0.317647 0.050980
0.301961 0.317647 0.050980
0.317647 0.262745 0.050980
0.380392 0.247059 0.047059
0.443137 0.231373 0.043137
0.505882 0.215686 0.039216
0.568627 0.196078 0.039216
0.635294 0.180392 0.035294
0.698039 0.164706 0.031373
0.760784 0.149020 0.027451
0.823529 0.133333 0.023529
0.886275 0.113725 0.023529
0.949020 0.098039 0.019608
0.011765 0.380392 0.000000
0.113725 0.380392 0.047059
0.180392 0.380392 0.047059
0.247059 0.380392 0.047059
0.313725 0.380392 0.047059
0.380392 0.380392 0.047059
0.380392 0.313725 0.047059
0.443137 0.298039 0.043137
0.505882 0.282353 0.039216
0.568627 0.262745 0.039216
0.635294 0.247059 0.035294
0.698039 0.231373 0.031373
0.760784 0.215686 0.027451
0.823529 0.200000 0.023529
0.886275 0.180392 0.023529
0.949020 0.164706 0.019608
0.023529 0.443137 0.000000
0.125490 0.443137 0.043137
0.192157 0.443137 0.043137
0.258824 0.443137 0.043137
0.325490 0.443137 0.043137
0.388235 0.443137 0.043137
0.443137 0.431373 0.043137
0.443137 0.364706 0.043137
0.505882 0.349020 0.039216
0.568627 0.329412 0.039216
0.635294 0.313725 0.035294
0.698039 0.298039 0.031373
0.760784 0.282353 0.027451
0.823529 0.266667 0.023529
0.886275 0.247059 0.023529
0.949020 0.231373 0.019608
0.039216 0.505882 0.000000
0.133333 0.505882 0.039216
0.200000 0.505882 0.039216
0.266667 0.505882 0.039216
0.333333 0.505882 0.039216
0.400000 0.505882 0.039216
0.466667 0.505882 0.039216
0.505882 0.478431 0.039216
0.505882 0.411765 0.039216
0.568627 0.396078 0.039216
0.635294 0.380392 0.035294
0.698039 0.364706 0.031373
0.760784 0.349020 0.027451
0.823529 0.329412 0.023529
0.886275 0.313725 0.023529
0.949020 0.298039 0.019608
0.050980 0.568627 0.000000
0.145098 0.568627 0.039216
0.211765 0.568627 0.039216
0.278431 0.568627 0.039216
0.345098 0.568627 0.039216
0.411765 0.568627 0.039216
0.478431 0.568627 0.039216
0.545098 0.568627 0.039216
0.568627 0.529412 0.039216
0.568627 0.462745 0.039216
0.635294 0.447059 0.035294
0.698039 0.431373 0.031373
0.760784 0.415686 0.027451
0.823529 0.396078 0.023529
0.886275 0.380392 0.023529
0.949020 0.364706 0.019608
0.062745 0.635294 0.000000
0.152941 0.635294 0.035294
0.219608 0.635294 0.035294
0.286275 0.635294 0.035294
0.352941 0.635294 0.035294
0.419608 0.635294 0.035294
0.486275 0.635294 0.035294
0.552941 0.635294 0.035294
0.619608 0.635294 0.035294
0.635294 0.580392 0.035294
0.635294 0.513725 0.035294
0.698039 0.498039 0.031373
0.760784 0.482353 0.027451
0.823529 0.462745 0.023529
0.886275 0.447059 0.023529
0.949020 0.431373 0.019608
0.074510 0.698039 0.000000
0.164706 0.698039 0.031373
0.231373 0.698039 0.031373
0.298039 0.698039 0.031373
0.364706 0.698039 0.031373
0.431373 0.698039 0.031373
0.498039 0.698039 0.031373
0.564706 0.698039 0.031373
0.631373 0.698039 0.031373
0.698039 0.698039 0.031373
0.698039 0.631373 0.031373
0.698039 0.564706 0.031373
0.760784 0.549020 0.027451
0.823529 0.529412 0.023529
0.886275 0.513725 0.023529
0.949020 0.498039 0.019608
0.090196 0.760784 0.000000
0.176471 0.760784 0.027451
0.243137 0.760784 0.027451
0.305882 0.760784 0.027451
0.372549 0.760784 0.027451
0.439216 0.760784 0.027451
0.505882 0.760784 0.027451
0.572549 0.760784 0.027451
0.639216 0.760784 0.027451
0.705882 0.760784 0.027451
0.760784 0.745098 0.027451
0.760784 0.678431 0.027451
0.760784 0.611765 0.027451
0.823529 0.596078 0.023529
0.886275 0.580392 0.023529
0.949020 0.564706 0.019608
0.101961 0.823529 0.000000
0.184314 0.823529 0.023529
0.250980 0.823529 0.023529
0.317647 0.823529 0.023529
0.384314 0.823529 0.023529
0.450980 0.823529 0.023529
0.517647 0.823529 0.023529
0.584314 0.823529 0.023529
0.650980 0.823529 0.023529
0.717647 0.823529 0.023529
0.784314 0.823529 0.023529
0.823529 0.796078 0.023529
0.823529 0.729412 0.023529
0.823529 0.662745 0.023529
0.886275 0.647059 0.023529
0.949020 0.631373 0.019608
0.113725 0.886275 0.000000
0.196078 0.886275 0.023529
0.262745 0.886275 0.023529
0.329412 0.886275 0.023529
0.396078 0.886275 0.023529
0.462745 0.886275 0.023529
0.529412 0.886275 0.023529
0.592157 0.886275 0.023529
0.658824 0.886275 0.023529
0.725490 0.886275 0.023529
0.792157 0.886275 0.023529
0.858824 0.886275 0.023529
0.886275 0.847059 0.023529
0.886275 0.780392 0.023529
0.886275 0.713725 0.023529
0.949020 0.698039 0.019608
0.125490 0.949020 0.000000
0.203922 0.949020 0.019608
0.270588 0.949020 0.019608
0.337255 0.949020 0.019608
0.403922 0.949020 0.019608
0.470588 0.949020 0.019608
0.537255 0.949020 0.019608
0.603922 0.949020 0.019608
0.670588 0.949020 0.019608
0.737255 0.949020 0.019608
0.803922 0.949020 0.019608
0.870588 0.949020 0.019608
0.937255 0.949020 0.019608
0.949020 0.898039 0.019608
0.949020 0.831373 0.019608
0.949020 0.764706 0.019608
0.000000 0.023529 0.125490
0.039216 0.000000 0.125490
0.101961 0.000000 0.125490
0.188235 0.000000 0.164706
0.254902 0.000000 0.176471
0.317647 0.000000 0.188235
0.380392 0.000000 0.203922
0.443137 0.000000 0.215686
0.505882 0.000000 0.227451
0.568627 0.000000 0.239216
0.635294 0.000000 0.254902
0.698039 0.000000 0.266667
0.760784 0.000000 0.278431
0.823529 0.000000 0.290196
0.886275 0.000000 0.305882
0.949020 0.000000 0.317647
0.000000 0.090196 0.125490
0.058824 0.074510 0.125490
0.113725 0.058824 0.125490
0.188235 0.058824 0.149020
0.254902 0.054902 0.160784
0.317647 0.050980 0.168627
0.380392 0.047059 0.180392
0.443137 0.043137 0.192157
0.505882 0.039216 0.200000
0.568627 0.039216 0.211765
0.635294 0.035294 0.219608
0.698039 0.031373 0.231373
0.760784 0.027451 0.243137
0.823529 0.023529 0.250980
0.886275 0.023529 0.262745
0.949020 0.019608 0.270588
0.000000 0.125490 0.101961
0.058824 0.125490 0.113725
0.125490 0.125490 0.125490
0.188235 0.121569 0.137255
0.254902 0.121569 0.145098
0.317647 0.117647 0.156863
0.380392 0.113725 0.168627
0.443137 0.109804 0.176471
0.505882 0.105882 0.188235
0.568627 0.105882 0.196078
0.635294 0.101961 0.207843
0.698039 0.098039 0.219608
0.760784 0.094118 0.227451
0.823529 0.090196 0.239216
0.886275 0.090196 0.247059
0.949020 0.086275 0.258824
0.000000 0.188235 0.090196
0.058824 0.188235 0.098039
0.137255 0.188235 0.121569
0.188235 0.176471 0.121569
0.254902 0.160784 0.121569
0.317647 0.145098 0.117647
0.380392 0.125490 0.113725
0.443137 0.109804 0.109804
0.505882 0.105882 0.121569
0.568627 0.105882 0.129412
0.635294 0.101961 0.141176
0.698039 0.098039 0.152941
0.760784 0.094118 0.160784
0.823529 0.090196 0.172549
0.886275 0.090196 0.180392
0.949020 0.086275 0.192157
0.000000 0.254902 0.074510
0.054902 0.254902 0.082353
0.145098 0.254902 0.121569
0.211765 0.254902 0.121569
0.254902 0.227451 0.121569
0.317647 0.211765 0.117647
0.380392 0.192157 0.113725
0.443137 0.176471 0.109804
0.505882 0.160784 0.105882
0.568627 0.145098 0.105882
0.635294 0.129412 0.101961
0.698039 0.109804 0.098039
0.760784 0.094118 0.094118
0.823529 0.090196 0.105882
0.886275 0.090196 0.113725
0.949020 0.086275 0.125490
0.000000 0.317647 0.062745
0.050980 0.317647 0.062745
0.156863 0.317647 0.117647
0.223529 0.317647 0.117647
0.290196 0.317647 0.117647
0.317647 0.278431 0.117647
0.380392 0.258824 0.113725
0.443137 0.243137 0.109804
0.505882 0.227451 0.105882
0.568627 0.211765 0.105882
0.635294 0.196078 0.101961
0.698039 0.176471 0.098039
0.760784 0.160784 0.094118
0.823529 0.145098 0.090196
0.886275 0.129412 0.090196
0.949020 0.113725 0.086275
0.000000 0.380392 0.050980
0.047059 0.380392 0.047059
0.168627 0.380392 0.113725
0.235294 0.380392 0.113725
0.301961 0.380392 0.113725
0.368627 0.380392 0.113725
0.380392 0.325490 0.113725
0.443137 0.309804 0.109804
0.505882 0.294118 0.105882
0.568627 0.278431 0.105882
0.635294 0.262745 0.101961
0.698039 0.243137 0.098039
0.760784 0.227451 0.094118
0.823529 0.211765 0.090196
0.886275 0.196078 0.090196
0.949020 0.180392 0.086275
0.000000 0.443137 0.039216
0.058824 0.443137 0.043137
0.176471 0.443137 0.109804
0.243137 0.443137 0.109804
0.309804 0.443137 0.109804
0.376471 0.443137 0.109804
0.443137 0.443137 0.109804
0.443137 0.376471 0.109804
0.505882 0.360784 0.105882
0.568627 0.345098 0.105882
0.635294 0.325490 0.101961
0.698039 0.309804 0.098039
0.760784 0.294118 0.094118
0.823529 0.278431 0.090196
0.886275 0.262745 0.090196
0.949020 0.247059 0.086275
0.000000 0.505882 0.023529
0.066667 0.505882 0.039216
0.188235 0.505882 0.105882
0.254902 0.505882 0.105882
0.321569 0.505882 0.105882
0.388235 0.505882 0.105882
0.454902 0.505882 0.105882
0.505882 0.494118 0.105882
0.505882 0.427451 0.105882
0.568627 0.411765 0.105882
0.635294 0.392157 0.101961
0.698039 0.376471 0.098039
0.760784 0.360784 0.094118
0.823529 0.345098 0.090196
0.886275 0.329412 0.090196
0.949020 0.309804 0.086275
0.000000 0.568627 0.011765
0.078431 0.568627 0.039216
0.196078 0.568627 0.105882
0.262745 0.568627 0.105882
0.329412 0.568627 0.105882
0.396078 0.568627 0.105882
0.462745 0.568627 0.105882
0.529412 0.568627 0.105882
0.568627 0.545098 0.105882
0.568627 0.478431 0.105882
0.635294 0.458824 0.101961
0.698039 0.443137 0.098039
0.760784 0.427451 0.094118
0.823529 0.411765 0.090196
0.886275 0.396078 0.090196
0.949020 0.376471 0.086275
0.000000 0.635294 0.000000
0.086275 0.635294 0.035294
0.207843 0.635294 0.101961
0.274510 0.635294 0.101961
0.341176 0.635294 0.101961
0.407843 0.635294 0.101961
0.474510 0.635294 0.101961
0.541176 0.635294 0.101961
0.607843 0.635294 0.101961
0.635294 0.592157 0.101961
0.635294 0.525490 0.101961
0.698039 0.509804 0.098039
0.760784 0.494118 0.094118
0.823529 0.478431 0.090196
0.886275 0.462745 0.090196
0.949020 0.443137 0.086275
0.011765 0.698039 0.000000
0.098039 0.698039 0.031373
0.219608 0.698039 0.098039
0.286275 0.698039 0.098039
0.349020 0.698039 0.098039
0.415686 0.698039 0.098039
0.482353 0.698039 0.098039
0.549020 0.698039 0.098039
0.615686 0.698039 0.098039
0.682353 0.698039 0.098039
0.698039 0.643137 0.098039
0.698039 0.576471 0.098039
0.760784 0.560784 0.094118
0.823529 0.545098 0.090196
0.886275 0.529412 0.090196
0.949020 0.509804 0.086275
0.023529 0.760784 0.000000
0.109804 0.760784 0.027451
0.227451 0.760784 0.094118
0.294118 0.760784 0.094118
0.360784 0.760784 0.094118
0.427451 0.760784 0.094118
0.494118 0.760784 0.094118
0.560784 0.760784 0.094118
0.627451 0.760784 0.094118
0.694118 0.760784 0.094118
0.760784 0.760784 0.094118
0.760784 0.694118 0.094118
0.760784 0.627451 0.094118
0.823529 0.611765 0.090196
0.886275 0.592157 0.090196
0.949020 0.576471 0.086275
0.039216 0.823529 0.000000
0.117647 0.823529 0.023529
0.239216 0.823529 0.090196
0.305882 0.823529 0.090196
0.372549 0.823529 0.090196
0.439216 0.823529 0.090196
0.505882 0.823529 0.090196
0.572549 0.823529 0.090196
0.635294 0.823529 0.090196
0.701961 0.823529 0.090196
0.768627 0.823529 0.090196
0.823529 0.811765 0.090196
0.823529 0.745098 0.090196
0.823529 0.678431 0.090196
0.886275 0.658824 0.090196
0.949020 0.643137 0.086275
0.050980 0.886275 0.000000
0.129412 0.886275 0.023529
0.247059 0.886275 0.090196
0.313725 0.886275 0.090196
0.380392 0.886275 0.090196
0.447059 0.886275 0.090196
0.513725 0.886275 0.090196
0.580392 0.886275 0.090196
0.647059 0.886275 0.090196
0.713725 0.886275 0.090196
0.780392 0.886275 0.090196
0.847059 0.886275 0.090196
0.886275 0.858824 0.090196
0.886275 0.792157 0.090196
0.886275 0.725490 0.090196
0.949020 0.709804 0.086275
0.062745 0.949020 0.000000
0.137255 0.949020 0.019608
0.258824 0.949020 0.086275
0.325490 0.949020 0.086275
0.392157 0.949020 0.086275
0.458824 0.949020 0.086275
0.525490 0.949020 0.086275
0.592157 0.949020 0.086275
0.658824 0.949020 0.086275
0.725490 0.949020 0.086275
0.792157 0.949020 0.086275
0.858824 0.949020 0.086275
0.921569 0.949020 0.086275
0.949020 0.909804 0.086275
0.949020 0.843137 0.086275
0.949020 0.776471 0.086275
0.000000 0.039216 0.188235
0.023529 0.000000 0.188235
0.090196 0.000000 0.188235
0.152941 0.000000 0.188235
0.254902 0.000000 0.239216
0.317647 0.000000 0.254902
0.380392 0.000000 0.266667
0.443137 0.000000 0.278431
0.505882 0.000000 0.290196
0.568627 0.000000 0.305882
0.635294 0.000000 0.317647
0.698039 0.000000 0.329412
0.760784 0.000000 0.341176
0.823529 0.000000 0.352941
0.886275 0.000000 0.368627
0.949020 0.000000 0.380392
0.000000 0.101961 0.188235
0.058824 0.082353 0.188235
0.098039 0.058824 0.188235
0.164706 0.058824 0.188235
0.254902 0.054902 0.227451
0.317647 0.050980 0.235294
0.380392 0.047059 0.247059
0.443137 0.043137 0.258824
0.505882 0.039216 0.266667
0.568627 0.039216 0.278431
0.635294 0.035294 0.286275
0.698039 0.031373 0.298039
0.760784 0.027451 0.305882
0.823529 0.023529 0.317647
0.886275 0.023529 0.329412
0.949020 0.019608 0.337255
0.000000 0.164706 0.188235
0.058824 0.149020 0.188235
0.121569 0.137255 0.188235
0.176471 0.121569 0.188235
0.254902 0.121569 0.211765
0.317647 0.117647 0.223529
0.380392 0.113725 0.235294
0.443137 0.109804 0.243137
0.505882 0.105882 0.254902
0.568627 0.105882 0.262745
0.635294 0.101961 0.274510
0.698039 0.098039 0.286275
0.760784 0.094118 0.294118
0.823529 0.090196 0.305882
0.886275 0.090196 0.313725
0.949020 0.086275 0.325490
0.000000 0.188235 0.152941
0.058824 0.188235 0.164706
0.121569 0.188235 0.176471
0.188235 0.188235 0.188235
0.254902 0.188235 0.200000
0.317647 0.184314 0.211765
0.380392 0.180392 0.219608
0.443137 0.176471 0.231373
0.505882 0.172549 0.239216
0.568627 0.172549 0.250980
0.635294 0.168627 0.262745
0.698039 0.164706 0.270588
0.760784 0.160784 0.282353
0.823529 0.156863 0.290196
0.886275 0.156863 0.301961
0.949020 0.152941 0.309804
0.000000 0.254902 0.141176
0.054902 0.254902 0.145098
0.121569 0.254902 0.160784
0.200000 0.254902 0.188235
0.254902 0.239216 0.188235
0.317647 0.223529 0.184314
0.380392 0.207843 0.180392
0.443137 0.192157 0.176471
0.505882 0.172549 0.172549
0.568627 0.172549 0.184314
0.635294 0.168627 0.196078
0.698039 0.164706 0.203922
0.760784 0.160784 0.215686
0.823529 0.156863 0.223529
0.886275 0.156863 0.235294
0.949020 0.152941 0.247059
0.000000 0.317647 0.125490
0.050980 0.317647 0.129412
0.117647 0.317647 0.145098
0.211765 0.317647 0.184314
0.278431 0.317647 0.184314
0.317647 0.290196 0.184314
0.380392 0.274510 0.180392
0.443137 0.258824 0.176471
0.505882 0.239216 0.172549
0.568627 0.223529 0.172549
0.635294 0.207843 0.168627
0.698039 0.192157 0.164706
0.760784 0.176471 0.160784
0.823529 0.156863 0.156863
0.886275 0.156863 0.168627
0.949020 0.152941 0.180392
0.000000 0.380392 0.113725
0.047059 0.380392 0.113725
0.113725 0.380392 0.125490
0.219608 0.380392 0.180392
0.286275 0.380392 0.180392
0.352941 0.380392 0.180392
0.380392 0.341176 0.180392
0.443137 0.325490 0.176471
0.505882 0.305882 0.172549
0.568627 0.290196 0.172549
0.635294 0.274510 0.168627
0.698039 0.258824 0.164706
0.760784 0.243137 0.160784
0.823529 0.223529 0.156863
0.886275 0.207843 0.156863
0.949020 0.192157 0.152941
0.000000 0.443137 0.101961
0.043137 0.443137 0.098039
0.109804 0.443137 0.109804
0.231373 0.443137 0.176471
0.298039 0.443137 0.176471
0.364706 0.443137 0.176471
0.431373 0.443137 0.176471
