pkg/planetgen/color/luts/ice_giant.cube
TITLE "ice_giant archetype LUT"
LUT_3D_SIZE 16
0.000000 0.000000 0.000000
0.070588 0.027451 0.007843
0.141176 0.054902 0.015686
0.211765 0.082353 0.019608
0.278431 0.113725 0.027451
0.349020 0.141176 0.035294
0.419608 0.168627 0.043137
0.490196 0.196078 0.047059
0.560784 0.223529 0.054902
0.631373 0.250980 0.062745
0.701961 0.278431 0.070588
0.768627 0.309804 0.078431
0.839216 0.337255 0.082353
0.909804 0.364706 0.090196
0.980392 0.392157 0.098039
1.000000 0.400000 0.098039
0.007843 0.070588 0.027451
0.047059 0.070588 0.007843
0.141176 0.117647 0.015686
0.211765 0.145098 0.019608
0.278431 0.176471 0.027451
0.349020 0.203922 0.035294
0.419608 0.231373 0.043137
0.490196 0.258824 0.047059
0.560784 0.286275 0.054902
0.631373 0.313725 0.062745
0.701961 0.341176 0.070588
0.768627 0.372549 0.078431
0.839216 0.400000 0.082353
0.909804 0.427451 0.090196
0.980392 0.454902 0.098039
1.000000 0.458824 0.098039
0.015686 0.141176 0.054902
0.035294 0.141176 0.015686
0.098039 0.141176 0.015686
0.211765 0.211765 0.019608
0.278431 0.239216 0.027451
0.349020 0.266667 0.035294
0.419608 0.294118 0.043137
0.490196 0.321569 0.047059
0.560784 0.349020 0.054902
0.631373 0.376471 0.062745
0.701961 0.407843 0.070588
0.768627 0.435294 0.078431
0.839216 0.462745 0.082353
0.909804 0.490196 0.090196
0.980392 0.517647 0.098039
1.000000 0.521569 0.098039
0.019608 0.211765 0.082353
0.019608 0.211765 0.019608
0.082353 0.211765 0.019608
0.145098 0.211765 0.019608
0.258824 0.278431 0.027451
0.349020 0.329412 0.035294
0.419608 0.356863 0.043137
0.490196 0.384314 0.047059
0.560784 0.411765 0.054902
0.631373 0.439216 0.062745
0.701961 0.470588 0.070588
0.768627 0.498039 0.078431
0.839216 0.525490 0.082353
0.909804 0.552941 0.090196
0.980392 0.580392 0.098039
1.000000 0.580392 0.098039
0.027451 0.278431 0.113725
0.027451 0.278431 0.047059
0.070588 0.278431 0.027451
0.133333 0.278431 0.027451
0.196078 0.278431 0.027451
0.309804 0.349020 0.035294
0.419608 0.419608 0.043137
0.490196 0.447059 0.047059
0.560784 0.474510 0.054902
0.631373 0.505882 0.062745
0.701961 0.533333 0.070588
0.768627 0.560784 0.078431
0.839216 0.588235 0.082353
0.909804 0.615686 0.090196
0.980392 0.643137 0.098039
1.000000 0.639216 0.098039
0.035294 0.349020 0.141176
0.035294 0.349020 0.078431
0.054902 0.349020 0.035294
0.117647 0.349020 0.035294
0.180392 0.349020 0.035294
0.243137 0.349020 0.035294
0.356863 0.419608 0.043137
0.470588 0.490196 0.047059
0.560784 0.537255 0.054902
0.631373 0.568627 0.062745
0.701961 0.596078 0.070588
0.768627 0.623529 0.078431
0.839216 0.650980 0.082353
0.909804 0.678431 0.090196
0.980392 0.705882 0.098039
1.000000 0.701961 0.098039
0.043137 0.419608 0.168627
0.043137 0.419608 0.105882
0.043137 0.419608 0.043137
0.105882 0.419608 0.043137
0.168627 0.419608 0.043137
0.231373 0.419608 0.043137
0.294118 0.419608 0.043137
0.407843 0.490196 0.047059
0.517647 0.560784 0.054902
0.631373 0.631373 0.062745
0.701961 0.658824 0.070588
0.768627 0.686275 0.078431
0.839216 0.713725 0.082353
0.909804 0.741176 0.090196
0.980392 0.768627 0.098039
1.000000 0.760784 0.098039
0.047059 0.490196 0.196078
0.047059 0.490196 0.133333
0.047059 0.490196 0.070588
0.090196 0.490196 0.047059
0.152941 0.490196 0.047059
0.215686 0.490196 0.047059
0.278431 0.490196 0.047059
0.341176 0.490196 0.047059
0.454902 0.560784 0.054902
0.568627 0.631373 0.062745
0.678431 0.701961 0.070588
0.768627 0.749020 0.078431
0.839216 0.776471 0.082353
0.909804 0.803922 0.090196
0.980392 0.831373 0.098039
1.000000 0.819608 0.098039
0.054902 0.560784 0.223529
0.054902 0.560784 0.160784
0.054902 0.560784 0.098039
0.078431 0.560784 0.054902
0.141176 0.560784 0.054902
0.203922 0.560784 0.054902
0.266667 0.560784 0.054902
0.329412 0.560784 0.054902
0.392157 0.560784 0.054902
0.505882 0.631373 0.062745
0.615686 0.701961 0.070588
0.729412 0.768627 0.078431
0.839216 0.839216 0.082353
0.909804 0.866667 0.090196
0.980392 0.894118 0.098039
1.000000 0.878431 0.098039
0.062745 0.631373 0.250980
0.062745 0.631373 0.188235
0.062745 0.631373 0.125490
0.062745 0.631373 0.062745
0.125490 0.631373 0.062745
0.188235 0.631373 0.062745
0.250980 0.631373 0.062745
0.313725 0.631373 0.062745
0.376471 0.631373 0.062745
0.439216 0.631373 0.062745
0.552941 0.701961 0.070588
0.666667 0.768627 0.078431
0.776471 0.839216 0.082353
0.890196 0.909804 0.090196
0.980392 0.960784 0.098039
1.000000 0.941176 0.098039
0.070588 0.701961 0.278431
0.070588 0.701961 0.215686
0.070588 0.701961 0.152941
0.070588 0.701961 0.090196
0.113725 0.701961 0.070588
0.176471 0.701961 0.070588
0.239216 0.701961 0.070588
0.301961 0.701961 0.070588
0.364706 0.701961 0.070588
0.427451 0.701961 0.070588
0.490196 0.701961 0.070588
0.603922 0.768627 0.078431
0.713725 0.839216 0.082353
0.827451 0.909804 0.090196
0.937255 0.980392 0.098039
1.000000 1.000000 0.098039
0.078431 0.768627 0.309804
0.078431 0.768627 0.243137
0.078431 0.768627 0.180392
0.078431 0.768627 0.117647
0.098039 0.768627 0.078431
0.160784 0.768627 0.078431
0.223529 0.768627 0.078431
0.286275 0.768627 0.078431
0.349020 0.768627 0.078431
0.411765 0.768627 0.078431
0.474510 0.768627 0.078431
0.537255 0.768627 0.078431
0.650980 0.839216 0.082353
0.764706 0.909804 0.090196
0.874510 0.980392 0.098039
0.941176 1.000000 0.098039
0.082353 0.839216 0.337255
0.082353 0.839216 0.274510
0.082353 0.839216 0.211765
0.082353 0.839216 0.145098
0.082353 0.839216 0.082353
0.145098 0.839216 0.082353
0.211765 0.839216 0.082353
0.274510 0.839216 0.082353
0.337255 0.839216 0.082353
0.400000 0.839216 0.082353
0.462745 0.839216 0.082353
0.525490 0.839216 0.082353
0.588235 0.839216 0.082353
0.701961 0.909804 0.090196
0.811765 0.980392 0.098039
0.878431 1.000000 0.098039
0.090196 0.909804 0.364706
0.090196 0.909804 0.301961
0.090196 0.909804 0.239216
0.090196 0.909804 0.176471
0.090196 0.909804 0.113725
0.133333 0.909804 0.090196
0.196078 0.909804 0.090196
0.258824 0.909804 0.090196
0.321569 0.909804 0.090196
0.384314 0.909804 0.090196
0.447059 0.909804 0.090196
0.509804 0.909804 0.090196
0.572549 0.909804 0.090196
0.635294 0.909804 0.090196
0.749020 0.980392 0.098039
0.819608 1.000000 0.098039
0.098039 0.980392 0.392157
0.098039 0.980392 0.329412
0.098039 0.980392 0.266667
0.098039 0.980392 0.203922
0.098039 0.980392 0.141176
0.117647 0.980392 0.098039
0.180392 0.980392 0.098039
0.243137 0.980392 0.098039
0.309804 0.980392 0.098039
0.372549 0.980392 0.098039
0.435294 0.980392 0.098039
0.498039 0.980392 0.098039
0.560784 0.980392 0.098039
0.623529 0.980392 0.098039
0.686275 0.980392 0.098039
0.760784 1.000000 0.098039
0.098039 1.000000 0.400000
0.098039 1.000000 0.341176
0.098039 1.000000 0.278431
0.098039 1.000000 0.219608
0.098039 1.000000 0.160784
0.098039 1.000000 0.098039
0.160784 1.000000 0.098039
0.219608 1.000000 0.098039
0.278431 1.000000 0.098039
0.341176 1.000000 0.098039
0.400000 1.000000 0.098039
0.458824 1.000000 0.098039
0.521569 1.000000 0.098039
0.580392 1.000000 0.098039
0.639216 1.000000 0.098039
0.701961 1.000000 0.098039
0.027451 0.007843 0.070588
0.070588 0.007843 0.047059
0.141176 0.015686 0.035294
0.211765 0.019608 0.019608
0.278431 0.047059 0.027451
0.349020 0.078431 0.035294
0.419608 0.105882 0.043137
0.490196 0.133333 0.047059
0.560784 0.160784 0.054902
0.631373 0.188235 0.062745
0.701961 0.215686 0.070588
0.768627 0.243137 0.078431
0.839216 0.274510 0.082353
0.909804 0.301961 0.090196
0.980392 0.329412 0.098039
1.000000 0.341176 0.098039
0.007843 0.047059 0.070588
0.070588 0.070588 0.070588
0.141176 0.098039 0.078431
0.211765 0.125490 0.082353
0.278431 0.152941 0.090196
0.349020 0.180392 0.098039
0.419608 0.211765 0.105882
0.490196 0.239216 0.113725
0.560784 0.266667 0.117647
0.631373 0.294118 0.125490
0.701961 0.321569 0.133333
0.768627 0.349020 0.141176
0.839216 0.376471 0.145098
0.909804 0.407843 0.152941
0.980392 0.435294 0.160784
1.000000 0.439216 0.160784
0.015686 0.141176 0.117647
0.078431 0.141176 0.098039
0.117647 0.141176 0.078431
0.211765 0.188235 0.082353
0.278431 0.215686 0.090196
0.349020 0.243137 0.098039
0.419608 0.274510 0.105882
0.490196 0.301961 0.113725
0.560784 0.329412 0.117647
0.631373 0.356863 0.125490
0.701961 0.384314 0.133333
0.768627 0.411765 0.141176
0.839216 0.439216 0.145098
0.909804 0.470588 0.152941
0.980392 0.498039 0.160784
1.000000 0.498039 0.160784
0.019608 0.211765 0.145098
0.082353 0.211765 0.125490
0.105882 0.211765 0.082353
0.168627 0.211765 0.082353
0.278431 0.278431 0.090196
0.349020 0.309804 0.098039
0.419608 0.337255 0.105882
0.490196 0.364706 0.113725
0.560784 0.392157 0.117647
0.631373 0.419608 0.125490
0.701961 0.447059 0.133333
0.768627 0.474510 0.141176
0.839216 0.505882 0.145098
0.909804 0.533333 0.152941
0.980392 0.560784 0.160784
1.000000 0.560784 0.160784
0.027451 0.278431 0.176471
0.090196 0.278431 0.152941
0.090196 0.278431 0.090196
0.152941 0.278431 0.090196
0.215686 0.278431 0.090196
0.329412 0.349020 0.098039
0.419608 0.400000 0.105882
0.490196 0.427451 0.113725
0.560784 0.454902 0.117647
0.631373 0.482353 0.125490
0.701961 0.509804 0.133333
0.768627 0.537255 0.141176
0.839216 0.568627 0.145098
0.909804 0.596078 0.152941
0.980392 0.623529 0.160784
1.000000 0.619608 0.160784
0.035294 0.349020 0.203922
0.098039 0.349020 0.180392
0.098039 0.349020 0.117647
0.141176 0.349020 0.098039
0.203922 0.349020 0.098039
0.266667 0.349020 0.098039
0.376471 0.419608 0.105882
0.490196 0.490196 0.113725
0.560784 0.517647 0.117647
0.631373 0.545098 0.125490
0.701961 0.572549 0.133333
0.768627 0.603922 0.141176
0.839216 0.631373 0.145098
0.909804 0.658824 0.152941
0.980392 0.686275 0.160784
1.000000 0.678431 0.160784
0.043137 0.419608 0.231373
0.105882 0.419608 0.211765
0.105882 0.419608 0.145098
0.125490 0.419608 0.105882
0.188235 0.419608 0.105882
0.250980 0.419608 0.105882
0.313725 0.419608 0.105882
0.427451 0.490196 0.113725
0.537255 0.560784 0.117647
0.631373 0.607843 0.125490
0.701961 0.635294 0.133333
0.768627 0.666667 0.141176
0.839216 0.694118 0.145098
0.909804 0.721569 0.152941
0.980392 0.749020 0.160784
1.000000 0.741176 0.160784
0.047059 0.490196 0.258824
0.113725 0.490196 0.239216
0.113725 0.490196 0.176471
0.113725 0.490196 0.113725
0.176471 0.490196 0.113725
0.239216 0.490196 0.113725
0.301961 0.490196 0.113725
0.364706 0.490196 0.113725
0.474510 0.560784 0.117647
0.588235 0.631373 0.125490
0.701961 0.701961 0.133333
0.768627 0.729412 0.141176
0.839216 0.756863 0.145098
0.909804 0.784314 0.152941
0.980392 0.811765 0.160784
1.000000 0.800000 0.160784
0.054902 0.560784 0.286275
0.117647 0.560784 0.266667
0.117647 0.560784 0.203922
0.117647 0.560784 0.141176
0.160784 0.560784 0.117647
0.223529 0.560784 0.117647
0.286275 0.560784 0.117647
0.349020 0.560784 0.117647
0.411765 0.560784 0.117647
0.525490 0.631373 0.125490
0.635294 0.701961 0.133333
0.749020 0.768627 0.141176
0.839216 0.819608 0.145098
0.909804 0.847059 0.152941
0.980392 0.874510 0.160784
1.000000 0.858824 0.160784
0.062745 0.631373 0.313725
0.125490 0.631373 0.294118
0.125490 0.631373 0.231373
0.125490 0.631373 0.168627
0.145098 0.631373 0.125490
0.211765 0.631373 0.125490
0.274510 0.631373 0.125490
0.337255 0.631373 0.125490
0.400000 0.631373 0.125490
0.462745 0.631373 0.125490
0.572549 0.701961 0.133333
0.686275 0.768627 0.141176
0.796078 0.839216 0.145098
0.909804 0.909804 0.152941
0.980392 0.937255 0.160784
1.000000 0.921569 0.160784
0.070588 0.701961 0.341176
0.133333 0.701961 0.321569
0.133333 0.701961 0.258824
0.133333 0.701961 0.196078
0.133333 0.701961 0.133333
0.196078 0.701961 0.133333
0.258824 0.701961 0.133333
0.321569 0.701961 0.133333
0.384314 0.701961 0.133333
0.447059 0.701961 0.133333
0.509804 0.701961 0.133333
0.623529 0.768627 0.141176
0.733333 0.839216 0.145098
0.847059 0.909804 0.152941
0.960784 0.980392 0.160784
1.000000 0.980392 0.160784
0.078431 0.768627 0.372549
0.141176 0.768627 0.349020
0.141176 0.768627 0.286275
0.141176 0.768627 0.223529
0.141176 0.768627 0.160784
0.180392 0.768627 0.141176
0.243137 0.768627 0.141176
0.309804 0.768627 0.141176
0.372549 0.768627 0.141176
0.435294 0.768627 0.141176
0.498039 0.768627 0.141176
0.560784 0.768627 0.141176
0.670588 0.839216 0.145098
0.784314 0.909804 0.152941
0.894118 0.980392 0.160784
0.960784 1.000000 0.160784
0.082353 0.839216 0.400000
0.145098 0.839216 0.376471
0.145098 0.839216 0.313725
0.145098 0.839216 0.250980
0.145098 0.839216 0.188235
0.168627 0.839216 0.145098
0.231373 0.839216 0.145098
0.294118 0.839216 0.145098
0.356863 0.839216 0.145098
0.419608 0.839216 0.145098
0.482353 0.839216 0.145098
0.545098 0.839216 0.145098
0.607843 0.839216 0.145098
0.721569 0.909804 0.152941
0.831373 0.980392 0.160784
0.901961 1.000000 0.160784
0.090196 0.909804 0.427451
0.152941 0.909804 0.407843
0.152941 0.909804 0.341176
0.152941 0.909804 0.278431
0.152941 0.909804 0.215686
0.152941 0.909804 0.152941
0.215686 0.909804 0.152941
0.278431 0.909804 0.152941
0.341176 0.909804 0.152941
0.407843 0.909804 0.152941
0.470588 0.909804 0.152941
0.533333 0.909804 0.152941
0.596078 0.909804 0.152941
0.658824 0.909804 0.152941
0.768627 0.980392 0.160784
0.839216 1.000000 0.160784
0.098039 0.980392 0.454902
0.160784 0.980392 0.435294
0.160784 0.980392 0.372549
0.160784 0.980392 0.309804
0.160784 0.980392 0.243137
0.160784 0.980392 0.180392
0.203922 0.980392 0.160784
0.266667 0.980392 0.160784
0.329412 0.980392 0.160784
0.392157 0.980392 0.160784
0.454902 0.980392 0.160784
0.517647 0.980392 0.160784
0.580392 0.980392 0.160784
0.643137 0.980392 0.160784
0.705882 0.980392 0.160784
0.780392 1.000000 0.160784
0.098039 1.000000 0.458824
0.160784 1.000000 0.439216
0.160784 1.000000 0.380392
0.160784 1.000000 0.321569
0.160784 1.000000 0.258824
0.160784 1.000000 0.200000
0.180392 1.000000 0.160784
0.239216 1.000000 0.160784
0.301961 1.000000 0.160784
0.360784 1.000000 0.160784
0.419608 1.000000 0.160784
0.478431 1.000000 0.160784
0.541176 1.000000 0.160784
0.600000 1.000000 0.160784
0.658824 1.000000 0.160784
0.721569 1.000000 0.160784
0.054902 0.015686 0.141176
0.117647 0.015686 0.141176
0.141176 0.015686 0.098039
0.211765 0.019608 0.082353
0.278431 0.027451 0.070588
0.349020 0.035294 0.054902
0.419608 0.043137 0.043137
0.490196 0.070588 0.047059
0.560784 0.098039 0.054902
0.631373 0.125490 0.062745
0.701961 0.152941 0.070588
0.768627 0.180392 0.078431
0.839216 0.211765 0.082353
0.909804 0.239216 0.090196
0.980392 0.266667 0.098039
1.000000 0.278431 0.098039
0.015686 0.035294 0.141176
0.098039 0.078431 0.141176
0.141176 0.078431 0.117647
0.211765 0.082353 0.105882
0.278431 0.090196 0.090196
0.349020 0.117647 0.098039
0.419608 0.145098 0.105882
0.490196 0.176471 0.113725
0.560784 0.203922 0.117647
0.631373 0.231373 0.125490
0.701961 0.258824 0.133333
0.768627 0.286275 0.141176
0.839216 0.313725 0.145098
0.909804 0.341176 0.152941
0.980392 0.372549 0.160784
1.000000 0.380392 0.160784
0.015686 0.098039 0.141176
0.078431 0.117647 0.141176
0.141176 0.141176 0.141176
0.211765 0.168627 0.145098
0.278431 0.196078 0.152941
0.349020 0.223529 0.160784
0.419608 0.250980 0.168627
0.490196 0.278431 0.176471
0.560784 0.309804 0.180392
0.631373 0.337255 0.188235
0.701961 0.364706 0.196078
0.768627 0.392157 0.203922
0.839216 0.419608 0.211765
0.909804 0.447059 0.215686
0.980392 0.474510 0.223529
1.000000 0.478431 0.219608
0.019608 0.211765 0.211765
0.082353 0.211765 0.188235
0.145098 0.211765 0.168627
0.188235 0.211765 0.145098
0.278431 0.258824 0.152941
0.349020 0.286275 0.160784
0.419608 0.313725 0.168627
0.490196 0.341176 0.176471
0.560784 0.372549 0.180392
0.631373 0.400000 0.188235
0.701961 0.427451 0.196078
0.768627 0.454902 0.203922
0.839216 0.482353 0.211765
0.909804 0.509804 0.215686
0.980392 0.537255 0.223529
1.000000 0.541176 0.219608
0.027451 0.278431 0.239216
0.090196 0.278431 0.215686
0.152941 0.278431 0.196078
0.176471 0.278431 0.152941
0.239216 0.278431 0.152941
0.349020 0.349020 0.160784
0.419608 0.376471 0.168627
0.490196 0.407843 0.176471
0.560784 0.435294 0.180392
0.631373 0.462745 0.188235
0.701961 0.490196 0.196078
0.768627 0.517647 0.203922
0.839216 0.545098 0.211765
0.909804 0.572549 0.215686
0.980392 0.603922 0.223529
1.000000 0.600000 0.219608
0.035294 0.349020 0.266667
0.098039 0.349020 0.243137
0.160784 0.349020 0.223529
0.160784 0.349020 0.160784
0.223529 0.349020 0.160784
0.286275 0.349020 0.160784
0.400000 0.419608 0.168627
0.490196 0.470588 0.176471
0.560784 0.498039 0.180392
0.631373 0.525490 0.188235
0.701961 0.552941 0.196078
0.768627 0.580392 0.203922
0.839216 0.607843 0.211765
0.909804 0.635294 0.215686
0.980392 0.666667 0.223529
1.000000 0.658824 0.219608
0.043137 0.419608 0.294118
0.105882 0.419608 0.274510
0.168627 0.419608 0.250980
0.168627 0.419608 0.188235
0.211765 0.419608 0.168627
0.274510 0.419608 0.168627
0.337255 0.419608 0.168627
0.447059 0.490196 0.176471
0.560784 0.560784 0.180392
0.631373 0.588235 0.188235
0.701961 0.615686 0.196078
0.768627 0.643137 0.203922
0.839216 0.670588 0.211765
0.909804 0.701961 0.215686
0.980392 0.729412 0.223529
1.000000 0.721569 0.219608
0.047059 0.490196 0.321569
0.113725 0.490196 0.301961
0.176471 0.490196 0.278431
0.176471 0.490196 0.215686
0.196078 0.490196 0.176471
0.258824 0.490196 0.176471
0.321569 0.490196 0.176471
0.384314 0.490196 0.176471
0.498039 0.560784 0.180392
0.607843 0.631373 0.188235
0.701961 0.678431 0.196078
0.768627 0.705882 0.203922
0.839216 0.733333 0.211765
0.909804 0.764706 0.215686
0.980392 0.792157 0.223529
1.000000 0.780392 0.219608
0.054902 0.560784 0.349020
0.117647 0.560784 0.329412
0.180392 0.560784 0.309804
0.180392 0.560784 0.243137
0.180392 0.560784 0.180392
0.243137 0.560784 0.180392
0.309804 0.560784 0.180392
0.372549 0.560784 0.180392
0.435294 0.560784 0.180392
0.545098 0.631373 0.188235
0.658824 0.701961 0.196078
0.768627 0.768627 0.203922
0.839216 0.796078 0.211765
0.909804 0.827451 0.215686
0.980392 0.854902 0.223529
1.000000 0.839216 0.219608
0.062745 0.631373 0.376471
0.125490 0.631373 0.356863
0.188235 0.631373 0.337255
0.188235 0.631373 0.274510
0.188235 0.631373 0.211765
0.231373 0.631373 0.188235
0.294118 0.631373 0.188235
0.356863 0.631373 0.188235
0.419608 0.631373 0.188235
0.482353 0.631373 0.188235
0.596078 0.701961 0.196078
0.705882 0.768627 0.203922
0.819608 0.839216 0.211765
0.909804 0.890196 0.215686
0.980392 0.917647 0.223529
1.000000 0.901961 0.219608
0.070588 0.701961 0.407843
0.133333 0.701961 0.384314
0.196078 0.701961 0.364706
0.196078 0.701961 0.301961
0.196078 0.701961 0.239216
0.215686 0.701961 0.196078
0.278431 0.701961 0.196078
0.341176 0.701961 0.196078
0.407843 0.701961 0.196078
0.470588 0.701961 0.196078
0.533333 0.701961 0.196078
0.643137 0.768627 0.203922
0.756863 0.839216 0.211765
0.866667 0.909804 0.215686
0.980392 0.980392 0.223529
1.000000 0.960784 0.219608
0.078431 0.768627 0.435294
0.141176 0.768627 0.411765
0.203922 0.768627 0.392157
0.203922 0.768627 0.329412
0.203922 0.768627 0.266667
0.203922 0.768627 0.203922
0.266667 0.768627 0.203922
0.329412 0.768627 0.203922
0.392157 0.768627 0.203922
0.454902 0.768627 0.203922
0.517647 0.768627 0.203922
0.580392 0.768627 0.203922
0.694118 0.839216 0.211765
0.803922 0.909804 0.215686
0.917647 0.980392 0.223529
0.980392 1.000000 0.219608
0.082353 0.839216 0.462745
0.145098 0.839216 0.439216
0.211765 0.839216 0.419608
0.211765 0.839216 0.356863
0.211765 0.839216 0.294118
0.211765 0.839216 0.231373
0.250980 0.839216 0.211765
0.313725 0.839216 0.211765
0.376471 0.839216 0.211765
0.439216 0.839216 0.211765
0.505882 0.839216 0.211765
0.568627 0.839216 0.211765
0.631373 0.839216 0.211765
0.741176 0.909804 0.215686
0.854902 0.980392 0.223529
0.921569 1.000000 0.219608
0.090196 0.909804 0.490196
0.152941 0.909804 0.470588
0.215686 0.909804 0.447059
0.215686 0.909804 0.384314
0.215686 0.909804 0.321569
0.215686 0.909804 0.258824
0.239216 0.909804 0.215686
0.301961 0.909804 0.215686
0.364706 0.909804 0.215686
0.427451 0.909804 0.215686
0.490196 0.909804 0.215686
0.552941 0.909804 0.215686
0.615686 0.909804 0.215686
0.678431 0.909804 0.215686
0.792157 0.980392 0.223529
0.858824 1.000000 0.219608
0.098039 0.980392 0.517647
0.160784 0.980392 0.498039
0.223529 0.980392 0.474510
0.223529 0.980392 0.411765
0.223529 0.980392 0.349020
0.223529 0.980392 0.286275
0.223529 0.980392 0.223529
0.286275 0.980392 0.223529
0.349020 0.980392 0.223529
0.411765 0.980392 0.223529
0.474510 0.980392 0.223529
0.537255 0.980392 0.223529
0.603922 0.980392 0.223529
0.666667 0.980392 0.223529
0.729412 0.980392 0.223529
0.800000 1.000000 0.219608
0.098039 1.000000 0.521569
0.160784 1.000000 0.498039
0.219608 1.000000 0.478431
0.219608 1.000000 0.419608
0.219608 1.000000 0.360784
0.219608 1.000000 0.298039
0.219608 1.000000 0.239216
0.258824 1.000000 0.219608
0.321569 1.000000 0.219608
0.380392 1.000000 0.219608
0.439216 1.000000 0.219608
0.501961 1.000000 0.219608
0.560784 1.000000 0.219608
0.619608 1.000000 0.219608
0.678431 1.000000 0.219608
0.741176 1.000000 0.219608
0.082353 0.019608 0.211765
0.145098 0.019608 0.211765
0.211765 0.019608 0.211765
0.211765 0.019608 0.145098
0.278431 0.027451 0.133333
0.349020 0.035294 0.117647
0.419608 0.043137 0.105882
0.490196 0.047059 0.090196
0.560784 0.054902 0.078431
0.631373 0.062745 0.062745
0.701961 0.090196 0.070588
0.768627 0.117647 0.078431
0.839216 0.145098 0.082353
0.909804 0.176471 0.090196
0.980392 0.203922 0.098039
1.000000 0.219608 0.098039
0.019608 0.019608 0.211765
0.125490 0.082353 0.211765
0.188235 0.082353 0.211765
0.211765 0.082353 0.168627
0.278431 0.090196 0.152941
0.349020 0.098039 0.141176
0.419608 0.105882 0.125490
0.490196 0.113725 0.113725
0.560784 0.141176 0.117647
0.631373 0.168627 0.125490
0.701961 0.196078 0.133333
0.768627 0.223529 0.141176
0.839216 0.250980 0.145098
0.909804 0.278431 0.152941
0.980392 0.309804 0.160784
1.000000 0.321569 0.160784
0.019608 0.082353 0.211765
0.082353 0.105882 0.211765
0.168627 0.145098 0.211765
0.211765 0.145098 0.188235
0.278431 0.152941 0.176471
0.349020 0.160784 0.160784
0.419608 0.188235 0.168627
0.490196 0.215686 0.176471
0.560784 0.243137 0.180392
0.631373 0.274510 0.188235
0.701961 0.301961 0.196078
0.768627 0.329412 0.203922
0.839216 0.356863 0.211765
0.909804 0.384314 0.215686
0.980392 0.411765 0.223529
1.000000 0.419608 0.219608
0.019608 0.145098 0.211765
0.082353 0.168627 0.211765
0.145098 0.188235 0.211765
0.211765 0.211765 0.211765
0.278431 0.239216 0.215686
0.349020 0.266667 0.223529
0.419608 0.294118 0.231373
0.490196 0.321569 0.239216
0.560784 0.349020 0.243137
0.631373 0.376471 0.250980
0.701961 0.407843 0.258824
0.768627 0.435294 0.266667
0.839216 0.462745 0.274510
0.909804 0.490196 0.278431
0.980392 0.517647 0.286275
1.000000 0.521569 0.278431
0.027451 0.258824 0.278431
0.090196 0.278431 0.278431
0.152941 0.278431 0.258824
0.215686 0.278431 0.239216
0.258824 0.278431 0.215686
0.349020 0.329412 0.223529
0.419608 0.356863 0.231373
0.490196 0.384314 0.239216
0.560784 0.411765 0.243137
0.631373 0.439216 0.250980
0.701961 0.470588 0.258824
0.768627 0.498039 0.266667
0.839216 0.525490 0.274510
0.909804 0.552941 0.278431
0.980392 0.580392 0.286275
1.000000 0.580392 0.278431
0.035294 0.349020 0.329412
0.098039 0.349020 0.309804
0.160784 0.349020 0.286275
0.223529 0.349020 0.266667
0.243137 0.349020 0.223529
0.309804 0.349020 0.223529
0.419608 0.419608 0.231373
0.490196 0.447059 0.239216
0.560784 0.474510 0.243137
0.631373 0.505882 0.250980
0.701961 0.533333 0.258824
0.768627 0.560784 0.266667
0.839216 0.588235 0.274510
0.909804 0.615686 0.278431
0.980392 0.643137 0.286275
1.000000 0.639216 0.278431
0.043137 0.419608 0.356863
0.105882 0.419608 0.337255
0.168627 0.419608 0.313725
0.231373 0.419608 0.294118
0.231373 0.419608 0.231373
0.294118 0.419608 0.231373
0.356863 0.419608 0.231373
0.470588 0.490196 0.239216
0.560784 0.537255 0.243137
0.631373 0.568627 0.250980
0.701961 0.596078 0.258824
0.768627 0.623529 0.266667
0.839216 0.650980 0.274510
0.909804 0.678431 0.278431
0.980392 0.705882 0.286275
1.000000 0.701961 0.278431
0.047059 0.490196 0.384314
0.113725 0.490196 0.364706
0.176471 0.490196 0.341176
0.239216 0.490196 0.321569
0.239216 0.490196 0.258824
0.278431 0.490196 0.239216
0.341176 0.490196 0.239216
