pkg/planetgen/color/luts/ice_giant.cube
TITLE "ice_giant archetype LUT"
LUT_3D_SIZE 6
0.000000 0.000000 0.000000
0.211765 0.082353 0.019608
0.419608 0.168627 0.043137
0.631373 0.250980 0.062745
0.839216 0.337255 0.082353
1.000000 0.400000 0.098039
0.019608 0.211765 0.082353
0.145098 0.211765 0.019608
0.419608 0.356863 0.043137
0.631373 0.439216 0.062745
0.839216 0.525490 0.082353
1.000000 0.580392 0.098039
0.043137 0.419608 0.168627
0.105882 0.419608 0.043137
0.294118 0.419608 0.043137
0.631373 0.631373 0.062745
0.839216 0.713725 0.082353
1.000000 0.760784 0.098039
0.062745 0.631373 0.250980
0.062745 0.631373 0.062745
0.250980 0.631373 0.062745
0.439216 0.631373 0.062745
0.776471 0.839216 0.082353
1.000000 0.941176 0.098039
0.082353 0.839216 0.337255
0.082353 0.839216 0.145098
0.211765 0.839216 0.082353
0.400000 0.839216 0.082353
0.588235 0.839216 0.082353
0.878431 1.000000 0.098039
0.098039 1.000000 0.400000
0.098039 1.000000 0.219608
0.160784 1.000000 0.098039
0.341176 1.000000 0.098039
0.521569 1.000000 0.098039
0.701961 1.000000 0.098039
0.082353 0.019608 0.211765
0.211765 0.019608 0.145098
0.419608 0.043137 0.105882
0.631373 0.062745 0.062745
0.839216 0.145098 0.082353
1.000000 0.219608 0.098039
0.019608 0.145098 0.211765
0.211765 0.211765 0.211765
0.419608 0.294118 0.231373
0.631373 0.376471 0.250980
0.839216 0.462745 0.274510
1.000000 0.521569 0.278431
0.043137 0.419608 0.356863
0.231373 0.419608 0.294118
0.356863 0.419608 0.231373
0.631373 0.568627 0.250980
0.839216 0.650980 0.274510
1.000000 0.701961 0.278431
0.062745 0.631373 0.439216
0.250980 0.631373 0.376471
0.313725 0.631373 0.250980
0.505882 0.631373 0.250980
0.839216 0.839216 0.274510
1.000000 0.878431 0.278431
0.082353 0.839216 0.525490
0.274510 0.839216 0.462745
0.274510 0.839216 0.274510
0.462745 0.839216 0.274510
0.650980 0.839216 0.274510
0.941176 1.000000 0.278431
0.098039 1.000000 0.580392
0.278431 1.000000 0.521569
0.278431 1.000000 0.341176
0.400000 1.000000 0.278431
0.580392 1.000000 0.278431
0.760784 1.000000 0.278431
0.168627 0.043137 0.419608
0.356863 0.043137 0.419608
0.419608 0.043137 0.294118
0.631373 0.062745 0.250980
0.839216 0.082353 0.211765
1.000000 0.098039 0.160784
0.043137 0.105882 0.419608
0.294118 0.231373 0.419608
0.419608 0.231373 0.356863
0.631373 0.250980 0.313725
0.839216 0.274510 0.274510
1.000000 0.341176 0.278431
0.043137 0.294118 0.419608
0.231373 0.356863 0.419608
0.419608 0.419608 0.419608
0.631373 0.505882 0.439216
0.839216 0.588235 0.462745
1.000000 0.639216 0.458824
0.062745 0.631373 0.631373
0.250980 0.631373 0.568627
0.439216 0.631373 0.505882
0.568627 0.631373 0.439216
0.839216 0.776471 0.462745
1.000000 0.819608 0.458824
0.082353 0.839216 0.713725
0.274510 0.839216 0.650980
0.462745 0.839216 0.588235
0.525490 0.839216 0.462745
0.713725 0.839216 0.462745
1.000000 1.000000 0.458824
0.098039 1.000000 0.760784
0.278431 1.000000 0.701961
0.458824 1.000000 0.639216
0.458824 1.000000 0.458824
0.639216 1.000000 0.458824
0.819608 1.000000 0.458824
0.250980 0.062745 0.631373
0.439216 0.062745 0.631373
0.631373 0.062745 0.631373
0.631373 0.062745 0.439216
0.839216 0.082353 0.400000
1.000000 0.098039 0.341176
0.062745 0.062745 0.631373
0.376471 0.250980 0.631373
0.568627 0.250980 0.631373
0.631373 0.250980 0.505882
0.839216 0.274510 0.462745
1.000000 0.278431 0.400000
0.062745 0.250980 0.631373
0.250980 0.313725 0.631373
0.505882 0.439216 0.631373
0.631373 0.439216 0.568627
0.839216 0.462745 0.525490
1.000000 0.458824 0.458824
0.062745 0.439216 0.631373
0.250980 0.505882 0.631373
0.439216 0.568627 0.631373
0.631373 0.631373 0.631373
0.839216 0.713725 0.650980
1.000000 0.760784 0.639216
0.082353 0.776471 0.839216
0.274510 0.839216 0.839216
0.462745 0.839216 0.776471
0.650980 0.839216 0.713725
0.776471 0.839216 0.650980
1.000000 0.941176 0.639216
0.098039 1.000000 0.941176
0.278431 1.000000 0.878431
0.458824 1.000000 0.819608
0.639216 1.000000 0.760784
0.701961 1.000000 0.639216
0.878431 1.000000 0.639216
0.337255 0.082353 0.839216
0.525490 0.082353 0.839216
0.713725 0.082353 0.839216
0.839216 0.082353 0.776471
0.839216 0.082353 0.588235
1.000000 0.098039 0.521569
0.145098 0.082353 0.839216
0.462745 0.274510 0.839216
0.650980 0.274510 0.839216
0.839216 0.274510 0.839216
0.839216 0.274510 0.650980
1.000000 0.278431 0.580392
0.082353 0.211765 0.839216
0.274510 0.274510 0.839216
0.588235 0.462745 0.839216
0.776471 0.462745 0.839216
0.839216 0.462745 0.713725
1.000000 0.458824 0.639216
0.082353 0.400000 0.839216
0.274510 0.462745 0.839216
0.462745 0.525490 0.839216
0.713725 0.650980 0.839216
0.839216 0.650980 0.776471
1.000000 0.639216 0.701961
0.082353 0.588235 0.839216
0.274510 0.650980 0.839216
0.462745 0.713725 0.839216
0.650980 0.776471 0.839216
0.839216 0.839216 0.839216
1.000000 0.878431 0.819608
0.098039 0.878431 1.000000
0.278431 0.941176 1.000000
0.458824 1.000000 1.000000
0.639216 1.000000 0.941176
0.819608 1.000000 0.878431
0.941176 1.000000 0.819608
0.400000 0.098039 1.000000
0.580392 0.098039 1.000000
0.760784 0.098039 1.000000
0.941176 0.098039 1.000000
1.000000 0.098039 0.878431
1.000000 0.098039 0.701961
0.219608 0.098039 1.000000
0.521569 0.278431 1.000000
0.698039 0.278431 1.000000
0.878431 0.278431 1.000000
1.000000 0.278431 0.941176
1.000000 0.278431 0.760784
0.098039 0.160784 1.000000
0.341176 0.278431 1.000000
0.639216 0.458824 1.000000
0.819608 0.458824 1.000000
1.000000 0.458824 1.000000
1.000000 0.458824 0.819608
0.098039 0.341176 1.000000
0.278431 0.400000 1.000000
0.458824 0.458824 1.000000
0.760784 0.639216 1.000000
0.941176 0.639216 1.000000
1.000000 0.639216 0.878431
0.098039 0.521569 1.000000
0.278431 0.580392 1.000000
0.458824 0.639216 1.000000
0.639216 0.698039 1.000000
0.878431 0.819608 1.000000
1.000000 0.819608 0.941176
0.098039 0.698039 1.000000
0.278431 0.760784 1.000000
0.458824 0.819608 1.000000
0.639216 0.878431 1.000000
0.819608 0.941176 1.000000
1.000000 1.000000 1.000000
