pkg/planetgen/color/luts/ice_world.cube
TITLE "ice_world archetype LUT"
LUT_3D_SIZE 6
0.000000 0.000000 0.000000
0.211765 0.074510 0.031373
0.419608 0.152941 0.062745
0.631373 0.227451 0.094118
0.839216 0.305882 0.125490
1.000000 0.360784 0.149020
0.031373 0.211765 0.074510
0.164706 0.211765 0.031373
0.419608 0.329412 0.062745
0.631373 0.407843 0.094118
0.839216 0.482353 0.125490
1.000000 0.533333 0.149020
0.062745 0.419608 0.152941
0.152941 0.419608 0.062745
0.329412 0.419608 0.062745
0.631373 0.584314 0.094118
0.839216 0.662745 0.125490
1.000000 0.701961 0.149020
0.094118 0.631373 0.227451
0.137255 0.631373 0.094118
0.317647 0.631373 0.094118
0.498039 0.631373 0.094118
0.839216 0.839216 0.125490
1.000000 0.870588 0.149020
0.125490 0.839216 0.305882
0.125490 0.839216 0.125490
0.305882 0.839216 0.125490
0.482353 0.839216 0.125490
0.662745 0.839216 0.125490
0.956863 1.000000 0.149020
0.149020 1.000000 0.360784
0.149020 1.000000 0.192157
0.278431 1.000000 0.149020
0.447059 1.000000 0.149020
0.615686 1.000000 0.149020
0.788235 1.000000 0.149020
0.074510 0.031373 0.211765
0.211765 0.031373 0.164706
0.419608 0.062745 0.152941
0.631373 0.094118 0.137255
0.839216 0.125490 0.125490
1.000000 0.192157 0.149020
0.031373 0.164706 0.211765
0.211765 0.211765 0.211765
0.419608 0.286275 0.243137
0.631373 0.360784 0.274510
0.839216 0.439216 0.305882
1.000000 0.490196 0.321569
0.062745 0.419608 0.329412
0.243137 0.419608 0.286275
0.376471 0.419608 0.243137
0.631373 0.541176 0.274510
0.839216 0.615686 0.305882
1.000000 0.658824 0.321569
0.094118 0.631373 0.407843
0.274510 0.631373 0.360784
0.360784 0.631373 0.274510
0.541176 0.631373 0.274510
0.839216 0.796078 0.305882
1.000000 0.831373 0.321569
0.125490 0.839216 0.482353
0.305882 0.839216 0.439216
0.349020 0.839216 0.305882
0.529412 0.839216 0.305882
0.705882 0.839216 0.305882
1.000000 1.000000 0.321569
0.149020 1.000000 0.533333
0.321569 1.000000 0.490196
0.321569 1.000000 0.321569
0.490196 1.000000 0.321569
0.658824 1.000000 0.321569
0.831373 1.000000 0.321569
0.152941 0.062745 0.419608
0.329412 0.062745 0.419608
0.419608 0.062745 0.329412
0.631373 0.094118 0.317647
0.839216 0.125490 0.305882
1.000000 0.149020 0.278431
0.062745 0.152941 0.419608
0.286275 0.243137 0.419608
0.419608 0.243137 0.376471
0.631373 0.274510 0.360784
0.839216 0.305882 0.349020
1.000000 0.321569 0.321569
0.062745 0.329412 0.419608
0.243137 0.376471 0.419608
0.419608 0.419608 0.419608
0.631373 0.498039 0.450980
0.839216 0.572549 0.482353
1.000000 0.615686 0.490196
0.094118 0.631373 0.584314
0.274510 0.631373 0.541176
0.450980 0.631373 0.498039
0.584314 0.631373 0.450980
0.839216 0.749020 0.482353
1.000000 0.788235 0.490196
0.125490 0.839216 0.662745
0.305882 0.839216 0.615686
0.482353 0.839216 0.572549
0.572549 0.839216 0.482353
0.749020 0.839216 0.482353
1.000000 0.956863 0.490196
0.149020 1.000000 0.701961
0.321569 1.000000 0.658824
0.490196 1.000000 0.615686
0.533333 1.000000 0.490196
0.701961 1.000000 0.490196
0.870588 1.000000 0.490196
0.227451 0.094118 0.631373
0.407843 0.094118 0.631373
0.584314 0.094118 0.631373
0.631373 0.094118 0.498039
0.839216 0.125490 0.482353
1.000000 0.149020 0.447059
0.094118 0.137255 0.631373
0.360784 0.274510 0.631373
0.541176 0.274510 0.631373
0.631373 0.274510 0.541176
0.839216 0.305882 0.529412
1.000000 0.321569 0.490196
0.094118 0.317647 0.631373
0.274510 0.360784 0.631373
0.498039 0.450980 0.631373
0.631373 0.450980 0.584314
0.839216 0.482353 0.572549
1.000000 0.490196 0.533333
0.094118 0.498039 0.631373
0.274510 0.541176 0.631373
0.450980 0.584314 0.631373
0.631373 0.631373 0.631373
0.839216 0.705882 0.662745
1.000000 0.745098 0.658824
0.125490 0.839216 0.839216
0.305882 0.839216 0.796078
0.482353 0.839216 0.749020
0.662745 0.839216 0.705882
0.796078 0.839216 0.662745
1.000000 0.913725 0.658824
0.149020 1.000000 0.870588
0.321569 1.000000 0.831373
0.490196 1.000000 0.788235
0.658824 1.000000 0.745098
0.745098 1.000000 0.658824
0.913725 1.000000 0.658824
0.305882 0.125490 0.839216
0.482353 0.125490 0.839216
0.662745 0.125490 0.839216
0.839216 0.125490 0.839216
0.839216 0.125490 0.662745
1.000000 0.149020 0.615686
0.125490 0.125490 0.839216
0.439216 0.305882 0.839216
0.615686 0.305882 0.839216
0.796078 0.305882 0.839216
0.839216 0.305882 0.705882
1.000000 0.321569 0.658824
0.125490 0.305882 0.839216
0.305882 0.349020 0.839216
0.572549 0.482353 0.839216
0.749020 0.482353 0.839216
0.839216 0.482353 0.749020
1.000000 0.490196 0.701961
0.125490 0.482353 0.839216
0.305882 0.529412 0.839216
0.482353 0.572549 0.839216
0.705882 0.662745 0.839216
0.839216 0.662745 0.796078
1.000000 0.658824 0.745098
0.125490 0.662745 0.839216
0.305882 0.705882 0.839216
0.482353 0.749020 0.839216
0.662745 0.796078 0.839216
0.839216 0.839216 0.839216
1.000000 0.870588 0.831373
0.149020 0.956863 1.000000
0.321569 1.000000 1.000000
0.490196 1.000000 0.956863
0.658824 1.000000 0.913725
0.831373 1.000000 0.870588
0.956863 1.000000 0.831373
0.360784 0.149020 1.000000
0.533333 0.149020 1.000000
0.701961 0.149020 1.000000
0.870588 0.149020 1.000000
1.000000 0.149020 0.956863
1.000000 0.149020 0.788235
0.192157 0.149020 1.000000
0.490196 0.321569 1.000000
0.658824 0.321569 1.000000
0.831373 0.321569 1.000000
1.000000 0.321569 1.000000
1.000000 0.321569 0.831373
0.149020 0.278431 1.000000
0.321569 0.321569 1.000000
0.615686 0.490196 1.000000
0.788235 0.490196 1.000000
0.956863 0.490196 1.000000
1.000000 0.490196 0.870588
0.149020 0.447059 1.000000
0.321569 0.490196 1.000000
0.490196 0.533333 1.000000
0.745098 0.658824 1.000000
0.913725 0.658824 1.000000
1.000000 0.658824 0.913725
0.149020 0.615686 1.000000
0.321569 0.658824 1.000000
0.490196 0.701961 1.000000
0.658824 0.745098 1.000000
0.870588 0.831373 1.000000
1.000000 0.831373 0.956863
0.149020 0.788235 1.000000
0.321569 0.831373 1.000000
0.490196 0.870588 1.000000
0.658824 0.913725 1.000000
0.831373 0.956863 1.000000
1.000000 1.000000 1.000000
