pkg/planetgen/color/luts/ice_world.cube
TITLE "ice_world archetype LUT"
LUT_3D_SIZE 16
0.000000 0.000000 0.000000
0.070588 0.023529 0.011765
0.141176 0.050980 0.019608
0.211765 0.074510 0.031373
0.278431 0.101961 0.043137
0.349020 0.125490 0.050980
0.419608 0.152941 0.062745
0.490196 0.176471 0.074510
0.560784 0.203922 0.082353
0.631373 0.227451 0.094118
0.701961 0.254902 0.105882
0.768627 0.278431 0.113725
0.839216 0.305882 0.125490
0.909804 0.329412 0.137255
0.980392 0.356863 0.145098
1.000000 0.360784 0.149020
0.011765 0.070588 0.023529
0.054902 0.070588 0.011765
0.141176 0.109804 0.019608
0.211765 0.137255 0.031373
0.278431 0.160784 0.043137
0.349020 0.188235 0.050980
0.419608 0.211765 0.062745
0.490196 0.235294 0.074510
0.560784 0.262745 0.082353
0.631373 0.286275 0.094118
0.701961 0.313725 0.105882
0.768627 0.337255 0.113725
0.839216 0.364706 0.125490
0.909804 0.388235 0.137255
0.980392 0.415686 0.145098
1.000000 0.419608 0.149020
0.019608 0.141176 0.050980
0.050980 0.141176 0.019608
0.109804 0.141176 0.019608
0.211765 0.196078 0.031373
0.278431 0.219608 0.043137
0.349020 0.247059 0.050980
0.419608 0.270588 0.062745
0.490196 0.298039 0.074510
0.560784 0.321569 0.082353
0.631373 0.349020 0.094118
0.701961 0.372549 0.105882
0.768627 0.400000 0.113725
0.839216 0.423529 0.125490
0.909804 0.447059 0.137255
0.980392 0.474510 0.145098
1.000000 0.474510 0.149020
0.031373 0.211765 0.074510
0.047059 0.211765 0.031373
0.105882 0.211765 0.031373
0.164706 0.211765 0.031373
0.278431 0.278431 0.043137
0.349020 0.305882 0.050980
0.419608 0.329412 0.062745
0.490196 0.356863 0.074510
0.560784 0.380392 0.082353
0.631373 0.407843 0.094118
0.701961 0.431373 0.105882
0.768627 0.458824 0.113725
0.839216 0.482353 0.125490
0.909804 0.509804 0.137255
0.980392 0.533333 0.145098
1.000000 0.533333 0.149020
0.043137 0.278431 0.101961
0.043137 0.278431 0.043137
0.101961 0.278431 0.043137
0.160784 0.278431 0.043137
0.219608 0.278431 0.043137
0.333333 0.349020 0.050980
0.419608 0.392157 0.062745
0.490196 0.415686 0.074510
0.560784 0.439216 0.082353
0.631373 0.466667 0.094118
0.701961 0.490196 0.105882
0.768627 0.517647 0.113725
0.839216 0.541176 0.125490
0.909804 0.568627 0.137255
0.980392 0.592157 0.145098
1.000000 0.588235 0.149020
0.050980 0.349020 0.125490
0.050980 0.349020 0.066667
0.098039 0.349020 0.050980
0.156863 0.349020 0.050980
0.215686 0.349020 0.050980
0.274510 0.349020 0.050980
0.392157 0.419608 0.062745
0.490196 0.474510 0.074510
0.560784 0.501961 0.082353
0.631373 0.525490 0.094118
0.701961 0.552941 0.105882
0.768627 0.576471 0.113725
0.839216 0.603922 0.125490
0.909804 0.627451 0.137255
0.980392 0.650980 0.145098
1.000000 0.647059 0.149020
0.062745 0.419608 0.152941
0.062745 0.419608 0.094118
0.094118 0.419608 0.062745
0.152941 0.419608 0.062745
0.211765 0.419608 0.062745
0.270588 0.419608 0.062745
0.329412 0.419608 0.062745
0.447059 0.490196 0.074510
0.560784 0.560784 0.082353
0.631373 0.584314 0.094118
0.701961 0.611765 0.105882
0.768627 0.635294 0.113725
0.839216 0.662745 0.125490
0.909804 0.686275 0.137255
0.980392 0.713725 0.145098
1.000000 0.701961 0.149020
0.074510 0.490196 0.176471
0.074510 0.490196 0.117647
0.090196 0.490196 0.074510
0.149020 0.490196 0.074510
0.207843 0.490196 0.074510
0.266667 0.490196 0.074510
0.325490 0.490196 0.074510
0.384314 0.490196 0.074510
0.501961 0.560784 0.082353
0.615686 0.631373 0.094118
0.701961 0.670588 0.105882
0.768627 0.694118 0.113725
0.839216 0.721569 0.125490
0.909804 0.745098 0.137255
0.980392 0.772549 0.145098
1.000000 0.760784 0.149020
0.082353 0.560784 0.203922
0.082353 0.560784 0.145098
0.082353 0.560784 0.082353
0.145098 0.560784 0.082353
0.203922 0.560784 0.082353
0.262745 0.560784 0.082353
0.321569 0.560784 0.082353
0.380392 0.560784 0.082353
0.439216 0.560784 0.082353
0.556863 0.631373 0.094118
0.670588 0.701961 0.105882
0.768627 0.756863 0.113725
0.839216 0.780392 0.125490
0.909804 0.803922 0.137255
0.980392 0.831373 0.145098
1.000000 0.815686 0.149020
0.094118 0.631373 0.227451
0.094118 0.631373 0.168627
0.094118 0.631373 0.109804
0.137255 0.631373 0.094118
0.200000 0.631373 0.094118
0.258824 0.631373 0.094118
0.317647 0.631373 0.094118
0.376471 0.631373 0.094118
0.435294 0.631373 0.094118
0.498039 0.631373 0.094118
0.611765 0.701961 0.105882
0.725490 0.768627 0.113725
0.839216 0.839216 0.125490
0.909804 0.866667 0.137255
0.980392 0.890196 0.145098
1.000000 0.870588 0.149020
0.105882 0.701961 0.254902
0.105882 0.701961 0.196078
0.105882 0.701961 0.133333
0.133333 0.701961 0.105882
0.196078 0.701961 0.105882
0.254902 0.701961 0.105882
0.313725 0.701961 0.105882
0.372549 0.701961 0.105882
0.431373 0.701961 0.105882
0.490196 0.701961 0.105882
0.552941 0.701961 0.105882
0.666667 0.768627 0.113725
0.780392 0.839216 0.125490
0.894118 0.909804 0.137255
0.980392 0.949020 0.145098
1.000000 0.929412 0.149020
0.113725 0.768627 0.278431
0.113725 0.768627 0.219608
0.113725 0.768627 0.160784
0.129412 0.768627 0.113725
0.188235 0.768627 0.113725
0.250980 0.768627 0.113725
0.309804 0.768627 0.113725
0.368627 0.768627 0.113725
0.427451 0.768627 0.113725
0.486275 0.768627 0.113725
0.545098 0.768627 0.113725
0.607843 0.768627 0.113725
0.721569 0.839216 0.125490
0.835294 0.909804 0.137255
0.949020 0.980392 0.145098
1.000000 0.984314 0.149020
0.125490 0.839216 0.305882
0.125490 0.839216 0.243137
0.125490 0.839216 0.184314
0.125490 0.839216 0.125490
0.184314 0.839216 0.125490
0.243137 0.839216 0.125490
0.305882 0.839216 0.125490
0.364706 0.839216 0.125490
0.423529 0.839216 0.125490
0.482353 0.839216 0.125490
0.541176 0.839216 0.125490
0.603922 0.839216 0.125490
0.662745 0.839216 0.125490
0.776471 0.909804 0.137255
0.890196 0.980392 0.145098
0.956863 1.000000 0.149020
0.137255 0.909804 0.329412
0.137255 0.909804 0.270588
0.137255 0.909804 0.211765
0.137255 0.909804 0.152941
0.180392 0.909804 0.137255
0.239216 0.909804 0.137255
0.301961 0.909804 0.137255
0.360784 0.909804 0.137255
0.419608 0.909804 0.137255
0.478431 0.909804 0.137255
0.537255 0.909804 0.137255
0.596078 0.909804 0.137255
0.658824 0.909804 0.137255
0.717647 0.909804 0.137255
0.831373 0.980392 0.145098
0.901961 1.000000 0.149020
0.145098 0.980392 0.356863
0.145098 0.980392 0.294118
0.145098 0.980392 0.235294
0.145098 0.980392 0.176471
0.176471 0.980392 0.145098
0.235294 0.980392 0.145098
0.294118 0.980392 0.145098
0.356863 0.980392 0.145098
0.415686 0.980392 0.145098
0.474510 0.980392 0.145098
0.533333 0.980392 0.145098
0.592157 0.980392 0.145098
0.650980 0.980392 0.145098
0.713725 0.980392 0.145098
0.772549 0.980392 0.145098
0.843137 1.000000 0.149020
0.149020 1.000000 0.360784
0.149020 1.000000 0.305882
0.149020 1.000000 0.250980
0.149020 1.000000 0.192157
0.164706 1.000000 0.149020
0.219608 1.000000 0.149020
0.278431 1.000000 0.149020
0.333333 1.000000 0.149020
0.392157 1.000000 0.149020
0.447059 1.000000 0.149020
0.505882 1.000000 0.149020
0.560784 1.000000 0.149020
0.615686 1.000000 0.149020
0.674510 1.000000 0.149020
0.729412 1.000000 0.149020
0.788235 1.000000 0.149020
0.023529 0.011765 0.070588
0.070588 0.011765 0.054902
0.141176 0.019608 0.050980
0.211765 0.031373 0.047059
0.278431 0.043137 0.043137
0.349020 0.066667 0.050980
0.419608 0.094118 0.062745
0.490196 0.117647 0.074510
0.560784 0.145098 0.082353
0.631373 0.168627 0.094118
0.701961 0.196078 0.105882
0.768627 0.219608 0.113725
0.839216 0.243137 0.125490
0.909804 0.270588 0.137255
0.980392 0.294118 0.145098
1.000000 0.305882 0.149020
0.011765 0.054902 0.070588
0.070588 0.070588 0.070588
0.141176 0.094118 0.082353
0.211765 0.121569 0.090196
0.278431 0.145098 0.101961
0.349020 0.172549 0.113725
0.419608 0.196078 0.121569
0.490196 0.223529 0.133333
0.560784 0.247059 0.145098
0.631373 0.274510 0.152941
0.701961 0.298039 0.164706
0.768627 0.325490 0.176471
0.839216 0.349020 0.184314
0.909804 0.372549 0.196078
0.980392 0.400000 0.207843
1.000000 0.403922 0.207843
0.019608 0.141176 0.109804
0.082353 0.141176 0.094118
0.125490 0.141176 0.082353
0.211765 0.180392 0.090196
0.278431 0.203922 0.101961
0.349020 0.231373 0.113725
0.419608 0.254902 0.121569
0.490196 0.282353 0.133333
0.560784 0.305882 0.145098
0.631373 0.333333 0.152941
0.701961 0.356863 0.164706
0.768627 0.384314 0.176471
0.839216 0.407843 0.184314
0.909804 0.435294 0.196078
0.980392 0.458824 0.207843
1.000000 0.462745 0.207843
0.031373 0.211765 0.137255
0.090196 0.211765 0.121569
0.121569 0.211765 0.090196
0.180392 0.211765 0.090196
0.278431 0.266667 0.101961
0.349020 0.290196 0.113725
0.419608 0.317647 0.121569
0.490196 0.341176 0.133333
0.560784 0.364706 0.145098
0.631373 0.392157 0.152941
0.701961 0.415686 0.164706
0.768627 0.443137 0.176471
0.839216 0.466667 0.184314
0.909804 0.494118 0.196078
0.980392 0.517647 0.207843
1.000000 0.517647 0.207843
0.043137 0.278431 0.160784
0.101961 0.278431 0.145098
0.117647 0.278431 0.101961
0.176471 0.278431 0.101961
0.235294 0.278431 0.101961
0.349020 0.349020 0.113725
0.419608 0.376471 0.121569
0.490196 0.400000 0.133333
0.560784 0.427451 0.145098
0.631373 0.450980 0.152941
0.701961 0.478431 0.164706
0.768627 0.501961 0.176471
0.839216 0.529412 0.184314
0.909804 0.552941 0.196078
0.980392 0.576471 0.207843
1.000000 0.576471 0.207843
0.050980 0.349020 0.188235
0.113725 0.349020 0.172549
0.113725 0.349020 0.113725
0.172549 0.349020 0.113725
0.231373 0.349020 0.113725
0.290196 0.349020 0.113725
0.403922 0.419608 0.121569
0.490196 0.458824 0.133333
0.560784 0.486275 0.145098
0.631373 0.509804 0.152941
0.701961 0.537255 0.164706
0.768627 0.560784 0.176471
0.839216 0.588235 0.184314
0.909804 0.611765 0.196078
0.980392 0.639216 0.207843
1.000000 0.631373 0.207843
0.062745 0.419608 0.211765
0.121569 0.419608 0.196078
0.121569 0.419608 0.137255
0.168627 0.419608 0.121569
0.227451 0.419608 0.121569
0.286275 0.419608 0.121569
0.345098 0.419608 0.121569
0.458824 0.490196 0.133333
0.560784 0.545098 0.145098
0.631373 0.568627 0.152941
0.701961 0.596078 0.164706
0.768627 0.619608 0.176471
0.839216 0.647059 0.184314
0.909804 0.670588 0.196078
0.980392 0.698039 0.207843
1.000000 0.690196 0.207843
0.074510 0.490196 0.235294
0.133333 0.490196 0.223529
0.133333 0.490196 0.164706
0.164706 0.490196 0.133333
0.223529 0.490196 0.133333
0.282353 0.490196 0.133333
0.341176 0.490196 0.133333
0.400000 0.490196 0.133333
0.513725 0.560784 0.145098
0.631373 0.631373 0.152941
0.701961 0.654902 0.164706
0.768627 0.682353 0.176471
0.839216 0.705882 0.184314
0.909804 0.733333 0.196078
0.980392 0.756863 0.207843
1.000000 0.745098 0.207843
0.082353 0.560784 0.262745
0.145098 0.560784 0.247059
0.145098 0.560784 0.188235
0.156863 0.560784 0.145098
0.219608 0.560784 0.145098
0.278431 0.560784 0.145098
0.337255 0.560784 0.145098
0.396078 0.560784 0.145098
0.454902 0.560784 0.145098
0.568627 0.631373 0.152941
0.686275 0.701961 0.164706
0.768627 0.741176 0.176471
0.839216 0.764706 0.184314
0.909804 0.792157 0.196078
0.980392 0.815686 0.207843
1.000000 0.800000 0.207843
0.094118 0.631373 0.286275
0.152941 0.631373 0.274510
0.152941 0.631373 0.211765
0.152941 0.631373 0.152941
0.211765 0.631373 0.152941
0.274510 0.631373 0.152941
0.333333 0.631373 0.152941
0.392157 0.631373 0.152941
0.450980 0.631373 0.152941
0.509804 0.631373 0.152941
0.627451 0.701961 0.164706
0.741176 0.768627 0.176471
0.839216 0.823529 0.184314
0.909804 0.850980 0.196078
0.980392 0.874510 0.207843
1.000000 0.858824 0.207843
0.105882 0.701961 0.313725
0.164706 0.701961 0.298039
0.164706 0.701961 0.239216
0.164706 0.701961 0.180392
0.207843 0.701961 0.164706
0.266667 0.701961 0.164706
0.329412 0.701961 0.164706
0.388235 0.701961 0.164706
0.447059 0.701961 0.164706
0.505882 0.701961 0.164706
0.564706 0.701961 0.164706
0.682353 0.768627 0.176471
0.796078 0.839216 0.184314
0.909804 0.909804 0.196078
0.980392 0.937255 0.207843
1.000000 0.913725 0.207843
0.113725 0.768627 0.337255
0.176471 0.768627 0.325490
0.176471 0.768627 0.262745
0.176471 0.768627 0.203922
0.203922 0.768627 0.176471
0.262745 0.768627 0.176471
0.325490 0.768627 0.176471
0.384314 0.768627 0.176471
0.443137 0.768627 0.176471
0.501961 0.768627 0.176471
0.560784 0.768627 0.176471
0.619608 0.768627 0.176471
0.737255 0.839216 0.184314
0.850980 0.909804 0.196078
0.964706 0.980392 0.207843
1.000000 0.972549 0.207843
0.125490 0.839216 0.364706
0.184314 0.839216 0.349020
0.184314 0.839216 0.290196
0.184314 0.839216 0.231373
0.200000 0.839216 0.184314
0.258824 0.839216 0.184314
0.317647 0.839216 0.184314
0.380392 0.839216 0.184314
0.439216 0.839216 0.184314
0.498039 0.839216 0.184314
0.556863 0.839216 0.184314
0.615686 0.839216 0.184314
0.674510 0.839216 0.184314
0.792157 0.909804 0.196078
0.905882 0.980392 0.207843
0.972549 1.000000 0.207843
0.137255 0.909804 0.388235
0.196078 0.909804 0.372549
0.196078 0.909804 0.313725
0.196078 0.909804 0.254902
0.196078 0.909804 0.196078
0.254902 0.909804 0.196078
0.313725 0.909804 0.196078
0.372549 0.909804 0.196078
0.435294 0.909804 0.196078
0.494118 0.909804 0.196078
0.552941 0.909804 0.196078
0.611765 0.909804 0.196078
0.670588 0.909804 0.196078
0.733333 0.909804 0.196078
0.847059 0.980392 0.207843
0.913725 1.000000 0.207843
0.145098 0.980392 0.415686
0.207843 0.980392 0.400000
0.207843 0.980392 0.341176
0.207843 0.980392 0.282353
0.207843 0.980392 0.219608
0.250980 0.980392 0.207843
0.309804 0.980392 0.207843
0.368627 0.980392 0.207843
0.431373 0.980392 0.207843
0.490196 0.980392 0.207843
0.549020 0.980392 0.207843
0.607843 0.980392 0.207843
0.666667 0.980392 0.207843
0.725490 0.980392 0.207843
0.788235 0.980392 0.207843
0.858824 1.000000 0.207843
0.149020 1.000000 0.419608
0.207843 1.000000 0.403922
0.207843 1.000000 0.349020
0.207843 1.000000 0.290196
0.207843 1.000000 0.235294
0.235294 1.000000 0.207843
0.290196 1.000000 0.207843
0.349020 1.000000 0.207843
0.403922 1.000000 0.207843
0.462745 1.000000 0.207843
0.517647 1.000000 0.207843
0.576471 1.000000 0.207843
0.631373 1.000000 0.207843
0.690196 1.000000 0.207843
0.745098 1.000000 0.207843
0.800000 1.000000 0.207843
0.050980 0.019608 0.141176
0.109804 0.019608 0.141176
0.141176 0.019608 0.109804
0.211765 0.031373 0.105882
0.278431 0.043137 0.101961
0.349020 0.050980 0.098039
0.419608 0.062745 0.094118
0.490196 0.074510 0.090196
0.560784 0.082353 0.082353
0.631373 0.109804 0.094118
0.701961 0.133333 0.105882
0.768627 0.160784 0.113725
0.839216 0.184314 0.125490
0.909804 0.211765 0.137255
0.980392 0.235294 0.145098
1.000000 0.250980 0.149020
0.019608 0.050980 0.141176
0.094118 0.082353 0.141176
0.141176 0.082353 0.125490
0.211765 0.090196 0.121569
0.278431 0.101961 0.117647
0.349020 0.113725 0.113725
0.419608 0.137255 0.121569
0.490196 0.164706 0.133333
0.560784 0.188235 0.145098
0.631373 0.211765 0.152941
0.701961 0.239216 0.164706
0.768627 0.262745 0.176471
0.839216 0.290196 0.184314
0.909804 0.313725 0.196078
0.980392 0.341176 0.207843
1.000000 0.349020 0.207843
0.019608 0.109804 0.141176
0.082353 0.125490 0.141176
0.141176 0.141176 0.141176
0.211765 0.164706 0.149020
0.278431 0.192157 0.160784
0.349020 0.215686 0.172549
0.419608 0.243137 0.180392
0.490196 0.266667 0.192157
0.560784 0.294118 0.203922
0.631373 0.317647 0.211765
0.701961 0.341176 0.223529
0.768627 0.368627 0.235294
0.839216 0.392157 0.243137
0.909804 0.419608 0.254902
0.980392 0.443137 0.266667
1.000000 0.447059 0.262745
0.031373 0.211765 0.196078
0.090196 0.211765 0.180392
0.149020 0.211765 0.164706
0.196078 0.211765 0.149020
0.278431 0.250980 0.160784
0.349020 0.274510 0.172549
0.419608 0.301961 0.180392
0.490196 0.325490 0.192157
0.560784 0.352941 0.203922
0.631373 0.376471 0.211765
0.701961 0.403922 0.223529
0.768627 0.427451 0.235294
0.839216 0.454902 0.243137
0.909804 0.478431 0.254902
0.980392 0.505882 0.266667
1.000000 0.505882 0.262745
0.043137 0.278431 0.219608
0.101961 0.278431 0.203922
0.160784 0.278431 0.192157
0.192157 0.278431 0.160784
0.250980 0.278431 0.160784
0.349020 0.333333 0.172549
0.419608 0.360784 0.180392
0.490196 0.384314 0.192157
0.560784 0.411765 0.203922
0.631373 0.435294 0.211765
0.701961 0.462745 0.223529
0.768627 0.486275 0.235294
0.839216 0.513725 0.243137
0.909804 0.537255 0.254902
0.980392 0.564706 0.266667
1.000000 0.560784 0.262745
0.050980 0.349020 0.247059
0.113725 0.349020 0.231373
0.172549 0.349020 0.215686
0.188235 0.349020 0.172549
0.247059 0.349020 0.172549
0.305882 0.349020 0.172549
0.419608 0.419608 0.180392
0.490196 0.447059 0.192157
0.560784 0.470588 0.203922
0.631373 0.498039 0.211765
0.701961 0.521569 0.223529
0.768627 0.545098 0.235294
0.839216 0.572549 0.243137
0.909804 0.596078 0.254902
0.980392 0.623529 0.266667
1.000000 0.615686 0.262745
0.062745 0.419608 0.270588
0.121569 0.419608 0.254902
0.180392 0.419608 0.243137
0.180392 0.419608 0.180392
0.243137 0.419608 0.180392
0.301961 0.419608 0.180392
0.360784 0.419608 0.180392
0.474510 0.490196 0.192157
0.560784 0.529412 0.203922
0.631373 0.556863 0.211765
0.701961 0.580392 0.223529
0.768627 0.607843 0.235294
0.839216 0.631373 0.243137
0.909804 0.658824 0.254902
0.980392 0.682353 0.266667
1.000000 0.674510 0.262745
0.074510 0.490196 0.298039
0.133333 0.490196 0.282353
0.192157 0.490196 0.266667
0.192157 0.490196 0.207843
0.235294 0.490196 0.192157
0.298039 0.490196 0.192157
0.356863 0.490196 0.192157
0.415686 0.490196 0.192157
0.529412 0.560784 0.203922
0.631373 0.615686 0.211765
0.701961 0.639216 0.223529
0.768627 0.666667 0.235294
0.839216 0.690196 0.243137
0.909804 0.717647 0.254902
0.980392 0.741176 0.266667
1.000000 0.729412 0.262745
0.082353 0.560784 0.321569
0.145098 0.560784 0.305882
0.203922 0.560784 0.294118
0.203922 0.560784 0.231373
0.231373 0.560784 0.203922
0.294118 0.560784 0.203922
0.352941 0.560784 0.203922
0.411765 0.560784 0.203922
0.470588 0.560784 0.203922
0.584314 0.631373 0.211765
0.701961 0.701961 0.223529
0.768627 0.725490 0.235294
0.839216 0.749020 0.243137
0.909804 0.776471 0.254902
0.980392 0.800000 0.266667
1.000000 0.788235 0.262745
0.094118 0.631373 0.349020
0.152941 0.631373 0.333333
0.211765 0.631373 0.317647
0.211765 0.631373 0.258824
0.227451 0.631373 0.211765
0.286275 0.631373 0.211765
0.349020 0.631373 0.211765
0.407843 0.631373 0.211765
0.466667 0.631373 0.211765
0.525490 0.631373 0.211765
0.639216 0.701961 0.223529
0.756863 0.768627 0.235294
0.839216 0.811765 0.243137
0.909804 0.835294 0.254902
0.980392 0.862745 0.266667
1.000000 0.843137 0.262745
0.105882 0.701961 0.372549
0.164706 0.701961 0.356863
0.223529 0.701961 0.341176
0.223529 0.701961 0.282353
0.223529 0.701961 0.223529
0.282353 0.701961 0.223529
0.341176 0.701961 0.223529
0.403922 0.701961 0.223529
0.462745 0.701961 0.223529
0.521569 0.701961 0.223529
0.580392 0.701961 0.223529
0.694118 0.768627 0.235294
0.811765 0.839216 0.243137
0.909804 0.894118 0.254902
0.980392 0.921569 0.266667
1.000000 0.901961 0.262745
0.113725 0.768627 0.400000
0.176471 0.768627 0.384314
0.235294 0.768627 0.368627
0.235294 0.768627 0.309804
0.235294 0.768627 0.250980
0.278431 0.768627 0.235294
0.337255 0.768627 0.235294
0.400000 0.768627 0.235294
0.458824 0.768627 0.235294
0.517647 0.768627 0.235294
0.576471 0.768627 0.235294
0.635294 0.768627 0.235294
0.749020 0.839216 0.243137
0.866667 0.909804 0.254902
0.980392 0.980392 0.266667
1.000000 0.956863 0.262745
0.125490 0.839216 0.423529
0.184314 0.839216 0.407843
0.243137 0.839216 0.392157
0.243137 0.839216 0.333333
0.243137 0.839216 0.274510
0.274510 0.839216 0.243137
0.333333 0.839216 0.243137
0.392157 0.839216 0.243137
0.454902 0.839216 0.243137
0.513725 0.839216 0.243137
0.572549 0.839216 0.243137
0.631373 0.839216 0.243137
0.690196 0.839216 0.243137
0.803922 0.909804 0.254902
0.921569 0.980392 0.266667
0.984314 1.000000 0.262745
0.137255 0.909804 0.447059
0.196078 0.909804 0.435294
0.254902 0.909804 0.419608
0.254902 0.909804 0.360784
0.254902 0.909804 0.301961
0.270588 0.909804 0.254902
0.329412 0.909804 0.254902
0.388235 0.909804 0.254902
0.447059 0.909804 0.254902
0.509804 0.909804 0.254902
0.568627 0.909804 0.254902
0.627451 0.909804 0.254902
0.686275 0.909804 0.254902
0.745098 0.909804 0.254902
0.862745 0.980392 0.266667
0.929412 1.000000 0.262745
0.145098 0.980392 0.474510
0.207843 0.980392 0.458824
0.266667 0.980392 0.443137
0.266667 0.980392 0.384314
0.266667 0.980392 0.325490
0.266667 0.980392 0.266667
0.325490 0.980392 0.266667
0.384314 0.980392 0.266667
0.443137 0.980392 0.266667
0.505882 0.980392 0.266667
0.564706 0.980392 0.266667
0.623529 0.980392 0.266667
0.682353 0.980392 0.266667
0.741176 0.980392 0.266667
0.800000 0.980392 0.266667
0.870588 1.000000 0.262745
0.149020 1.000000 0.474510
0.207843 1.000000 0.462745
0.262745 1.000000 0.447059
0.262745 1.000000 0.392157
0.262745 1.000000 0.333333
0.262745 1.000000 0.278431
0.305882 1.000000 0.262745
0.360784 1.000000 0.262745
0.419608 1.000000 0.262745
0.474510 1.000000 0.262745
0.533333 1.000000 0.262745
0.588235 1.000000 0.262745
0.647059 1.000000 0.262745
0.701961 1.000000 0.262745
0.760784 1.000000 0.262745
0.815686 1.000000 0.262745
0.074510 0.031373 0.211765
0.137255 0.031373 0.211765
0.196078 0.031373 0.211765
0.211765 0.031373 0.164706
0.278431 0.043137 0.160784
0.349020 0.050980 0.156863
0.419608 0.062745 0.152941
0.490196 0.074510 0.149020
0.560784 0.082353 0.145098
0.631373 0.094118 0.137255
0.701961 0.105882 0.133333
0.768627 0.113725 0.129412
0.839216 0.125490 0.125490
0.909804 0.152941 0.137255
0.980392 0.176471 0.145098
1.000000 0.192157 0.149020
0.031373 0.047059 0.211765
0.121569 0.090196 0.211765
0.180392 0.090196 0.211765
0.211765 0.090196 0.180392
0.278431 0.101961 0.176471
0.349020 0.113725 0.172549
0.419608 0.121569 0.168627
0.490196 0.133333 0.164706
0.560784 0.145098 0.156863
0.631373 0.152941 0.152941
0.701961 0.180392 0.164706
0.768627 0.203922 0.176471
0.839216 0.231373 0.184314
0.909804 0.254902 0.196078
0.980392 0.282353 0.207843
1.000000 0.290196 0.207843
0.031373 0.105882 0.211765
0.090196 0.121569 0.211765
0.164706 0.149020 0.211765
0.211765 0.149020 0.196078
0.278431 0.160784 0.192157
0.349020 0.172549 0.188235
0.419608 0.180392 0.180392
0.490196 0.207843 0.192157
0.560784 0.231373 0.203922
0.631373 0.258824 0.211765
0.701961 0.282353 0.223529
0.768627 0.309804 0.235294
0.839216 0.333333 0.243137
0.909804 0.360784 0.254902
0.980392 0.384314 0.266667
1.000000 0.392157 0.262745
0.031373 0.164706 0.211765
0.090196 0.180392 0.211765
0.149020 0.196078 0.211765
0.211765 0.211765 0.211765
0.278431 0.235294 0.219608
0.349020 0.258824 0.231373
0.419608 0.286275 0.243137
0.490196 0.309804 0.250980
0.560784 0.337255 0.262745
0.631373 0.360784 0.274510
0.701961 0.388235 0.282353
0.768627 0.411765 0.294118
0.839216 0.439216 0.305882
0.909804 0.462745 0.313725
0.980392 0.490196 0.325490
1.000000 0.490196 0.321569
0.043137 0.278431 0.278431
0.101961 0.278431 0.266667
0.160784 0.278431 0.250980
0.219608 0.278431 0.235294
0.266667 0.278431 0.219608
0.349020 0.321569 0.231373
0.419608 0.345098 0.243137
0.490196 0.372549 0.250980
0.560784 0.396078 0.262745
0.631373 0.423529 0.274510
0.701961 0.447059 0.282353
0.768627 0.470588 0.294118
0.839216 0.498039 0.305882
0.909804 0.521569 0.313725
0.980392 0.549020 0.325490
1.000000 0.545098 0.321569
0.050980 0.349020 0.305882
0.113725 0.349020 0.290196
0.172549 0.349020 0.274510
0.231373 0.349020 0.258824
0.258824 0.349020 0.231373
0.321569 0.349020 0.231373
0.419608 0.403922 0.243137
0.490196 0.431373 0.250980
0.560784 0.454902 0.262745
0.631373 0.482353 0.274510
0.701961 0.505882 0.282353
0.768627 0.533333 0.294118
0.839216 0.556863 0.305882
0.909804 0.584314 0.313725
0.980392 0.607843 0.325490
1.000000 0.603922 0.321569
0.062745 0.419608 0.329412
0.121569 0.419608 0.317647
0.180392 0.419608 0.301961
0.243137 0.419608 0.286275
0.254902 0.419608 0.243137
0.317647 0.419608 0.243137
0.376471 0.419608 0.243137
0.490196 0.490196 0.250980
0.560784 0.513725 0.262745
0.631373 0.541176 0.274510
0.701961 0.564706 0.282353
0.768627 0.592157 0.294118
0.839216 0.615686 0.305882
0.909804 0.643137 0.313725
0.980392 0.666667 0.325490
1.000000 0.658824 0.321569
0.074510 0.490196 0.356863
0.133333 0.490196 0.341176
0.192157 0.490196 0.325490
0.250980 0.490196 0.309804
0.250980 0.490196 0.250980
0.309804 0.490196 0.250980
0.372549 0.490196 0.250980
