pkg/planetgen/color/luts/jovian.cube
TITLE "jovian archetype LUT"
LUT_3D_SIZE 16
0.000000 0.000000 0.000000
0.062745 0.000000 0.011765
0.125490 0.000000 0.019608
0.188235 0.000000 0.031373
0.254902 0.000000 0.043137
0.317647 0.000000 0.050980
0.380392 0.000000 0.062745
0.443137 0.000000 0.074510
0.505882 0.000000 0.086275
0.568627 0.000000 0.094118
0.635294 0.000000 0.105882
0.698039 0.000000 0.117647
0.760784 0.000000 0.125490
0.823529 0.000000 0.137255
0.886275 0.000000 0.149020
0.949020 0.000000 0.156863
0.011765 0.062745 0.000000
0.062745 0.050980 0.000000
0.125490 0.043137 0.000000
0.188235 0.031373 0.000000
0.254902 0.019608 0.000000
0.317647 0.011765 0.000000
0.380392 0.000000 0.000000
0.443137 0.000000 0.011765
0.505882 0.000000 0.019608
0.568627 0.000000 0.031373
0.635294 0.000000 0.043137
0.698039 0.000000 0.050980
0.760784 0.000000 0.062745
0.823529 0.000000 0.074510
0.886275 0.000000 0.086275
0.949020 0.000000 0.094118
0.019608 0.125490 0.000000
0.086275 0.125490 0.000000
0.125490 0.105882 0.000000
0.188235 0.094118 0.000000
0.254902 0.086275 0.000000
0.317647 0.074510 0.000000
0.380392 0.062745 0.000000
0.443137 0.050980 0.000000
0.505882 0.043137 0.000000
0.568627 0.031373 0.000000
0.635294 0.019608 0.000000
0.698039 0.011765 0.000000
0.760784 0.000000 0.000000
0.823529 0.000000 0.011765
0.886275 0.000000 0.019608
0.949020 0.000000 0.031373
0.031373 0.188235 0.000000
0.094118 0.188235 0.000000
0.156863 0.188235 0.000000
0.188235 0.156863 0.000000
0.254902 0.149020 0.000000
0.317647 0.137255 0.000000
0.380392 0.125490 0.000000
0.443137 0.117647 0.000000
0.505882 0.105882 0.000000
0.568627 0.094118 0.000000
0.635294 0.086275 0.000000
0.698039 0.074510 0.000000
0.760784 0.062745 0.000000
0.823529 0.050980 0.000000
0.886275 0.043137 0.000000
0.949020 0.031373 0.000000
0.043137 0.254902 0.000000
0.105882 0.254902 0.000000
0.168627 0.254902 0.000000
0.231373 0.254902 0.000000
0.254902 0.211765 0.000000
0.317647 0.200000 0.000000
0.380392 0.188235 0.000000
0.443137 0.180392 0.000000
0.505882 0.168627 0.000000
0.568627 0.156863 0.000000
0.635294 0.149020 0.000000
0.698039 0.137255 0.000000
0.760784 0.125490 0.000000
0.823529 0.117647 0.000000
0.886275 0.105882 0.000000
0.949020 0.094118 0.000000
0.050980 0.317647 0.000000
0.117647 0.317647 0.000000
0.180392 0.317647 0.000000
0.243137 0.317647 0.000000
0.305882 0.317647 0.000000
0.317647 0.262745 0.000000
0.380392 0.254902 0.000000
0.443137 0.243137 0.000000
0.505882 0.231373 0.000000
0.568627 0.223529 0.000000
0.635294 0.211765 0.000000
0.698039 0.200000 0.000000
0.760784 0.188235 0.000000
0.823529 0.180392 0.000000
0.886275 0.168627 0.000000
0.949020 0.156863 0.000000
0.062745 0.380392 0.000000
0.125490 0.380392 0.000000
0.188235 0.380392 0.000000
0.254902 0.380392 0.000000
0.317647 0.380392 0.000000
0.380392 0.380392 0.000000
0.380392 0.317647 0.000000
0.443137 0.305882 0.000000
0.505882 0.294118 0.000000
0.568627 0.286275 0.000000
0.635294 0.274510 0.000000
0.698039 0.262745 0.000000
0.760784 0.254902 0.000000
0.823529 0.243137 0.000000
0.886275 0.231373 0.000000
0.949020 0.223529 0.000000
0.074510 0.443137 0.000000
0.137255 0.443137 0.000000
0.200000 0.443137 0.000000
0.262745 0.443137 0.000000
0.325490 0.443137 0.000000
0.392157 0.443137 0.000000
0.443137 0.431373 0.000000
0.443137 0.368627 0.000000
0.505882 0.360784 0.000000
0.568627 0.349020 0.000000
0.635294 0.337255 0.000000
0.698039 0.325490 0.000000
0.760784 0.317647 0.000000
0.823529 0.305882 0.000000
0.886275 0.294118 0.000000
0.949020 0.286275 0.000000
0.086275 0.505882 0.000000
0.149020 0.505882 0.000000
0.211765 0.505882 0.000000
0.274510 0.505882 0.000000
0.337255 0.505882 0.000000
0.400000 0.505882 0.000000
0.462745 0.505882 0.000000
0.505882 0.486275 0.000000
0.505882 0.423529 0.000000
0.568627 0.411765 0.000000
0.635294 0.400000 0.000000
0.698039 0.392157 0.000000
0.760784 0.380392 0.000000
0.823529 0.368627 0.000000
0.886275 0.360784 0.000000
0.949020 0.349020 0.000000
0.094118 0.568627 0.000000
0.156863 0.568627 0.000000
0.223529 0.568627 0.000000
0.286275 0.568627 0.000000
0.349020 0.568627 0.000000
0.411765 0.568627 0.000000
0.474510 0.568627 0.000000
0.537255 0.568627 0.000000
0.568627 0.537255 0.000000
0.568627 0.474510 0.000000
0.635294 0.462745 0.000000
0.698039 0.454902 0.000000
0.760784 0.443137 0.000000
0.823529 0.431373 0.000000
0.886275 0.423529 0.000000
0.949020 0.411765 0.000000
0.105882 0.635294 0.000000
0.168627 0.635294 0.000000
0.231373 0.635294 0.000000
0.294118 0.635294 0.000000
0.360784 0.635294 0.000000
0.423529 0.635294 0.000000
0.486275 0.635294 0.000000
0.549020 0.635294 0.000000
0.611765 0.635294 0.000000
0.635294 0.592157 0.000000
0.635294 0.529412 0.000000
0.698039 0.517647 0.000000
0.760784 0.505882 0.000000
0.823529 0.498039 0.000000
0.886275 0.486275 0.000000
0.949020 0.474510 0.000000
0.117647 0.698039 0.000000
0.180392 0.698039 0.000000
0.243137 0.698039 0.000000
0.305882 0.698039 0.000000
0.368627 0.698039 0.000000
0.431373 0.698039 0.000000
0.498039 0.698039 0.000000
0.560784 0.698039 0.000000
0.623529 0.698039 0.000000
0.686275 0.698039 0.000000
0.698039 0.643137 0.000000
0.698039 0.580392 0.000000
0.760784 0.568627 0.000000
0.823529 0.560784 0.000000
0.886275 0.549020 0.000000
0.949020 0.537255 0.000000
0.125490 0.760784 0.000000
0.188235 0.760784 0.000000
0.254902 0.760784 0.000000
0.317647 0.760784 0.000000
0.380392 0.760784 0.000000
0.443137 0.760784 0.000000
0.505882 0.760784 0.000000
0.568627 0.760784 0.000000
0.635294 0.760784 0.000000
0.698039 0.760784 0.000000
0.760784 0.760784 0.000000
0.760784 0.698039 0.000000
0.760784 0.635294 0.000000
0.823529 0.623529 0.000000
0.886275 0.611765 0.000000
0.949020 0.600000 0.000000
0.137255 0.823529 0.000000
0.200000 0.823529 0.000000
0.262745 0.823529 0.000000
0.325490 0.823529 0.000000
0.392157 0.823529 0.000000
0.454902 0.823529 0.000000
0.517647 0.823529 0.000000
0.580392 0.823529 0.000000
0.643137 0.823529 0.000000
0.705882 0.823529 0.000000
0.768627 0.823529 0.000000
0.823529 0.811765 0.000000
0.823529 0.749020 0.000000
0.823529 0.686275 0.000000
0.886275 0.674510 0.000000
0.949020 0.666667 0.000000
0.149020 0.886275 0.000000
0.211765 0.886275 0.000000
0.274510 0.886275 0.000000
0.337255 0.886275 0.000000
0.400000 0.886275 0.000000
0.462745 0.886275 0.000000
0.529412 0.886275 0.000000
0.592157 0.886275 0.000000
0.654902 0.886275 0.000000
0.717647 0.886275 0.000000
0.780392 0.886275 0.000000
0.843137 0.886275 0.000000
0.886275 0.866667 0.000000
0.886275 0.803922 0.000000
0.886275 0.737255 0.000000
0.949020 0.729412 0.000000
0.156863 0.949020 0.000000
0.223529 0.949020 0.000000
0.286275 0.949020 0.000000
0.349020 0.949020 0.000000
0.411765 0.949020 0.000000
0.474510 0.949020 0.000000
0.537255 0.949020 0.000000
0.600000 0.949020 0.000000
0.666667 0.949020 0.000000
0.729412 0.949020 0.000000
0.792157 0.949020 0.000000
0.854902 0.949020 0.000000
0.917647 0.949020 0.000000
0.949020 0.917647 0.000000
0.949020 0.854902 0.000000
0.949020 0.792157 0.000000
0.000000 0.011765 0.062745
0.050980 0.000000 0.062745
0.125490 0.000000 0.086275
0.188235 0.000000 0.094118
0.254902 0.000000 0.105882
0.317647 0.000000 0.117647
0.380392 0.000000 0.125490
0.443137 0.000000 0.137255
0.505882 0.000000 0.149020
0.568627 0.000000 0.156863
0.635294 0.000000 0.168627
0.698039 0.000000 0.180392
0.760784 0.000000 0.188235
0.823529 0.000000 0.200000
0.886275 0.000000 0.211765
0.949020 0.000000 0.223529
0.000000 0.062745 0.050980
0.062745 0.062745 0.062745
0.125490 0.058824 0.066667
0.188235 0.050980 0.074510
0.254902 0.043137 0.078431
0.317647 0.039216 0.086275
0.380392 0.031373 0.090196
0.443137 0.023529 0.094118
0.505882 0.019608 0.101961
0.568627 0.011765 0.105882
0.635294 0.007843 0.109804
0.698039 0.000000 0.117647
0.760784 0.000000 0.125490
0.823529 0.000000 0.137255
0.886275 0.000000 0.149020
0.949020 0.000000 0.156863
0.000000 0.125490 0.043137
0.066667 0.125490 0.058824
0.125490 0.113725 0.058824
0.188235 0.098039 0.050980
0.254902 0.078431 0.043137
0.317647 0.062745 0.039216
0.380392 0.043137 0.031373
0.443137 0.023529 0.023529
0.505882 0.019608 0.031373
0.568627 0.011765 0.035294
0.635294 0.007843 0.039216
0.698039 0.000000 0.047059
0.760784 0.000000 0.058824
0.823529 0.000000 0.066667
0.886275 0.000000 0.078431
0.949020 0.000000 0.090196
0.000000 0.188235 0.031373
0.074510 0.188235 0.050980
0.145098 0.188235 0.050980
0.188235 0.168627 0.050980
0.254902 0.149020 0.043137
0.317647 0.129412 0.039216
0.380392 0.113725 0.031373
0.443137 0.094118 0.023529
0.505882 0.078431 0.019608
0.568627 0.058824 0.011765
0.635294 0.039216 0.007843
0.698039 0.023529 0.000000
0.760784 0.011765 0.000000
0.823529 0.000000 0.000000
0.886275 0.000000 0.011765
0.949020 0.000000 0.023529
0.000000 0.254902 0.019608
0.078431 0.254902 0.043137
0.149020 0.254902 0.043137
0.219608 0.254902 0.043137
0.254902 0.219608 0.043137
0.317647 0.200000 0.039216
0.380392 0.184314 0.031373
0.443137 0.164706 0.023529
0.505882 0.145098 0.019608
0.568627 0.129412 0.011765
0.635294 0.109804 0.007843
0.698039 0.094118 0.000000
0.760784 0.082353 0.000000
0.823529 0.066667 0.000000
0.886275 0.054902 0.000000
0.949020 0.047059 0.000000
0.000000 0.317647 0.011765
0.086275 0.317647 0.039216
0.152941 0.317647 0.039216
0.223529 0.317647 0.039216
0.294118 0.317647 0.039216
0.317647 0.270588 0.039216
0.380392 0.250980 0.031373
0.443137 0.235294 0.023529
0.505882 0.215686 0.019608
0.568627 0.200000 0.011765
0.635294 0.180392 0.007843
0.698039 0.160784 0.000000
0.760784 0.149020 0.000000
0.823529 0.137255 0.000000
0.886275 0.125490 0.000000
0.949020 0.113725 0.000000
0.000000 0.380392 0.000000
0.090196 0.380392 0.031373
0.160784 0.380392 0.031373
0.227451 0.380392 0.031373
0.298039 0.380392 0.031373
0.368627 0.380392 0.031373
0.380392 0.321569 0.031373
0.443137 0.305882 0.023529
0.505882 0.286275 0.019608
0.568627 0.266667 0.011765
0.635294 0.250980 0.007843
0.698039 0.231373 0.000000
0.760784 0.219608 0.000000
0.823529 0.203922 0.000000
0.886275 0.192157 0.000000
0.949020 0.180392 0.000000
0.011765 0.443137 0.000000
0.094118 0.443137 0.023529
0.164706 0.443137 0.023529
0.235294 0.443137 0.023529
0.305882 0.443137 0.023529
0.372549 0.443137 0.023529
0.443137 0.443137 0.023529
0.443137 0.372549 0.023529
0.505882 0.356863 0.019608
0.568627 0.337255 0.011765
0.635294 0.321569 0.007843
0.698039 0.301961 0.000000
0.760784 0.286275 0.000000
0.823529 0.274510 0.000000
0.886275 0.262745 0.000000
0.949020 0.247059 0.000000
0.019608 0.505882 0.000000
0.101961 0.505882 0.019608
0.168627 0.505882 0.019608
0.239216 0.505882 0.019608
0.309804 0.505882 0.019608
0.380392 0.505882 0.019608
0.447059 0.505882 0.019608
0.505882 0.494118 0.019608
0.505882 0.423529 0.019608
0.568627 0.407843 0.011765
0.635294 0.388235 0.007843
0.698039 0.372549 0.000000
0.760784 0.356863 0.000000
0.823529 0.341176 0.000000
0.886275 0.329412 0.000000
0.949020 0.317647 0.000000
0.031373 0.568627 0.000000
0.105882 0.568627 0.011765
0.176471 0.568627 0.011765
0.243137 0.568627 0.011765
0.313725 0.568627 0.011765
0.384314 0.568627 0.011765
0.454902 0.568627 0.011765
0.525490 0.568627 0.011765
0.568627 0.545098 0.011765
0.568627 0.478431 0.011765
0.635294 0.458824 0.007843
0.698039 0.443137 0.000000
0.760784 0.427451 0.000000
0.823529 0.411765 0.000000
0.886275 0.396078 0.000000
0.949020 0.384314 0.000000
0.043137 0.635294 0.000000
0.109804 0.635294 0.007843
0.180392 0.635294 0.007843
0.250980 0.635294 0.007843
0.321569 0.635294 0.007843
0.388235 0.635294 0.007843
0.458824 0.635294 0.007843
0.529412 0.635294 0.007843
0.600000 0.635294 0.007843
0.635294 0.600000 0.007843
0.635294 0.529412 0.007843
0.698039 0.509804 0.000000
0.760784 0.494118 0.000000
0.823529 0.478431 0.000000
0.886275 0.466667 0.000000
0.949020 0.450980 0.000000
0.050980 0.698039 0.000000
0.117647 0.698039 0.000000
0.184314 0.698039 0.000000
0.254902 0.698039 0.000000
0.325490 0.698039 0.000000
0.396078 0.698039 0.000000
0.462745 0.698039 0.000000
0.533333 0.698039 0.000000
0.603922 0.698039 0.000000
0.674510 0.698039 0.000000
0.698039 0.650980 0.000000
0.698039 0.580392 0.000000
0.760784 0.564706 0.000000
0.823529 0.549020 0.000000
0.886275 0.533333 0.000000
0.949020 0.521569 0.000000
0.062745 0.760784 0.000000
0.125490 0.760784 0.000000
0.196078 0.760784 0.000000
0.266667 0.760784 0.000000
0.333333 0.760784 0.000000
0.403922 0.760784 0.000000
0.470588 0.760784 0.000000
0.541176 0.760784 0.000000
0.611765 0.760784 0.000000
0.678431 0.760784 0.000000
0.749020 0.760784 0.000000
0.760784 0.701961 0.000000
0.760784 0.635294 0.000000
0.823529 0.615686 0.000000
0.886275 0.603922 0.000000
0.949020 0.588235 0.000000
0.074510 0.823529 0.000000
0.137255 0.823529 0.000000
0.203922 0.823529 0.000000
0.274510 0.823529 0.000000
0.341176 0.823529 0.000000
0.411765 0.823529 0.000000
0.478431 0.823529 0.000000
0.549020 0.823529 0.000000
0.615686 0.823529 0.000000
0.686275 0.823529 0.000000
0.752941 0.823529 0.000000
0.823529 0.823529 0.000000
0.823529 0.752941 0.000000
0.823529 0.686275 0.000000
0.886275 0.670588 0.000000
0.949020 0.654902 0.000000
0.086275 0.886275 0.000000
0.149020 0.886275 0.000000
0.215686 0.886275 0.000000
0.282353 0.886275 0.000000
0.352941 0.886275 0.000000
0.419608 0.886275 0.000000
0.490196 0.886275 0.000000
0.556863 0.886275 0.000000
0.623529 0.886275 0.000000
0.694118 0.886275 0.000000
0.760784 0.886275 0.000000
0.831373 0.886275 0.000000
0.886275 0.874510 0.000000
0.886275 0.807843 0.000000
0.886275 0.737255 0.000000
0.949020 0.725490 0.000000
0.094118 0.949020 0.000000
0.156863 0.949020 0.000000
0.227451 0.949020 0.000000
0.294118 0.949020 0.000000
0.360784 0.949020 0.000000
0.431373 0.949020 0.000000
0.498039 0.949020 0.000000
0.564706 0.949020 0.000000
0.635294 0.949020 0.000000
0.701961 0.949020 0.000000
0.768627 0.949020 0.000000
0.835294 0.949020 0.000000
0.905882 0.949020 0.000000
0.949020 0.925490 0.000000
0.949020 0.858824 0.000000
0.949020 0.792157 0.000000
0.000000 0.019608 0.125490
0.043137 0.000000 0.125490
0.105882 0.000000 0.125490
0.188235 0.000000 0.156863
0.254902 0.000000 0.168627
0.317647 0.000000 0.180392
0.380392 0.000000 0.188235
0.443137 0.000000 0.200000
0.505882 0.000000 0.211765
0.568627 0.000000 0.223529
0.635294 0.000000 0.231373
0.698039 0.000000 0.243137
0.760784 0.000000 0.254902
0.823529 0.000000 0.262745
0.886275 0.000000 0.274510
0.949020 0.000000 0.286275
0.000000 0.086275 0.125490
0.058824 0.066667 0.125490
0.113725 0.058824 0.125490
0.188235 0.050980 0.145098
0.254902 0.043137 0.149020
0.317647 0.039216 0.152941
0.380392 0.031373 0.160784
0.443137 0.023529 0.164706
0.505882 0.019608 0.168627
0.568627 0.011765 0.176471
0.635294 0.007843 0.180392
0.698039 0.000000 0.184314
0.760784 0.000000 0.196078
0.823529 0.000000 0.203922
0.886275 0.000000 0.215686
0.949020 0.000000 0.227451
0.000000 0.125490 0.105882
0.058824 0.125490 0.113725
0.125490 0.125490 0.125490
0.188235 0.121569 0.133333
0.254902 0.113725 0.137255
0.317647 0.105882 0.141176
0.380392 0.101961 0.149020
0.443137 0.094118 0.152941
0.505882 0.090196 0.156863
0.568627 0.082353 0.164706
0.635294 0.074510 0.168627
0.698039 0.070588 0.172549
0.760784 0.062745 0.180392
0.823529 0.058824 0.184314
0.886275 0.050980 0.188235
0.949020 0.043137 0.196078
0.000000 0.188235 0.094118
0.050980 0.188235 0.098039
0.133333 0.188235 0.121569
0.188235 0.176471 0.121569
0.254902 0.160784 0.113725
0.317647 0.141176 0.105882
0.380392 0.125490 0.101961
0.443137 0.105882 0.094118
0.505882 0.090196 0.090196
0.568627 0.082353 0.094118
0.635294 0.074510 0.098039
0.698039 0.070588 0.105882
0.760784 0.062745 0.109804
0.823529 0.058824 0.113725
0.886275 0.050980 0.121569
0.949020 0.043137 0.125490
0.000000 0.254902 0.086275
0.043137 0.254902 0.078431
0.137255 0.254902 0.113725
0.207843 0.254902 0.113725
0.254902 0.231373 0.113725
0.317647 0.211765 0.105882
0.380392 0.196078 0.101961
0.443137 0.176471 0.094118
0.505882 0.156863 0.090196
0.568627 0.141176 0.082353
0.635294 0.121569 0.074510
0.698039 0.105882 0.070588
0.760784 0.086275 0.062745
0.823529 0.066667 0.058824
0.886275 0.050980 0.050980
0.949020 0.043137 0.054902
0.000000 0.317647 0.074510
0.039216 0.317647 0.062745
0.141176 0.317647 0.105882
0.211765 0.317647 0.105882
0.282353 0.317647 0.105882
0.317647 0.282353 0.105882
0.380392 0.262745 0.101961
0.443137 0.247059 0.094118
0.505882 0.227451 0.090196
0.568627 0.211765 0.082353
0.635294 0.192157 0.074510
0.698039 0.172549 0.070588
0.760784 0.156863 0.062745
0.823529 0.137255 0.058824
0.886275 0.121569 0.050980
0.949020 0.101961 0.043137
0.000000 0.380392 0.062745
0.031373 0.380392 0.043137
0.149020 0.380392 0.101961
0.215686 0.380392 0.101961
0.286275 0.380392 0.101961
0.356863 0.380392 0.101961
0.380392 0.333333 0.101961
0.443137 0.313725 0.094118
0.505882 0.298039 0.090196
0.568627 0.278431 0.082353
0.635294 0.262745 0.074510
0.698039 0.243137 0.070588
0.760784 0.227451 0.062745
0.823529 0.207843 0.058824
0.886275 0.188235 0.050980
0.949020 0.172549 0.043137
0.000000 0.443137 0.050980
0.023529 0.443137 0.023529
0.152941 0.443137 0.094118
0.223529 0.443137 0.094118
0.294118 0.443137 0.094118
0.360784 0.443137 0.094118
0.431373 0.443137 0.094118
0.443137 0.384314 0.094118
0.505882 0.368627 0.090196
0.568627 0.349020 0.082353
0.635294 0.333333 0.074510
0.698039 0.313725 0.070588
0.760784 0.294118 0.062745
0.823529 0.278431 0.058824
0.886275 0.258824 0.050980
0.949020 0.243137 0.043137
0.000000 0.505882 0.043137
0.031373 0.505882 0.019608
0.156863 0.505882 0.090196
0.227451 0.505882 0.090196
0.298039 0.505882 0.090196
0.368627 0.505882 0.090196
0.435294 0.505882 0.090196
0.505882 0.505882 0.090196
0.505882 0.435294 0.090196
0.568627 0.419608 0.082353
0.635294 0.400000 0.074510
0.698039 0.384314 0.070588
0.760784 0.364706 0.062745
0.823529 0.349020 0.058824
0.886275 0.329412 0.050980
0.949020 0.309804 0.043137
0.000000 0.568627 0.031373
0.035294 0.568627 0.011765
0.164706 0.568627 0.082353
0.231373 0.568627 0.082353
0.301961 0.568627 0.082353
0.372549 0.568627 0.082353
0.443137 0.568627 0.082353
0.513725 0.568627 0.082353
0.568627 0.556863 0.082353
0.568627 0.490196 0.082353
0.635294 0.470588 0.074510
0.698039 0.450980 0.070588
0.760784 0.435294 0.062745
0.823529 0.415686 0.058824
0.886275 0.400000 0.050980
0.949020 0.380392 0.043137
0.000000 0.635294 0.019608
0.039216 0.635294 0.007843
0.168627 0.635294 0.074510
0.239216 0.635294 0.074510
0.309804 0.635294 0.074510
0.376471 0.635294 0.074510
0.447059 0.635294 0.074510
0.517647 0.635294 0.074510
0.588235 0.635294 0.074510
0.635294 0.611765 0.074510
0.635294 0.541176 0.074510
0.698039 0.521569 0.070588
0.760784 0.505882 0.062745
0.823529 0.486275 0.058824
0.886275 0.470588 0.050980
0.949020 0.450980 0.043137
0.000000 0.698039 0.011765
0.047059 0.698039 0.000000
0.172549 0.698039 0.070588
0.243137 0.698039 0.070588
0.313725 0.698039 0.070588
0.384314 0.698039 0.070588
0.450980 0.698039 0.070588
0.521569 0.698039 0.070588
0.592157 0.698039 0.070588
0.662745 0.698039 0.070588
0.698039 0.662745 0.070588
0.698039 0.592157 0.070588
0.760784 0.572549 0.062745
0.823529 0.556863 0.058824
0.886275 0.537255 0.050980
0.949020 0.521569 0.043137
0.000000 0.760784 0.000000
0.058824 0.760784 0.000000
0.180392 0.760784 0.062745
0.250980 0.760784 0.062745
0.317647 0.760784 0.062745
0.388235 0.760784 0.062745
0.458824 0.760784 0.062745
0.529412 0.760784 0.062745
0.596078 0.760784 0.062745
0.666667 0.760784 0.062745
0.737255 0.760784 0.062745
0.760784 0.713725 0.062745
0.760784 0.643137 0.062745
0.823529 0.627451 0.058824
0.886275 0.607843 0.050980
0.949020 0.588235 0.043137
0.011765 0.823529 0.000000
0.066667 0.823529 0.000000
0.184314 0.823529 0.058824
0.254902 0.823529 0.058824
0.325490 0.823529 0.058824
0.392157 0.823529 0.058824
0.462745 0.823529 0.058824
0.533333 0.823529 0.058824
0.603922 0.823529 0.058824
0.670588 0.823529 0.058824
0.741176 0.823529 0.058824
0.811765 0.823529 0.058824
0.823529 0.764706 0.058824
0.823529 0.694118 0.058824
0.886275 0.678431 0.050980
0.949020 0.658824 0.043137
0.019608 0.886275 0.000000
0.078431 0.886275 0.000000
0.188235 0.886275 0.050980
0.258824 0.886275 0.050980
0.329412 0.886275 0.050980
0.400000 0.886275 0.050980
0.470588 0.886275 0.050980
0.537255 0.886275 0.050980
0.607843 0.886275 0.050980
0.678431 0.886275 0.050980
0.749020 0.886275 0.050980
0.815686 0.886275 0.050980
0.886275 0.886275 0.050980
0.886275 0.815686 0.050980
0.886275 0.749020 0.050980
0.949020 0.729412 0.043137
0.031373 0.949020 0.000000
0.090196 0.949020 0.000000
0.196078 0.949020 0.043137
0.266667 0.949020 0.043137
0.333333 0.949020 0.043137
0.403922 0.949020 0.043137
0.474510 0.949020 0.043137
0.545098 0.949020 0.043137
0.611765 0.949020 0.043137
0.682353 0.949020 0.043137
0.752941 0.949020 0.043137
0.823529 0.949020 0.043137
0.890196 0.949020 0.043137
0.949020 0.937255 0.043137
0.949020 0.870588 0.043137
0.949020 0.800000 0.043137
0.000000 0.031373 0.188235
0.031373 0.000000 0.188235
0.094118 0.000000 0.188235
0.156863 0.000000 0.188235
0.254902 0.000000 0.231373
0.317647 0.000000 0.243137
0.380392 0.000000 0.254902
0.443137 0.000000 0.262745
0.505882 0.000000 0.274510
0.568627 0.000000 0.286275
0.635294 0.000000 0.294118
0.698039 0.000000 0.305882
0.760784 0.000000 0.317647
0.823529 0.000000 0.325490
0.886275 0.000000 0.337255
0.949020 0.000000 0.349020
0.000000 0.094118 0.188235
0.050980 0.074510 0.188235
0.098039 0.050980 0.188235
0.168627 0.050980 0.188235
0.254902 0.043137 0.219608
0.317647 0.039216 0.223529
0.380392 0.031373 0.227451
0.443137 0.023529 0.235294
0.505882 0.019608 0.239216
0.568627 0.011765 0.243137
0.635294 0.007843 0.250980
0.698039 0.000000 0.254902
0.760784 0.000000 0.266667
0.823529 0.000000 0.274510
0.886275 0.000000 0.282353
0.949020 0.000000 0.294118
0.000000 0.156863 0.188235
0.050980 0.145098 0.188235
0.121569 0.133333 0.188235
0.176471 0.121569 0.188235
0.254902 0.113725 0.207843
0.317647 0.105882 0.211765
0.380392 0.101961 0.215686
0.443137 0.094118 0.223529
0.505882 0.090196 0.227451
0.568627 0.082353 0.231373
0.635294 0.074510 0.239216
0.698039 0.070588 0.243137
0.760784 0.062745 0.250980
0.823529 0.058824 0.254902
0.886275 0.050980 0.258824
0.949020 0.043137 0.266667
0.000000 0.188235 0.156863
0.050980 0.188235 0.168627
0.121569 0.188235 0.176471
0.188235 0.188235 0.188235
0.254902 0.184314 0.196078
0.317647 0.176471 0.200000
0.380392 0.172549 0.203922
0.443137 0.164706 0.211765
0.505882 0.156863 0.215686
0.568627 0.152941 0.223529
0.635294 0.145098 0.227451
0.698039 0.141176 0.231373
0.760784 0.133333 0.239216
0.823529 0.125490 0.243137
0.886275 0.121569 0.247059
0.949020 0.113725 0.254902
0.000000 0.254902 0.149020
0.043137 0.254902 0.149020
0.113725 0.254902 0.160784
0.196078 0.254902 0.184314
0.254902 0.243137 0.184314
0.317647 0.223529 0.176471
0.380392 0.203922 0.172549
0.443137 0.188235 0.164706
0.505882 0.168627 0.156863
0.568627 0.152941 0.152941
0.635294 0.145098 0.156863
0.698039 0.141176 0.160784
0.760784 0.133333 0.168627
0.823529 0.125490 0.172549
0.886275 0.121569 0.176471
0.949020 0.113725 0.184314
0.000000 0.317647 0.137255
0.039216 0.317647 0.129412
0.105882 0.317647 0.141176
0.200000 0.317647 0.176471
0.270588 0.317647 0.176471
0.317647 0.294118 0.176471
0.380392 0.274510 0.172549
0.443137 0.258824 0.164706
0.505882 0.239216 0.156863
0.568627 0.223529 0.152941
0.635294 0.203922 0.145098
0.698039 0.184314 0.141176
0.760784 0.168627 0.133333
0.823529 0.149020 0.125490
0.886275 0.133333 0.121569
0.949020 0.113725 0.113725
0.000000 0.380392 0.125490
0.031373 0.380392 0.113725
0.101961 0.380392 0.125490
0.203922 0.380392 0.172549
0.274510 0.380392 0.172549
0.345098 0.380392 0.172549
0.380392 0.345098 0.172549
0.443137 0.325490 0.164706
0.505882 0.309804 0.156863
0.568627 0.290196 0.152941
0.635294 0.274510 0.145098
0.698039 0.254902 0.141176
0.760784 0.239216 0.133333
0.823529 0.219608 0.125490
0.886275 0.200000 0.121569
0.949020 0.184314 0.113725
0.000000 0.443137 0.117647
0.023529 0.443137 0.094118
0.094118 0.443137 0.105882
0.211765 0.443137 0.164706
0.282353 0.443137 0.164706
0.349020 0.443137 0.164706
0.419608 0.443137 0.164706
