pkg/planetgen/color/luts/jovian.cube
TITLE "jovian archetype LUT"
LUT_3D_SIZE 6
0.000000 0.000000 0.000000
0.188235 0.000000 0.031373
0.380392 0.000000 0.062745
0.568627 0.000000 0.094118
0.760784 0.000000 0.125490
0.949020 0.000000 0.156863
0.031373 0.188235 0.000000
0.188235 0.156863 0.000000
0.380392 0.125490 0.000000
0.568627 0.094118 0.000000
0.760784 0.062745 0.000000
0.949020 0.031373 0.000000
0.062745 0.380392 0.000000
0.254902 0.380392 0.000000
0.380392 0.317647 0.000000
0.568627 0.286275 0.000000
0.760784 0.254902 0.000000
0.949020 0.223529 0.000000
0.094118 0.568627 0.000000
0.286275 0.568627 0.000000
0.474510 0.568627 0.000000
0.568627 0.474510 0.000000
0.760784 0.443137 0.000000
0.949020 0.411765 0.000000
0.125490 0.760784 0.000000
0.317647 0.760784 0.000000
0.505882 0.760784 0.000000
0.698039 0.760784 0.000000
0.760784 0.635294 0.000000
0.949020 0.600000 0.000000
0.156863 0.949020 0.000000
0.349020 0.949020 0.000000
0.537255 0.949020 0.000000
0.729412 0.949020 0.000000
0.917647 0.949020 0.000000
0.949020 0.792157 0.000000
0.000000 0.031373 0.188235
0.156863 0.000000 0.188235
0.380392 0.000000 0.254902
0.568627 0.000000 0.286275
0.760784 0.000000 0.317647
0.949020 0.000000 0.349020
0.000000 0.188235 0.156863
0.188235 0.188235 0.188235
0.380392 0.172549 0.203922
0.568627 0.152941 0.223529
0.760784 0.133333 0.239216
0.949020 0.113725 0.254902
0.000000 0.380392 0.125490
0.203922 0.380392 0.172549
0.380392 0.345098 0.172549
0.568627 0.290196 0.152941
0.760784 0.239216 0.133333
0.949020 0.184314 0.113725
0.000000 0.568627 0.094118
0.223529 0.568627 0.152941
0.431373 0.568627 0.152941
0.568627 0.501961 0.152941
0.760784 0.447059 0.133333
0.949020 0.392157 0.113725
0.000000 0.760784 0.062745
0.239216 0.760784 0.133333
0.447059 0.760784 0.133333
0.654902 0.760784 0.133333
0.760784 0.654902 0.133333
0.949020 0.600000 0.113725
0.000000 0.949020 0.031373
0.254902 0.949020 0.113725
0.462745 0.949020 0.113725
0.670588 0.949020 0.113725
0.878431 0.949020 0.113725
0.949020 0.811765 0.113725
0.000000 0.062745 0.380392
0.125490 0.000000 0.380392
0.317647 0.000000 0.380392
0.568627 0.000000 0.474510
0.760784 0.000000 0.505882
0.949020 0.000000 0.537255
0.000000 0.254902 0.380392
0.172549 0.203922 0.380392
0.345098 0.172549 0.380392
0.568627 0.152941 0.431373
0.760784 0.133333 0.447059
0.949020 0.113725 0.462745
0.000000 0.380392 0.317647
0.172549 0.380392 0.345098
0.380392 0.380392 0.380392
0.568627 0.360784 0.396078
0.760784 0.341176 0.411765
0.949020 0.321569 0.427451
0.000000 0.568627 0.286275
0.152941 0.568627 0.290196
0.396078 0.568627 0.360784
0.568627 0.533333 0.360784
0.760784 0.482353 0.341176
0.949020 0.427451 0.321569
0.000000 0.760784 0.254902
0.133333 0.760784 0.239216
0.411765 0.760784 0.341176
0.619608 0.760784 0.341176
0.760784 0.690196 0.341176
0.949020 0.635294 0.321569
0.000000 0.949020 0.223529
0.113725 0.949020 0.184314
0.427451 0.949020 0.321569
0.635294 0.949020 0.321569
0.847059 0.949020 0.321569
0.949020 0.847059 0.321569
0.000000 0.094118 0.568627
0.094118 0.000000 0.568627
0.286275 0.000000 0.568627
0.474510 0.000000 0.568627
0.760784 0.000000 0.698039
0.949020 0.000000 0.729412
0.000000 0.286275 0.568627
0.152941 0.223529 0.568627
0.290196 0.152941 0.568627
0.501961 0.152941 0.568627
0.760784 0.133333 0.654902
0.949020 0.113725 0.670588
0.000000 0.474510 0.568627
0.152941 0.431373 0.568627
0.360784 0.396078 0.568627
0.533333 0.360784 0.568627
0.760784 0.341176 0.619608
0.949020 0.321569 0.635294
0.000000 0.568627 0.474510
0.152941 0.568627 0.501961
0.360784 0.568627 0.533333
0.568627 0.568627 0.568627
0.760784 0.552941 0.584314
0.949020 0.533333 0.600000
0.000000 0.760784 0.443137
0.133333 0.760784 0.447059
0.341176 0.760784 0.482353
0.584314 0.760784 0.552941
0.760784 0.725490 0.552941
0.949020 0.670588 0.533333
0.000000 0.949020 0.411765
0.113725 0.949020 0.392157
0.321569 0.949020 0.427451
0.600000 0.949020 0.533333
0.811765 0.949020 0.533333
0.949020 0.878431 0.533333
0.000000 0.125490 0.760784
0.062745 0.000000 0.760784
0.254902 0.000000 0.760784
0.443137 0.000000 0.760784
0.631373 0.000000 0.760784
0.949020 0.000000 0.917647
0.000000 0.317647 0.760784
0.133333 0.239216 0.760784
0.239216 0.133333 0.760784
0.447059 0.133333 0.760784
0.654902 0.133333 0.760784
0.949020 0.113725 0.878431
0.000000 0.505882 0.760784
0.133333 0.447059 0.760784
0.341176 0.411765 0.760784
0.482353 0.341176 0.760784
0.690196 0.341176 0.760784
0.949020 0.321569 0.847059
0.000000 0.698039 0.760784
0.133333 0.654902 0.760784
0.341176 0.619608 0.760784
0.552941 0.584314 0.760784
0.725490 0.552941 0.760784
0.949020 0.533333 0.811765
0.000000 0.760784 0.635294
0.133333 0.760784 0.654902
0.341176 0.760784 0.690196
0.552941 0.760784 0.725490
0.760784 0.760784 0.760784
0.949020 0.741176 0.776471
0.000000 0.949020 0.600000
0.113725 0.949020 0.600000
0.321569 0.949020 0.635294
0.533333 0.949020 0.670588
0.776471 0.949020 0.741176
0.949020 0.913725 0.741176
0.000000 0.156863 0.949020
0.031373 0.000000 0.949020
0.223529 0.000000 0.949020
0.411765 0.000000 0.949020
0.600000 0.000000 0.949020
0.792157 0.000000 0.949020
0.000000 0.349020 0.949020
0.113725 0.254902 0.949020
0.184314 0.113725 0.949020
0.392157 0.113725 0.949020
0.600000 0.113725 0.949020
0.811765 0.113725 0.949020
0.000000 0.537255 0.949020
0.113725 0.462745 0.949020
0.321569 0.427451 0.949020
0.427451 0.321569 0.949020
0.635294 0.321569 0.949020
0.847059 0.321569 0.949020
0.000000 0.729412 0.949020
0.113725 0.670588 0.949020
0.321569 0.635294 0.949020
0.533333 0.600000 0.949020
0.670588 0.533333 0.949020
0.878431 0.533333 0.949020
0.000000 0.917647 0.949020
0.113725 0.878431 0.949020
0.321569 0.847059 0.949020
0.533333 0.811765 0.949020
0.741176 0.776471 0.949020
0.913725 0.741176 0.949020
0.000000 0.949020 0.792157
0.113725 0.949020 0.811765
0.321569 0.949020 0.847059
0.533333 0.949020 0.878431
0.741176 0.949020 0.913725
0.949020 0.949020 0.949020
