pkg/planetgen/color/luts/lava_world.cube
TITLE "lava_world archetype LUT"
LUT_3D_SIZE 16
0.000000 0.000000 0.000000
0.054902 0.000000 0.019608
0.113725 0.000000 0.039216
0.168627 0.000000 0.054902
0.227451 0.000000 0.074510
0.282353 0.000000 0.094118
0.341176 0.000000 0.113725
0.396078 0.000000 0.133333
0.454902 0.000000 0.152941
0.509804 0.000000 0.168627
0.568627 0.000000 0.188235
0.623529 0.000000 0.207843
0.678431 0.000000 0.227451
0.737255 0.000000 0.247059
0.792157 0.000000 0.262745
0.850980 0.000000 0.282353
0.019608 0.054902 0.000000
0.054902 0.039216 0.000000
0.113725 0.019608 0.000000
0.168627 0.000000 0.000000
0.227451 0.000000 0.019608
0.282353 0.000000 0.039216
0.341176 0.000000 0.054902
0.396078 0.000000 0.074510
0.454902 0.000000 0.094118
0.509804 0.000000 0.113725
0.568627 0.000000 0.133333
0.623529 0.000000 0.152941
0.678431 0.000000 0.168627
0.737255 0.000000 0.188235
0.792157 0.000000 0.207843
0.850980 0.000000 0.227451
0.039216 0.113725 0.000000
0.094118 0.113725 0.000000
0.113725 0.074510 0.000000
0.168627 0.054902 0.000000
0.227451 0.039216 0.000000
0.282353 0.019608 0.000000
0.341176 0.000000 0.000000
0.396078 0.000000 0.019608
0.454902 0.000000 0.039216
0.509804 0.000000 0.054902
0.568627 0.000000 0.074510
0.623529 0.000000 0.094118
0.678431 0.000000 0.113725
0.737255 0.000000 0.133333
0.792157 0.000000 0.152941
0.850980 0.000000 0.168627
0.054902 0.168627 0.000000
0.113725 0.168627 0.000000
0.168627 0.168627 0.000000
0.168627 0.113725 0.000000
0.227451 0.094118 0.000000
0.282353 0.074510 0.000000
0.341176 0.054902 0.000000
0.396078 0.039216 0.000000
0.454902 0.019608 0.000000
0.509804 0.000000 0.000000
0.568627 0.000000 0.019608
0.623529 0.000000 0.039216
0.678431 0.000000 0.054902
0.737255 0.000000 0.074510
0.792157 0.000000 0.094118
0.850980 0.000000 0.113725
0.074510 0.227451 0.000000
0.133333 0.227451 0.000000
0.188235 0.227451 0.000000
0.227451 0.207843 0.000000
0.227451 0.152941 0.000000
0.282353 0.133333 0.000000
0.341176 0.113725 0.000000
0.396078 0.094118 0.000000
0.454902 0.074510 0.000000
0.509804 0.054902 0.000000
0.568627 0.039216 0.000000
0.623529 0.019608 0.000000
0.678431 0.000000 0.000000
0.737255 0.000000 0.019608
0.792157 0.000000 0.039216
0.850980 0.000000 0.054902
0.094118 0.282353 0.000000
0.152941 0.282353 0.000000
0.207843 0.282353 0.000000
0.262745 0.282353 0.000000
0.282353 0.247059 0.000000
0.282353 0.188235 0.000000
0.341176 0.168627 0.000000
0.396078 0.152941 0.000000
0.454902 0.133333 0.000000
0.509804 0.113725 0.000000
0.568627 0.094118 0.000000
0.623529 0.074510 0.000000
0.678431 0.054902 0.000000
0.737255 0.039216 0.000000
0.792157 0.019608 0.000000
0.850980 0.000000 0.000000
0.113725 0.341176 0.000000
0.168627 0.341176 0.000000
0.227451 0.341176 0.000000
0.282353 0.341176 0.000000
0.341176 0.341176 0.000000
0.341176 0.282353 0.000000
0.341176 0.227451 0.000000
0.396078 0.207843 0.000000
0.454902 0.188235 0.000000
0.509804 0.168627 0.000000
0.568627 0.152941 0.000000
0.623529 0.133333 0.000000
0.678431 0.113725 0.000000
0.737255 0.094118 0.000000
0.792157 0.074510 0.000000
0.850980 0.054902 0.000000
0.133333 0.396078 0.000000
0.188235 0.396078 0.000000
0.247059 0.396078 0.000000
0.301961 0.396078 0.000000
0.360784 0.396078 0.000000
0.396078 0.376471 0.000000
0.396078 0.321569 0.000000
0.396078 0.262745 0.000000
0.454902 0.247059 0.000000
0.509804 0.227451 0.000000
0.568627 0.207843 0.000000
0.623529 0.188235 0.000000
0.678431 0.168627 0.000000
0.737255 0.152941 0.000000
0.792157 0.133333 0.000000
0.850980 0.113725 0.000000
0.152941 0.454902 0.000000
0.207843 0.454902 0.000000
0.262745 0.454902 0.000000
0.321569 0.454902 0.000000
0.376471 0.454902 0.000000
0.435294 0.454902 0.000000
0.454902 0.415686 0.000000
0.454902 0.360784 0.000000
0.454902 0.301961 0.000000
0.509804 0.282353 0.000000
0.568627 0.262745 0.000000
0.623529 0.247059 0.000000
0.678431 0.227451 0.000000
0.737255 0.207843 0.000000
0.792157 0.188235 0.000000
0.850980 0.168627 0.000000
0.168627 0.509804 0.000000
0.227451 0.509804 0.000000
0.282353 0.509804 0.000000
0.341176 0.509804 0.000000
0.396078 0.509804 0.000000
0.454902 0.509804 0.000000
0.509804 0.509804 0.000000
0.509804 0.454902 0.000000
0.509804 0.396078 0.000000
0.509804 0.341176 0.000000
0.568627 0.321569 0.000000
0.623529 0.301961 0.000000
0.678431 0.282353 0.000000
0.737255 0.262745 0.000000
0.792157 0.247059 0.000000
0.850980 0.227451 0.000000
0.188235 0.568627 0.000000
0.247059 0.568627 0.000000
0.301961 0.568627 0.000000
0.360784 0.568627 0.000000
0.415686 0.568627 0.000000
0.470588 0.568627 0.000000
0.529412 0.568627 0.000000
0.568627 0.549020 0.000000
0.568627 0.490196 0.000000
0.568627 0.435294 0.000000
0.568627 0.376471 0.000000
0.623529 0.360784 0.000000
0.678431 0.341176 0.000000
0.737255 0.321569 0.000000
0.792157 0.301961 0.000000
0.850980 0.282353 0.000000
0.207843 0.623529 0.000000
0.262745 0.623529 0.000000
0.321569 0.623529 0.000000
0.376471 0.623529 0.000000
0.435294 0.623529 0.000000
0.490196 0.623529 0.000000
0.549020 0.623529 0.000000
0.603922 0.623529 0.000000
0.623529 0.584314 0.000000
0.623529 0.529412 0.000000
0.623529 0.470588 0.000000
0.623529 0.415686 0.000000
0.678431 0.396078 0.000000
0.737255 0.376471 0.000000
0.792157 0.360784 0.000000
0.850980 0.341176 0.000000
0.227451 0.678431 0.000000
0.282353 0.678431 0.000000
0.341176 0.678431 0.000000
0.396078 0.678431 0.000000
0.454902 0.678431 0.000000
0.509804 0.678431 0.000000
0.568627 0.678431 0.000000
0.623529 0.678431 0.000000
0.678431 0.678431 0.000000
0.678431 0.623529 0.000000
0.678431 0.568627 0.000000
0.678431 0.509804 0.000000
0.678431 0.454902 0.000000
0.737255 0.435294 0.000000
0.792157 0.415686 0.000000
0.850980 0.396078 0.000000
0.247059 0.737255 0.000000
0.301961 0.737255 0.000000
0.360784 0.737255 0.000000
0.415686 0.737255 0.000000
0.470588 0.737255 0.000000
0.529412 0.737255 0.000000
0.584314 0.737255 0.000000
0.643137 0.737255 0.000000
0.698039 0.737255 0.000000
0.737255 0.717647 0.000000
0.737255 0.662745 0.000000
0.737255 0.603922 0.000000
0.737255 0.549020 0.000000
0.737255 0.490196 0.000000
0.792157 0.470588 0.000000
0.850980 0.454902 0.000000
0.262745 0.792157 0.000000
0.321569 0.792157 0.000000
0.376471 0.792157 0.000000
0.435294 0.792157 0.000000
0.490196 0.792157 0.000000
0.549020 0.792157 0.000000
0.603922 0.792157 0.000000
0.662745 0.792157 0.000000
0.717647 0.792157 0.000000
0.772549 0.792157 0.000000
0.792157 0.756863 0.000000
0.792157 0.698039 0.000000
0.792157 0.643137 0.000000
0.792157 0.584314 0.000000
0.792157 0.529412 0.000000
0.850980 0.509804 0.000000
0.282353 0.850980 0.000000
0.341176 0.850980 0.000000
0.396078 0.850980 0.000000
0.454902 0.850980 0.000000
0.509804 0.850980 0.000000
0.568627 0.850980 0.000000
0.623529 0.850980 0.000000
0.678431 0.850980 0.000000
0.737255 0.850980 0.000000
0.792157 0.850980 0.000000
0.850980 0.850980 0.000000
0.850980 0.792157 0.000000
0.850980 0.737255 0.000000
0.850980 0.678431 0.000000
0.850980 0.623529 0.000000
0.850980 0.568627 0.000000
0.000000 0.019608 0.054902
0.039216 0.000000 0.054902
0.113725 0.000000 0.094118
0.168627 0.000000 0.113725
0.227451 0.000000 0.133333
0.282353 0.000000 0.152941
0.341176 0.000000 0.168627
0.396078 0.000000 0.188235
0.454902 0.000000 0.207843
0.509804 0.000000 0.227451
0.568627 0.000000 0.247059
0.623529 0.000000 0.262745
0.678431 0.000000 0.282353
0.737255 0.000000 0.301961
0.792157 0.000000 0.321569
0.850980 0.000000 0.341176
0.000000 0.054902 0.039216
0.054902 0.054902 0.054902
0.113725 0.047059 0.070588
0.168627 0.039216 0.082353
0.227451 0.031373 0.098039
0.282353 0.023529 0.109804
0.341176 0.015686 0.121569
0.396078 0.003922 0.137255
0.454902 0.000000 0.152941
0.509804 0.000000 0.168627
0.568627 0.000000 0.188235
0.623529 0.000000 0.207843
0.678431 0.000000 0.227451
0.737255 0.000000 0.247059
0.792157 0.000000 0.262745
0.850980 0.000000 0.282353
0.000000 0.113725 0.019608
0.070588 0.113725 0.047059
0.113725 0.090196 0.047059
0.168627 0.062745 0.039216
0.227451 0.031373 0.031373
0.282353 0.023529 0.043137
0.341176 0.015686 0.058824
0.396078 0.003922 0.070588
0.454902 0.000000 0.086275
0.509804 0.000000 0.105882
0.568627 0.000000 0.125490
0.623529 0.000000 0.145098
0.678431 0.000000 0.164706
0.737255 0.000000 0.184314
0.792157 0.000000 0.203922
0.850980 0.000000 0.223529
0.000000 0.168627 0.000000
0.082353 0.168627 0.039216
0.149020 0.168627 0.039216
0.168627 0.125490 0.039216
0.227451 0.098039 0.031373
0.282353 0.066667 0.023529
0.341176 0.035294 0.015686
0.396078 0.003922 0.003922
0.454902 0.000000 0.023529
0.509804 0.000000 0.043137
0.568627 0.000000 0.062745
0.623529 0.000000 0.082353
0.678431 0.000000 0.101961
0.737255 0.000000 0.121569
0.792157 0.000000 0.141176
0.850980 0.000000 0.160784
0.019608 0.227451 0.000000
0.098039 0.227451 0.031373
0.160784 0.227451 0.031373
0.227451 0.227451 0.031373
0.227451 0.160784 0.031373
0.282353 0.129412 0.023529
0.341176 0.101961 0.015686
0.396078 0.070588 0.003922
0.454902 0.043137 0.000000
0.509804 0.019608 0.000000
0.568627 0.000000 0.000000
0.623529 0.000000 0.019608
0.678431 0.000000 0.043137
0.737255 0.000000 0.062745
0.792157 0.000000 0.082353
0.850980 0.000000 0.101961
0.039216 0.282353 0.000000
0.109804 0.282353 0.023529
0.176471 0.282353 0.023529
0.239216 0.282353 0.023529
0.282353 0.262745 0.023529
0.282353 0.196078 0.023529
0.341176 0.164706 0.015686
0.396078 0.137255 0.003922
0.454902 0.109804 0.000000
0.509804 0.086275 0.000000
0.568627 0.062745 0.000000
0.623529 0.043137 0.000000
0.678431 0.019608 0.000000
0.737255 0.000000 0.000000
0.792157 0.000000 0.019608
0.850980 0.000000 0.039216
0.054902 0.341176 0.000000
0.121569 0.341176 0.015686
0.188235 0.341176 0.015686
0.254902 0.341176 0.015686
0.317647 0.341176 0.015686
0.341176 0.298039 0.015686
0.341176 0.231373 0.015686
0.396078 0.200000 0.003922
0.454902 0.172549 0.000000
0.509804 0.149020 0.000000
0.568627 0.125490 0.000000
0.623529 0.101961 0.000000
0.678431 0.082353 0.000000
0.737255 0.062745 0.000000
0.792157 0.039216 0.000000
0.850980 0.019608 0.000000
0.074510 0.396078 0.000000
0.137255 0.396078 0.003922
0.200000 0.396078 0.003922
0.266667 0.396078 0.003922
0.333333 0.396078 0.003922
0.396078 0.396078 0.003922
0.396078 0.333333 0.003922
0.396078 0.266667 0.003922
0.454902 0.239216 0.000000
0.509804 0.211765 0.000000
0.568627 0.188235 0.000000
0.623529 0.164706 0.000000
0.678431 0.145098 0.000000
0.737255 0.121569 0.000000
0.792157 0.101961 0.000000
0.850980 0.082353 0.000000
0.094118 0.454902 0.000000
0.152941 0.454902 0.000000
0.215686 0.454902 0.000000
0.282353 0.454902 0.000000
0.345098 0.454902 0.000000
0.411765 0.454902 0.000000
0.454902 0.431373 0.000000
0.454902 0.368627 0.000000
0.454902 0.301961 0.000000
0.509804 0.274510 0.000000
0.568627 0.250980 0.000000
0.623529 0.227451 0.000000
0.678431 0.207843 0.000000
0.737255 0.184314 0.000000
0.792157 0.160784 0.000000
0.850980 0.141176 0.000000
0.113725 0.509804 0.000000
0.168627 0.509804 0.000000
0.235294 0.509804 0.000000
0.298039 0.509804 0.000000
0.360784 0.509804 0.000000
0.423529 0.509804 0.000000
0.490196 0.509804 0.000000
0.509804 0.466667 0.000000
0.509804 0.403922 0.000000
0.509804 0.341176 0.000000
0.568627 0.313725 0.000000
0.623529 0.290196 0.000000
0.678431 0.266667 0.000000
0.737255 0.247059 0.000000
0.792157 0.223529 0.000000
0.850980 0.203922 0.000000
0.133333 0.568627 0.000000
0.188235 0.568627 0.000000
0.250980 0.568627 0.000000
0.313725 0.568627 0.000000
0.376471 0.568627 0.000000
0.439216 0.568627 0.000000
0.501961 0.568627 0.000000
0.568627 0.568627 0.000000
0.568627 0.501961 0.000000
0.568627 0.439216 0.000000
0.568627 0.376471 0.000000
0.623529 0.352941 0.000000
0.678431 0.329412 0.000000
0.737255 0.305882 0.000000
0.792157 0.286275 0.000000
0.850980 0.262745 0.000000
0.152941 0.623529 0.000000
0.207843 0.623529 0.000000
0.270588 0.623529 0.000000
0.333333 0.623529 0.000000
0.396078 0.623529 0.000000
0.458824 0.623529 0.000000
0.517647 0.623529 0.000000
0.580392 0.623529 0.000000
0.623529 0.603922 0.000000
0.623529 0.541176 0.000000
0.623529 0.478431 0.000000
0.623529 0.415686 0.000000
0.678431 0.392157 0.000000
0.737255 0.368627 0.000000
0.792157 0.345098 0.000000
0.850980 0.325490 0.000000
0.168627 0.678431 0.000000
0.227451 0.678431 0.000000
0.290196 0.678431 0.000000
0.349020 0.678431 0.000000
0.411765 0.678431 0.000000
0.474510 0.678431 0.000000
0.537255 0.678431 0.000000
0.596078 0.678431 0.000000
0.658824 0.678431 0.000000
0.678431 0.639216 0.000000
0.678431 0.576471 0.000000
0.678431 0.513725 0.000000
0.678431 0.454902 0.000000
0.737255 0.431373 0.000000
0.792157 0.407843 0.000000
0.850980 0.384314 0.000000
0.188235 0.737255 0.000000
0.247059 0.737255 0.000000
0.305882 0.737255 0.000000
0.368627 0.737255 0.000000
0.431373 0.737255 0.000000
0.490196 0.737255 0.000000
0.552941 0.737255 0.000000
0.615686 0.737255 0.000000
0.674510 0.737255 0.000000
0.737255 0.737255 0.000000
0.737255 0.674510 0.000000
0.737255 0.615686 0.000000
0.737255 0.552941 0.000000
0.737255 0.490196 0.000000
0.792157 0.466667 0.000000
0.850980 0.447059 0.000000
0.207843 0.792157 0.000000
0.262745 0.792157 0.000000
0.325490 0.792157 0.000000
0.388235 0.792157 0.000000
0.447059 0.792157 0.000000
0.509804 0.792157 0.000000
0.568627 0.792157 0.000000
0.631373 0.792157 0.000000
0.690196 0.792157 0.000000
0.752941 0.792157 0.000000
0.792157 0.772549 0.000000
0.792157 0.713725 0.000000
0.792157 0.650980 0.000000
0.792157 0.588235 0.000000
0.792157 0.529412 0.000000
0.850980 0.505882 0.000000
0.227451 0.850980 0.000000
0.282353 0.850980 0.000000
0.345098 0.850980 0.000000
0.403922 0.850980 0.000000
0.466667 0.850980 0.000000
0.525490 0.850980 0.000000
0.588235 0.850980 0.000000
0.647059 0.850980 0.000000
0.709804 0.850980 0.000000
0.768627 0.850980 0.000000
0.831373 0.850980 0.000000
0.850980 0.807843 0.000000
0.850980 0.749020 0.000000
0.850980 0.686275 0.000000
0.850980 0.627451 0.000000
0.850980 0.568627 0.000000
0.000000 0.039216 0.113725
0.019608 0.000000 0.113725
0.074510 0.000000 0.113725
0.168627 0.000000 0.168627
0.227451 0.000000 0.188235
0.282353 0.000000 0.207843
0.341176 0.000000 0.227451
0.396078 0.000000 0.247059
0.454902 0.000000 0.262745
0.509804 0.000000 0.282353
0.568627 0.000000 0.301961
0.623529 0.000000 0.321569
0.678431 0.000000 0.341176
0.737255 0.000000 0.360784
0.792157 0.000000 0.376471
0.850980 0.000000 0.396078
0.000000 0.094118 0.113725
0.047059 0.070588 0.113725
0.090196 0.047059 0.113725
0.168627 0.039216 0.149020
0.227451 0.031373 0.160784
0.282353 0.023529 0.176471
0.341176 0.015686 0.188235
0.396078 0.003922 0.200000
0.454902 0.000000 0.215686
0.509804 0.000000 0.235294
0.568627 0.000000 0.250980
0.623529 0.000000 0.270588
0.678431 0.000000 0.290196
0.737255 0.000000 0.305882
0.792157 0.000000 0.325490
0.850980 0.000000 0.345098
0.000000 0.113725 0.074510
0.047059 0.113725 0.090196
0.113725 0.113725 0.113725
0.168627 0.105882 0.125490
0.227451 0.098039 0.141176
0.282353 0.086275 0.152941
0.341176 0.078431 0.164706
0.396078 0.070588 0.180392
0.454902 0.062745 0.192157
0.509804 0.054902 0.207843
0.568627 0.047059 0.219608
0.623529 0.035294 0.231373
0.678431 0.027451 0.247059
0.737255 0.019608 0.258824
0.792157 0.011765 0.270588
0.850980 0.003922 0.286275
0.000000 0.168627 0.054902
0.039216 0.168627 0.062745
0.125490 0.168627 0.105882
0.168627 0.149020 0.105882
0.227451 0.117647 0.098039
0.282353 0.086275 0.086275
0.341176 0.078431 0.101961
0.396078 0.070588 0.113725
0.454902 0.062745 0.129412
0.509804 0.054902 0.141176
0.568627 0.047059 0.152941
0.623529 0.035294 0.168627
0.678431 0.027451 0.180392
0.737255 0.019608 0.192157
0.792157 0.011765 0.207843
0.850980 0.003922 0.219608
0.000000 0.227451 0.039216
0.031373 0.227451 0.031373
0.141176 0.227451 0.098039
0.203922 0.227451 0.098039
0.227451 0.184314 0.098039
0.282353 0.152941 0.086275
0.341176 0.121569 0.078431
0.396078 0.094118 0.070588
0.454902 0.062745 0.062745
0.509804 0.054902 0.074510
0.568627 0.047059 0.090196
0.623529 0.035294 0.101961
0.678431 0.027451 0.113725
0.737255 0.019608 0.129412
0.792157 0.011765 0.141176
0.850980 0.003922 0.152941
0.000000 0.282353 0.019608
0.043137 0.282353 0.023529
0.152941 0.282353 0.086275
0.219608 0.282353 0.086275
0.282353 0.282353 0.086275
0.282353 0.219608 0.086275
0.341176 0.188235 0.078431
0.396078 0.156863 0.070588
0.454902 0.129412 0.062745
0.509804 0.098039 0.054902
0.568627 0.066667 0.047059
0.623529 0.035294 0.035294
0.678431 0.027451 0.050980
0.737255 0.019608 0.062745
0.792157 0.011765 0.078431
0.850980 0.003922 0.090196
0.000000 0.341176 0.000000
0.058824 0.341176 0.015686
0.164706 0.341176 0.078431
0.231373 0.341176 0.078431
0.298039 0.341176 0.078431
0.341176 0.317647 0.078431
0.341176 0.254902 0.078431
0.396078 0.223529 0.070588
0.454902 0.192157 0.062745
0.509804 0.160784 0.054902
0.568627 0.133333 0.047059
0.623529 0.101961 0.035294
0.678431 0.070588 0.027451
0.737255 0.043137 0.019608
0.792157 0.011765 0.011765
0.850980 0.003922 0.023529
0.019608 0.396078 0.000000
0.070588 0.396078 0.003922
0.180392 0.396078 0.070588
0.243137 0.396078 0.070588
0.309804 0.396078 0.070588
0.376471 0.396078 0.070588
0.396078 0.352941 0.070588
0.396078 0.286275 0.070588
0.454902 0.258824 0.062745
0.509804 0.227451 0.054902
0.568627 0.196078 0.047059
0.623529 0.168627 0.035294
0.678431 0.137255 0.027451
0.737255 0.105882 0.019608
0.792157 0.078431 0.011765
0.850980 0.047059 0.003922
0.039216 0.454902 0.000000
0.086275 0.454902 0.000000
0.192157 0.454902 0.062745
0.258824 0.454902 0.062745
0.321569 0.454902 0.062745
0.388235 0.454902 0.062745
0.454902 0.454902 0.062745
0.454902 0.388235 0.062745
0.454902 0.321569 0.062745
0.509804 0.294118 0.054902
0.568627 0.262745 0.047059
0.623529 0.231373 0.035294
0.678431 0.203922 0.027451
0.737255 0.172549 0.019608
0.792157 0.141176 0.011765
0.850980 0.109804 0.003922
0.054902 0.509804 0.000000
0.105882 0.509804 0.000000
0.207843 0.509804 0.054902
0.270588 0.509804 0.054902
0.337255 0.509804 0.054902
0.400000 0.509804 0.054902
0.466667 0.509804 0.054902
0.509804 0.490196 0.054902
0.509804 0.423529 0.054902
0.509804 0.356863 0.054902
0.568627 0.329412 0.047059
0.623529 0.298039 0.035294
0.678431 0.266667 0.027451
0.737255 0.235294 0.019608
0.792157 0.207843 0.011765
0.850980 0.176471 0.003922
0.074510 0.568627 0.000000
0.125490 0.568627 0.000000
0.219608 0.568627 0.047059
0.282353 0.568627 0.047059
0.349020 0.568627 0.047059
0.415686 0.568627 0.047059
0.478431 0.568627 0.047059
0.545098 0.568627 0.047059
0.568627 0.521569 0.047059
0.568627 0.458824 0.047059
0.568627 0.392157 0.047059
0.623529 0.360784 0.035294
0.678431 0.333333 0.027451
0.737255 0.301961 0.019608
0.792157 0.270588 0.011765
0.850980 0.243137 0.003922
0.094118 0.623529 0.000000
0.145098 0.623529 0.000000
0.231373 0.623529 0.035294
0.298039 0.623529 0.035294
0.360784 0.623529 0.035294
0.427451 0.623529 0.035294
0.494118 0.623529 0.035294
0.556863 0.623529 0.035294
0.623529 0.623529 0.035294
0.623529 0.556863 0.035294
0.623529 0.494118 0.035294
0.623529 0.427451 0.035294
0.678431 0.396078 0.027451
0.737255 0.368627 0.019608
0.792157 0.337255 0.011765
0.850980 0.305882 0.003922
0.113725 0.678431 0.000000
0.164706 0.678431 0.000000
0.247059 0.678431 0.027451
0.309804 0.678431 0.027451
0.376471 0.678431 0.027451
0.439216 0.678431 0.027451
0.505882 0.678431 0.027451
0.572549 0.678431 0.027451
0.635294 0.678431 0.027451
0.678431 0.658824 0.027451
0.678431 0.592157 0.027451
0.678431 0.529412 0.027451
0.678431 0.462745 0.027451
0.737255 0.431373 0.019608
0.792157 0.403922 0.011765
0.850980 0.372549 0.003922
0.133333 0.737255 0.000000
0.184314 0.737255 0.000000
0.258824 0.737255 0.019608
0.325490 0.737255 0.019608
0.388235 0.737255 0.019608
0.454902 0.737255 0.019608
0.517647 0.737255 0.019608
0.584314 0.737255 0.019608
0.650980 0.737255 0.019608
0.713725 0.737255 0.019608
0.737255 0.694118 0.019608
0.737255 0.627451 0.019608
0.737255 0.564706 0.019608
0.737255 0.498039 0.019608
0.792157 0.466667 0.011765
0.850980 0.439216 0.003922
0.152941 0.792157 0.000000
0.203922 0.792157 0.000000
0.270588 0.792157 0.011765
0.337255 0.792157 0.011765
0.403922 0.792157 0.011765
0.466667 0.792157 0.011765
0.533333 0.792157 0.011765
0.596078 0.792157 0.011765
0.662745 0.792157 0.011765
0.729412 0.792157 0.011765
0.792157 0.792157 0.011765
0.792157 0.729412 0.011765
0.792157 0.662745 0.011765
0.792157 0.596078 0.011765
0.792157 0.533333 0.011765
0.850980 0.501961 0.003922
0.168627 0.850980 0.000000
0.223529 0.850980 0.000000
0.286275 0.850980 0.003922
0.349020 0.850980 0.003922
0.415686 0.850980 0.003922
0.482353 0.850980 0.003922
0.545098 0.850980 0.003922
0.611765 0.850980 0.003922
0.674510 0.850980 0.003922
0.741176 0.850980 0.003922
0.807843 0.850980 0.003922
0.850980 0.827451 0.003922
0.850980 0.764706 0.003922
0.850980 0.698039 0.003922
0.850980 0.631373 0.003922
0.850980 0.568627 0.003922
0.000000 0.054902 0.168627
0.000000 0.000000 0.168627
0.054902 0.000000 0.168627
0.113725 0.000000 0.168627
0.207843 0.000000 0.227451
0.282353 0.000000 0.262745
0.341176 0.000000 0.282353
0.396078 0.000000 0.301961
0.454902 0.000000 0.321569
0.509804 0.000000 0.341176
0.568627 0.000000 0.360784
0.623529 0.000000 0.376471
0.678431 0.000000 0.396078
0.737255 0.000000 0.415686
0.792157 0.000000 0.435294
0.850980 0.000000 0.454902
0.000000 0.113725 0.168627
0.039216 0.082353 0.168627
0.062745 0.039216 0.168627
0.125490 0.039216 0.168627
0.227451 0.031373 0.227451
0.282353 0.023529 0.239216
0.341176 0.015686 0.254902
0.396078 0.003922 0.266667
0.454902 0.000000 0.282353
0.509804 0.000000 0.298039
0.568627 0.000000 0.313725
0.623529 0.000000 0.333333
0.678431 0.000000 0.349020
0.737255 0.000000 0.368627
0.792157 0.000000 0.388235
0.850980 0.000000 0.403922
0.000000 0.168627 0.168627
0.039216 0.149020 0.168627
0.105882 0.125490 0.168627
0.149020 0.105882 0.168627
0.227451 0.098039 0.203922
0.282353 0.086275 0.219608
0.341176 0.078431 0.231373
0.396078 0.070588 0.243137
0.454902 0.062745 0.258824
0.509804 0.054902 0.270588
0.568627 0.047059 0.282353
0.623529 0.035294 0.298039
0.678431 0.027451 0.309804
0.737255 0.019608 0.325490
0.792157 0.011765 0.337255
0.850980 0.003922 0.349020
0.000000 0.168627 0.113725
0.039216 0.168627 0.125490
0.105882 0.168627 0.149020
0.168627 0.168627 0.168627
0.227451 0.160784 0.184314
0.282353 0.152941 0.196078
0.341176 0.145098 0.207843
0.396078 0.137255 0.223529
0.454902 0.129412 0.235294
0.509804 0.117647 0.250980
0.568627 0.109804 0.262745
0.623529 0.101961 0.274510
0.678431 0.094118 0.290196
0.737255 0.086275 0.301961
0.792157 0.078431 0.313725
0.850980 0.066667 0.329412
0.000000 0.227451 0.094118
0.031373 0.227451 0.098039
0.098039 0.227451 0.117647
0.184314 0.227451 0.160784
0.227451 0.203922 0.160784
0.282353 0.176471 0.152941
0.341176 0.145098 0.145098
0.396078 0.137255 0.156863
0.454902 0.129412 0.172549
0.509804 0.117647 0.184314
0.568627 0.109804 0.196078
0.623529 0.101961 0.211765
0.678431 0.094118 0.223529
0.737255 0.086275 0.235294
0.792157 0.078431 0.250980
0.850980 0.066667 0.262745
0.000000 0.282353 0.074510
0.023529 0.282353 0.066667
0.086275 0.282353 0.086275
0.196078 0.282353 0.152941
0.262745 0.282353 0.152941
0.282353 0.239216 0.152941
0.341176 0.207843 0.145098
0.396078 0.180392 0.137255
0.454902 0.149020 0.129412
0.509804 0.117647 0.117647
0.568627 0.109804 0.133333
0.623529 0.101961 0.145098
0.678431 0.094118 0.156863
0.737255 0.086275 0.172549
0.792157 0.078431 0.184314
0.850980 0.066667 0.200000
0.000000 0.341176 0.054902
0.015686 0.341176 0.035294
0.101961 0.341176 0.078431
0.207843 0.341176 0.145098
0.274510 0.341176 0.145098
0.341176 0.341176 0.145098
0.341176 0.274510 0.145098
0.396078 0.243137 0.137255
0.454902 0.215686 0.129412
0.509804 0.184314 0.117647
0.568627 0.152941 0.109804
0.623529 0.125490 0.101961
0.678431 0.094118 0.094118
0.737255 0.086275 0.105882
0.792157 0.078431 0.121569
0.850980 0.066667 0.133333
0.000000 0.396078 0.039216
0.003922 0.396078 0.003922
0.113725 0.396078 0.070588
0.223529 0.396078 0.137255
0.286275 0.396078 0.137255
0.352941 0.396078 0.137255
0.396078 0.376471 0.137255
