pkg/planetgen/color/luts/lava_world.cube
TITLE "lava_world archetype LUT"
LUT_3D_SIZE 6
0.000000 0.000000 0.000000
0.168627 0.000000 0.054902
0.341176 0.000000 0.113725
0.509804 0.000000 0.168627
0.678431 0.000000 0.227451
0.850980 0.000000 0.282353
0.054902 0.168627 0.000000
0.168627 0.113725 0.000000
0.341176 0.054902 0.000000
0.509804 0.000000 0.000000
0.678431 0.000000 0.054902
0.850980 0.000000 0.113725
0.113725 0.341176 0.000000
0.282353 0.341176 0.000000
0.341176 0.227451 0.000000
0.509804 0.168627 0.000000
0.678431 0.113725 0.000000
0.850980 0.054902 0.000000
0.168627 0.509804 0.000000
0.341176 0.509804 0.000000
0.509804 0.509804 0.000000
0.509804 0.341176 0.000000
0.678431 0.282353 0.000000
0.850980 0.227451 0.000000
0.227451 0.678431 0.000000
0.396078 0.678431 0.000000
0.568627 0.678431 0.000000
0.678431 0.623529 0.000000
0.678431 0.454902 0.000000
0.850980 0.396078 0.000000
0.282353 0.850980 0.000000
0.454902 0.850980 0.000000
0.623529 0.850980 0.000000
0.792157 0.850980 0.000000
0.850980 0.737255 0.000000
0.850980 0.568627 0.000000
0.000000 0.054902 0.168627
0.113725 0.000000 0.168627
0.341176 0.000000 0.282353
0.509804 0.000000 0.341176
0.678431 0.000000 0.396078
0.850980 0.000000 0.454902
0.000000 0.168627 0.113725
0.168627 0.168627 0.168627
0.341176 0.145098 0.207843
0.509804 0.117647 0.250980
0.678431 0.094118 0.290196
0.850980 0.066667 0.329412
0.000000 0.341176 0.054902
0.207843 0.341176 0.145098
0.341176 0.274510 0.145098
0.509804 0.184314 0.117647
0.678431 0.094118 0.094118
0.850980 0.066667 0.133333
0.000000 0.509804 0.000000
0.250980 0.509804 0.117647
0.443137 0.509804 0.117647
0.509804 0.380392 0.117647
0.678431 0.290196 0.094118
0.850980 0.200000 0.066667
0.054902 0.678431 0.000000
0.290196 0.678431 0.094118
0.486275 0.678431 0.094118
0.678431 0.678431 0.094118
0.678431 0.486275 0.094118
0.850980 0.392157 0.066667
0.113725 0.850980 0.000000
0.329412 0.850980 0.066667
0.525490 0.850980 0.066667
0.721569 0.850980 0.066667
0.850980 0.784314 0.066667
0.850980 0.588235 0.066667
0.000000 0.113725 0.341176
0.054902 0.000000 0.341176
0.227451 0.000000 0.341176
0.509804 0.000000 0.509804
0.678431 0.000000 0.564706
0.850980 0.000000 0.623529
0.000000 0.282353 0.341176
0.145098 0.207843 0.341176
0.274510 0.145098 0.341176
0.509804 0.117647 0.443137
0.678431 0.094118 0.486275
0.850980 0.066667 0.525490
0.000000 0.341176 0.227451
0.145098 0.341176 0.274510
0.341176 0.341176 0.341176
0.509804 0.313725 0.380392
0.678431 0.290196 0.419608
0.850980 0.262745 0.458824
0.000000 0.509804 0.168627
0.117647 0.509804 0.184314
0.380392 0.509804 0.313725
0.509804 0.443137 0.313725
0.678431 0.352941 0.290196
0.850980 0.262745 0.262745
0.000000 0.678431 0.113725
0.094118 0.678431 0.094118
0.419608 0.678431 0.290196
0.615686 0.678431 0.290196
0.678431 0.549020 0.290196
0.850980 0.458824 0.262745
0.000000 0.850980 0.054902
0.133333 0.850980 0.066667
0.458824 0.850980 0.262745
0.654902 0.850980 0.262745
0.850980 0.850980 0.262745
0.850980 0.654902 0.262745
0.000000 0.168627 0.509804
0.000000 0.000000 0.509804
0.168627 0.000000 0.509804
0.341176 0.000000 0.509804
0.623529 0.000000 0.678431
0.850980 0.000000 0.792157
0.000000 0.341176 0.509804
0.117647 0.250980 0.509804
0.184314 0.117647 0.509804
0.380392 0.117647 0.509804
0.678431 0.094118 0.678431
0.850980 0.066667 0.721569
0.000000 0.509804 0.509804
0.117647 0.443137 0.509804
0.313725 0.380392 0.509804
0.443137 0.313725 0.509804
0.678431 0.290196 0.615686
0.850980 0.262745 0.654902
0.000000 0.509804 0.341176
0.117647 0.509804 0.380392
0.313725 0.509804 0.443137
0.509804 0.509804 0.509804
0.678431 0.486275 0.549020
0.850980 0.458824 0.588235
0.000000 0.678431 0.282353
0.094118 0.678431 0.290196
0.290196 0.678431 0.352941
0.549020 0.678431 0.486275
0.678431 0.615686 0.486275
0.850980 0.525490 0.458824
0.000000 0.850980 0.227451
0.066667 0.850980 0.200000
0.262745 0.850980 0.262745
0.588235 0.850980 0.458824
0.784314 0.850980 0.458824
0.850980 0.721569 0.458824
0.000000 0.227451 0.678431
0.000000 0.054902 0.678431
0.113725 0.000000 0.678431
0.282353 0.000000 0.678431
0.454902 0.000000 0.678431
0.737255 0.000000 0.850980
0.000000 0.396078 0.678431
0.094118 0.290196 0.678431
0.094118 0.094118 0.678431
0.290196 0.094118 0.678431
0.486275 0.094118 0.678431
0.784314 0.066667 0.850980
0.000000 0.568627 0.678431
0.094118 0.486275 0.678431
0.290196 0.419608 0.678431
0.352941 0.290196 0.678431
0.549020 0.290196 0.678431
0.850980 0.262745 0.850980
0.000000 0.678431 0.623529
0.094118 0.678431 0.678431
0.290196 0.615686 0.678431
0.486275 0.549020 0.678431
0.615686 0.486275 0.678431
0.850980 0.458824 0.784314
0.000000 0.678431 0.454902
0.094118 0.678431 0.486275
0.290196 0.678431 0.549020
0.486275 0.678431 0.615686
0.678431 0.678431 0.678431
0.850980 0.654902 0.721569
0.000000 0.850980 0.396078
0.066667 0.850980 0.392157
0.262745 0.850980 0.458824
0.458824 0.850980 0.525490
0.721569 0.850980 0.654902
0.850980 0.784314 0.654902
0.000000 0.282353 0.850980
0.000000 0.113725 0.850980
0.054902 0.000000 0.850980
0.227451 0.000000 0.850980
0.396078 0.000000 0.850980
0.568627 0.000000 0.850980
0.000000 0.454902 0.850980
0.066667 0.329412 0.850980
0.066667 0.133333 0.850980
0.200000 0.066667 0.850980
0.392157 0.066667 0.850980
0.588235 0.066667 0.850980
0.000000 0.623529 0.850980
0.066667 0.525490 0.850980
0.262745 0.458824 0.850980
0.262745 0.262745 0.850980
0.458824 0.262745 0.850980
0.654902 0.262745 0.850980
0.000000 0.792157 0.850980
0.066667 0.721569 0.850980
0.262745 0.654902 0.850980
0.458824 0.588235 0.850980
0.525490 0.458824 0.850980
0.721569 0.458824 0.850980
0.000000 0.850980 0.737255
0.066667 0.850980 0.784314
0.262745 0.850980 0.850980
0.458824 0.784314 0.850980
0.654902 0.721569 0.850980
0.784314 0.654902 0.850980
0.000000 0.850980 0.564706
0.066667 0.850980 0.588235
0.262745 0.850980 0.654902
0.458824 0.850980 0.721569
0.654902 0.850980 0.784314
0.850980 0.850980 0.850980
