pkg/planetgen/color/luts/oceanic.cube
TITLE "oceanic archetype LUT"
LUT_3D_SIZE 6
0.000000 0.000000 0.000000
0.200000 0.015686 0.000000
0.400000 0.035294 0.000000
0.600000 0.050980 0.000000
0.800000 0.066667 0.000000
1.000000 0.082353 0.000000
0.000000 0.200000 0.015686
0.184314 0.200000 0.000000
0.400000 0.235294 0.000000
0.600000 0.250980 0.000000
0.800000 0.266667 0.000000
1.000000 0.282353 0.000000
0.000000 0.400000 0.035294
0.168627 0.400000 0.000000
0.368627 0.400000 0.000000
0.600000 0.450980 0.000000
0.800000 0.466667 0.000000
1.000000 0.482353 0.000000
0.000000 0.600000 0.050980
0.149020 0.600000 0.000000
0.349020 0.600000 0.000000
0.549020 0.600000 0.000000
0.800000 0.666667 0.000000
1.000000 0.682353 0.000000
0.000000 0.800000 0.066667
0.133333 0.800000 0.000000
0.333333 0.800000 0.000000
0.533333 0.800000 0.000000
0.733333 0.800000 0.000000
1.000000 0.882353 0.000000
0.000000 1.000000 0.082353
0.117647 1.000000 0.000000
0.317647 1.000000 0.000000
0.517647 1.000000 0.000000
0.717647 1.000000 0.000000
0.917647 1.000000 0.000000
0.015686 0.000000 0.200000
0.200000 0.000000 0.184314
0.400000 0.000000 0.168627
0.600000 0.000000 0.149020
0.800000 0.000000 0.133333
1.000000 0.000000 0.117647
0.000000 0.184314 0.200000
0.200000 0.200000 0.200000
0.400000 0.207843 0.188235
0.600000 0.215686 0.180392
0.800000 0.223529 0.168627
1.000000 0.231373 0.160784
0.000000 0.400000 0.235294
0.188235 0.400000 0.207843
0.384314 0.400000 0.188235
0.600000 0.423529 0.180392
0.800000 0.431373 0.168627
1.000000 0.439216 0.160784
0.000000 0.600000 0.250980
0.180392 0.600000 0.215686
0.356863 0.600000 0.180392
0.564706 0.600000 0.180392
0.800000 0.643137 0.168627
1.000000 0.650980 0.160784
0.000000 0.800000 0.266667
0.168627 0.800000 0.223529
0.329412 0.800000 0.168627
0.537255 0.800000 0.168627
0.749020 0.800000 0.168627
1.000000 0.858824 0.160784
0.000000 1.000000 0.282353
0.160784 1.000000 0.231373
0.301961 1.000000 0.160784
0.509804 1.000000 0.160784
0.721569 1.000000 0.160784
0.929412 1.000000 0.160784
0.031373 0.000000 0.400000
0.231373 0.000000 0.400000
0.400000 0.000000 0.368627
0.600000 0.000000 0.349020
0.800000 0.000000 0.333333
1.000000 0.000000 0.317647
0.000000 0.164706 0.400000
0.207843 0.188235 0.400000
0.400000 0.188235 0.384314
0.600000 0.180392 0.356863
0.800000 0.168627 0.329412
1.000000 0.160784 0.301961
0.000000 0.368627 0.400000
0.188235 0.384314 0.400000
0.400000 0.400000 0.400000
0.600000 0.407843 0.388235
0.800000 0.415686 0.380392
1.000000 0.423529 0.368627
0.000000 0.600000 0.450980
0.180392 0.600000 0.423529
0.388235 0.600000 0.407843
0.584314 0.600000 0.388235
0.800000 0.623529 0.380392
1.000000 0.631373 0.368627
0.000000 0.800000 0.466667
0.168627 0.800000 0.431373
0.380392 0.800000 0.415686
0.556863 0.800000 0.380392
0.764706 0.800000 0.380392
1.000000 0.843137 0.368627
0.000000 1.000000 0.482353
0.160784 1.000000 0.439216
0.368627 1.000000 0.423529
0.529412 1.000000 0.368627
0.737255 1.000000 0.368627
0.949020 1.000000 0.368627
0.050980 0.000000 0.600000
0.250980 0.000000 0.600000
0.450980 0.000000 0.600000
0.600000 0.000000 0.549020
0.800000 0.000000 0.533333
1.000000 0.000000 0.517647
0.000000 0.149020 0.600000
0.215686 0.180392 0.600000
0.423529 0.180392 0.600000
0.600000 0.180392 0.564706
0.800000 0.168627 0.537255
1.000000 0.160784 0.509804
0.000000 0.349020 0.600000
0.180392 0.356863 0.600000
0.407843 0.388235 0.600000
0.600000 0.388235 0.584314
0.800000 0.380392 0.556863
1.000000 0.368627 0.529412
0.000000 0.549020 0.600000
0.180392 0.564706 0.600000
0.388235 0.584314 0.600000
0.600000 0.600000 0.600000
0.800000 0.607843 0.588235
1.000000 0.615686 0.580392
0.000000 0.800000 0.666667
0.168627 0.800000 0.643137
0.380392 0.800000 0.623529
0.588235 0.800000 0.607843
0.784314 0.800000 0.588235
1.000000 0.823529 0.580392
0.000000 1.000000 0.682353
0.160784 1.000000 0.650980
0.368627 1.000000 0.631373
0.580392 1.000000 0.615686
0.756863 1.000000 0.580392
0.964706 1.000000 0.580392
0.066667 0.000000 0.800000
0.266667 0.000000 0.800000
0.466667 0.000000 0.800000
0.666667 0.000000 0.800000
0.800000 0.000000 0.733333
1.000000 0.000000 0.717647
0.000000 0.133333 0.800000
0.223529 0.168627 0.800000
0.431373 0.168627 0.800000
0.643137 0.168627 0.800000
0.800000 0.168627 0.749020
1.000000 0.160784 0.721569
0.000000 0.333333 0.800000
0.168627 0.329412 0.800000
0.415686 0.380392 0.800000
0.623529 0.380392 0.800000
0.800000 0.380392 0.764706
1.000000 0.368627 0.737255
0.000000 0.533333 0.800000
0.168627 0.537255 0.800000
0.380392 0.556863 0.800000
0.607843 0.588235 0.800000
0.800000 0.588235 0.784314
1.000000 0.580392 0.756863
0.000000 0.733333 0.800000
0.168627 0.749020 0.800000
0.380392 0.764706 0.800000
0.588235 0.784314 0.800000
0.800000 0.800000 0.800000
1.000000 0.807843 0.788235
0.000000 1.000000 0.882353
0.160784 1.000000 0.858824
0.368627 1.000000 0.843137
0.580392 1.000000 0.823529
0.788235 1.000000 0.807843
0.984314 1.000000 0.788235
0.082353 0.000000 1.000000
0.282353 0.000000 1.000000
0.482353 0.000000 1.000000
0.682353 0.000000 1.000000
0.882353 0.000000 1.000000
1.000000 0.000000 0.917647
0.000000 0.117647 1.000000
0.231373 0.160784 1.000000
0.439216 0.160784 1.000000
0.650980 0.160784 1.000000
0.858824 0.160784 1.000000
1.000000 0.160784 0.929412
0.000000 0.317647 1.000000
0.160784 0.298039 1.000000
0.423529 0.368627 1.000000
0.631373 0.368627 1.000000
0.843137 0.368627 1.000000
1.000000 0.368627 0.949020
0.000000 0.517647 1.000000
0.160784 0.509804 1.000000
0.368627 0.529412 1.000000
0.615686 0.580392 1.000000
0.823529 0.580392 1.000000
1.000000 0.580392 0.964706
0.000000 0.717647 1.000000
0.160784 0.721569 1.000000
0.368627 0.737255 1.000000
0.580392 0.756863 1.000000
0.807843 0.788235 1.000000
1.000000 0.788235 0.984314
0.000000 0.917647 1.000000
0.160784 0.929412 1.000000
0.368627 0.949020 1.000000
0.580392 0.964706 1.000000
0.788235 0.984314 1.000000
1.000000 1.000000 1.000000
