pkg/planetgen/color/luts/oceanic.cube
TITLE "oceanic archetype LUT"
LUT_3D_SIZE 16
0.000000 0.000000 0.000000
0.066667 0.003922 0.000000
0.133333 0.011765 0.000000
0.200000 0.015686 0.000000
0.266667 0.023529 0.000000
0.333333 0.027451 0.000000
0.400000 0.035294 0.000000
0.466667 0.039216 0.000000
0.533333 0.043137 0.000000
0.600000 0.050980 0.000000
0.666667 0.054902 0.000000
0.733333 0.062745 0.000000
0.800000 0.066667 0.000000
0.866667 0.070588 0.000000
0.933333 0.078431 0.000000
1.000000 0.082353 0.000000
0.000000 0.066667 0.003922
0.062745 0.066667 0.000000
0.133333 0.078431 0.000000
0.200000 0.082353 0.000000
0.266667 0.090196 0.000000
0.333333 0.094118 0.000000
0.400000 0.101961 0.000000
0.466667 0.105882 0.000000
0.533333 0.109804 0.000000
0.600000 0.117647 0.000000
0.666667 0.121569 0.000000
0.733333 0.129412 0.000000
0.800000 0.133333 0.000000
0.866667 0.137255 0.000000
0.933333 0.145098 0.000000
1.000000 0.149020 0.000000
0.000000 0.133333 0.011765
0.054902 0.133333 0.000000
0.121569 0.133333 0.000000
0.200000 0.149020 0.000000
0.266667 0.156863 0.000000
0.333333 0.160784 0.000000
0.400000 0.168627 0.000000
0.466667 0.172549 0.000000
0.533333 0.176471 0.000000
0.600000 0.184314 0.000000
0.666667 0.188235 0.000000
0.733333 0.196078 0.000000
0.800000 0.200000 0.000000
0.866667 0.203922 0.000000
0.933333 0.211765 0.000000
1.000000 0.215686 0.000000
0.000000 0.200000 0.015686
0.050980 0.200000 0.000000
0.117647 0.200000 0.000000
0.184314 0.200000 0.000000
0.266667 0.223529 0.000000
0.333333 0.227451 0.000000
0.400000 0.235294 0.000000
0.466667 0.239216 0.000000
0.533333 0.243137 0.000000
0.600000 0.250980 0.000000
0.666667 0.254902 0.000000
0.733333 0.262745 0.000000
0.800000 0.266667 0.000000
0.866667 0.270588 0.000000
0.933333 0.278431 0.000000
1.000000 0.282353 0.000000
0.000000 0.266667 0.023529
0.043137 0.266667 0.000000
0.109804 0.266667 0.000000
0.176471 0.266667 0.000000
0.243137 0.266667 0.000000
0.333333 0.294118 0.000000
0.400000 0.301961 0.000000
0.466667 0.305882 0.000000
0.533333 0.309804 0.000000
0.600000 0.317647 0.000000
0.666667 0.321569 0.000000
0.733333 0.329412 0.000000
0.800000 0.333333 0.000000
0.866667 0.337255 0.000000
0.933333 0.345098 0.000000
1.000000 0.349020 0.000000
0.000000 0.333333 0.027451
0.039216 0.333333 0.000000
0.105882 0.333333 0.000000
0.172549 0.333333 0.000000
0.239216 0.333333 0.000000
0.305882 0.333333 0.000000
0.400000 0.368627 0.000000
0.466667 0.372549 0.000000
0.533333 0.376471 0.000000
0.600000 0.384314 0.000000
0.666667 0.388235 0.000000
0.733333 0.396078 0.000000
0.800000 0.400000 0.000000
0.866667 0.403922 0.000000
0.933333 0.411765 0.000000
1.000000 0.415686 0.000000
0.000000 0.400000 0.035294
0.031373 0.400000 0.000000
0.101961 0.400000 0.000000
0.168627 0.400000 0.000000
0.231373 0.400000 0.000000
0.301961 0.400000 0.000000
0.368627 0.400000 0.000000
0.466667 0.439216 0.000000
0.533333 0.443137 0.000000
0.600000 0.450980 0.000000
0.666667 0.454902 0.000000
0.733333 0.462745 0.000000
0.800000 0.466667 0.000000
0.866667 0.470588 0.000000
0.933333 0.478431 0.000000
1.000000 0.482353 0.000000
0.000000 0.466667 0.039216
0.027451 0.466667 0.000000
0.094118 0.466667 0.000000
0.160784 0.466667 0.000000
0.227451 0.466667 0.000000
0.294118 0.466667 0.000000
0.360784 0.466667 0.000000
0.427451 0.466667 0.000000
0.533333 0.509804 0.000000
0.600000 0.517647 0.000000
0.666667 0.521569 0.000000
0.733333 0.529412 0.000000
0.800000 0.533333 0.000000
0.866667 0.537255 0.000000
0.933333 0.545098 0.000000
1.000000 0.549020 0.000000
0.000000 0.533333 0.043137
0.023529 0.533333 0.000000
0.090196 0.533333 0.000000
0.156863 0.533333 0.000000
0.223529 0.533333 0.000000
0.290196 0.533333 0.000000
0.356863 0.533333 0.000000
0.423529 0.533333 0.000000
0.490196 0.533333 0.000000
0.600000 0.584314 0.000000
0.666667 0.588235 0.000000
0.733333 0.596078 0.000000
0.800000 0.600000 0.000000
0.866667 0.603922 0.000000
0.933333 0.611765 0.000000
1.000000 0.615686 0.000000
0.000000 0.600000 0.050980
0.015686 0.600000 0.000000
0.082353 0.600000 0.000000
0.149020 0.600000 0.000000
0.215686 0.600000 0.000000
0.282353 0.600000 0.000000
0.349020 0.600000 0.000000
0.415686 0.600000 0.000000
0.482353 0.600000 0.000000
0.549020 0.600000 0.000000
0.666667 0.654902 0.000000
0.733333 0.662745 0.000000
0.800000 0.666667 0.000000
0.866667 0.670588 0.000000
0.933333 0.678431 0.000000
1.000000 0.682353 0.000000
0.000000 0.666667 0.054902
0.011765 0.666667 0.000000
0.078431 0.666667 0.000000
0.145098 0.666667 0.000000
0.211765 0.666667 0.000000
0.278431 0.666667 0.000000
0.345098 0.666667 0.000000
0.411765 0.666667 0.000000
0.478431 0.666667 0.000000
0.545098 0.666667 0.000000
0.611765 0.666667 0.000000
0.733333 0.729412 0.000000
0.800000 0.733333 0.000000
0.866667 0.737255 0.000000
0.933333 0.745098 0.000000
1.000000 0.749020 0.000000
0.000000 0.733333 0.062745
0.003922 0.733333 0.000000
0.070588 0.733333 0.000000
0.137255 0.733333 0.000000
0.203922 0.733333 0.000000
0.270588 0.733333 0.000000
0.337255 0.733333 0.000000
0.403922 0.733333 0.000000
0.470588 0.733333 0.000000
0.537255 0.733333 0.000000
0.603922 0.733333 0.000000
0.670588 0.733333 0.000000
0.800000 0.800000 0.000000
0.866667 0.803922 0.000000
0.933333 0.811765 0.000000
1.000000 0.815686 0.000000
0.000000 0.800000 0.066667
0.000000 0.800000 0.000000
0.066667 0.800000 0.000000
0.133333 0.800000 0.000000
0.200000 0.800000 0.000000
0.266667 0.800000 0.000000
0.333333 0.800000 0.000000
0.400000 0.800000 0.000000
0.466667 0.800000 0.000000
0.533333 0.800000 0.000000
0.600000 0.800000 0.000000
0.666667 0.800000 0.000000
0.733333 0.800000 0.000000
0.862745 0.866667 0.000000
0.933333 0.878431 0.000000
1.000000 0.882353 0.000000
0.000000 0.866667 0.070588
0.000000 0.866667 0.003922
0.062745 0.866667 0.000000
0.129412 0.866667 0.000000
0.196078 0.866667 0.000000
0.262745 0.866667 0.000000
0.329412 0.866667 0.000000
0.396078 0.866667 0.000000
0.462745 0.866667 0.000000
0.529412 0.866667 0.000000
0.596078 0.866667 0.000000
0.662745 0.866667 0.000000
0.729412 0.866667 0.000000
0.796078 0.866667 0.000000
0.921569 0.933333 0.000000
1.000000 0.949020 0.000000
0.000000 0.933333 0.078431
0.000000 0.933333 0.011765
0.054902 0.933333 0.000000
0.121569 0.933333 0.000000
0.188235 0.933333 0.000000
0.254902 0.933333 0.000000
0.321569 0.933333 0.000000
0.388235 0.933333 0.000000
0.454902 0.933333 0.000000
0.521569 0.933333 0.000000
0.588235 0.933333 0.000000
0.654902 0.933333 0.000000
0.721569 0.933333 0.000000
0.788235 0.933333 0.000000
0.854902 0.933333 0.000000
0.984314 1.000000 0.000000
0.000000 1.000000 0.082353
0.000000 1.000000 0.015686
0.050980 1.000000 0.000000
0.117647 1.000000 0.000000
0.184314 1.000000 0.000000
0.250980 1.000000 0.000000
0.317647 1.000000 0.000000
0.384314 1.000000 0.000000
0.450980 1.000000 0.000000
0.517647 1.000000 0.000000
0.584314 1.000000 0.000000
0.650980 1.000000 0.000000
0.717647 1.000000 0.000000
0.784314 1.000000 0.000000
0.850980 1.000000 0.000000
0.917647 1.000000 0.000000
0.003922 0.000000 0.066667
0.066667 0.000000 0.062745
0.133333 0.000000 0.054902
0.200000 0.000000 0.050980
0.266667 0.000000 0.043137
0.333333 0.000000 0.039216
0.400000 0.000000 0.031373
0.466667 0.000000 0.027451
0.533333 0.000000 0.023529
0.600000 0.000000 0.015686
0.666667 0.000000 0.011765
0.733333 0.000000 0.003922
0.800000 0.000000 0.000000
0.866667 0.003922 0.000000
0.933333 0.011765 0.000000
1.000000 0.015686 0.000000
0.000000 0.062745 0.066667
0.066667 0.066667 0.066667
0.133333 0.070588 0.062745
0.200000 0.070588 0.058824
0.266667 0.074510 0.054902
0.333333 0.078431 0.054902
0.400000 0.078431 0.050980
0.466667 0.082353 0.047059
0.533333 0.082353 0.043137
0.600000 0.086275 0.039216
0.666667 0.090196 0.035294
0.733333 0.090196 0.031373
0.800000 0.094118 0.031373
0.866667 0.098039 0.027451
0.933333 0.098039 0.023529
1.000000 0.101961 0.019608
0.000000 0.133333 0.078431
0.062745 0.133333 0.070588
0.129412 0.133333 0.062745
0.200000 0.141176 0.058824
0.266667 0.145098 0.054902
0.333333 0.145098 0.054902
0.400000 0.149020 0.050980
0.466667 0.152941 0.047059
0.533333 0.152941 0.043137
0.600000 0.156863 0.039216
0.666667 0.160784 0.035294
0.733333 0.160784 0.031373
0.800000 0.164706 0.031373
0.866667 0.164706 0.027451
0.933333 0.168627 0.023529
1.000000 0.172549 0.019608
0.000000 0.200000 0.082353
0.058824 0.200000 0.070588
0.117647 0.200000 0.058824
0.188235 0.200000 0.058824
0.266667 0.215686 0.054902
0.333333 0.215686 0.054902
0.400000 0.219608 0.050980
0.466667 0.223529 0.047059
0.533333 0.223529 0.043137
0.600000 0.227451 0.039216
0.666667 0.227451 0.035294
0.733333 0.231373 0.031373
0.800000 0.235294 0.031373
0.866667 0.235294 0.027451
0.933333 0.239216 0.023529
1.000000 0.243137 0.019608
0.000000 0.266667 0.090196
0.054902 0.266667 0.074510
0.109804 0.266667 0.054902
0.180392 0.266667 0.054902
0.250980 0.266667 0.054902
0.333333 0.286275 0.054902
0.400000 0.290196 0.050980
0.466667 0.290196 0.047059
0.533333 0.294118 0.043137
0.600000 0.298039 0.039216
0.666667 0.298039 0.035294
0.733333 0.301961 0.031373
0.800000 0.305882 0.031373
0.866667 0.305882 0.027451
0.933333 0.309804 0.023529
1.000000 0.309804 0.019608
0.000000 0.333333 0.094118
0.054902 0.333333 0.078431
0.098039 0.333333 0.054902
0.168627 0.333333 0.054902
0.239216 0.333333 0.054902
0.309804 0.333333 0.054902
0.400000 0.360784 0.050980
0.466667 0.360784 0.047059
0.533333 0.364706 0.043137
0.600000 0.368627 0.039216
0.666667 0.368627 0.035294
0.733333 0.372549 0.031373
0.800000 0.372549 0.031373
0.866667 0.376471 0.027451
0.933333 0.380392 0.023529
1.000000 0.380392 0.019608
0.000000 0.400000 0.101961
0.050980 0.400000 0.078431
0.090196 0.400000 0.050980
0.160784 0.400000 0.050980
0.231373 0.400000 0.050980
0.301961 0.400000 0.050980
0.372549 0.400000 0.050980
0.466667 0.431373 0.047059
0.533333 0.435294 0.043137
0.600000 0.435294 0.039216
0.666667 0.439216 0.035294
0.733333 0.443137 0.031373
0.800000 0.443137 0.031373
0.866667 0.447059 0.027451
0.933333 0.450980 0.023529
1.000000 0.450980 0.019608
0.000000 0.466667 0.105882
0.047059 0.466667 0.082353
0.082353 0.466667 0.047059
0.152941 0.466667 0.047059
0.223529 0.466667 0.047059
0.290196 0.466667 0.047059
0.360784 0.466667 0.047059
0.431373 0.466667 0.047059
0.533333 0.505882 0.043137
0.600000 0.505882 0.039216
0.666667 0.509804 0.035294
0.733333 0.509804 0.031373
0.800000 0.513725 0.031373
0.866667 0.517647 0.027451
0.933333 0.517647 0.023529
1.000000 0.521569 0.019608
0.000000 0.533333 0.109804
0.043137 0.533333 0.082353
0.070588 0.533333 0.043137
0.141176 0.533333 0.043137
0.211765 0.533333 0.043137
0.282353 0.533333 0.043137
0.352941 0.533333 0.043137
0.423529 0.533333 0.043137
0.494118 0.533333 0.043137
0.600000 0.576471 0.039216
0.666667 0.580392 0.035294
0.733333 0.580392 0.031373
0.800000 0.584314 0.031373
0.866667 0.588235 0.027451
0.933333 0.588235 0.023529
1.000000 0.592157 0.019608
0.000000 0.600000 0.117647
0.039216 0.600000 0.086275
0.062745 0.600000 0.039216
0.133333 0.600000 0.039216
0.203922 0.600000 0.039216
0.274510 0.600000 0.039216
0.345098 0.600000 0.039216
0.411765 0.600000 0.039216
0.482353 0.600000 0.039216
0.552941 0.600000 0.039216
0.666667 0.650980 0.035294
0.733333 0.650980 0.031373
0.800000 0.654902 0.031373
0.866667 0.654902 0.027451
0.933333 0.658824 0.023529
1.000000 0.662745 0.019608
0.000000 0.666667 0.121569
0.035294 0.666667 0.090196
0.054902 0.666667 0.035294
0.125490 0.666667 0.035294
0.196078 0.666667 0.035294
0.262745 0.666667 0.035294
0.333333 0.666667 0.035294
0.403922 0.666667 0.035294
0.474510 0.666667 0.035294
0.545098 0.666667 0.035294
0.615686 0.666667 0.035294
0.733333 0.721569 0.031373
0.800000 0.725490 0.031373
0.866667 0.725490 0.027451
0.933333 0.729412 0.023529
1.000000 0.733333 0.019608
0.000000 0.733333 0.129412
0.031373 0.733333 0.090196
0.043137 0.733333 0.031373
0.113725 0.733333 0.031373
0.184314 0.733333 0.031373
0.254902 0.733333 0.031373
0.325490 0.733333 0.031373
0.396078 0.733333 0.031373
0.466667 0.733333 0.031373
0.533333 0.733333 0.031373
0.603922 0.733333 0.031373
0.674510 0.733333 0.031373
0.800000 0.796078 0.031373
0.866667 0.796078 0.027451
0.933333 0.800000 0.023529
1.000000 0.800000 0.019608
0.000000 0.800000 0.133333
0.031373 0.800000 0.094118
0.035294 0.800000 0.031373
0.105882 0.800000 0.031373
0.176471 0.800000 0.031373
0.247059 0.800000 0.031373
0.317647 0.800000 0.031373
0.384314 0.800000 0.031373
0.454902 0.800000 0.031373
0.525490 0.800000 0.031373
0.596078 0.800000 0.031373
0.666667 0.800000 0.031373
0.737255 0.800000 0.031373
0.866667 0.866667 0.027451
0.933333 0.870588 0.023529
1.000000 0.870588 0.019608
0.000000 0.866667 0.137255
0.027451 0.866667 0.098039
0.027451 0.866667 0.027451
0.098039 0.866667 0.027451
0.168627 0.866667 0.027451
0.235294 0.866667 0.027451
0.305882 0.866667 0.027451
0.376471 0.866667 0.027451
0.447059 0.866667 0.027451
0.517647 0.866667 0.027451
0.588235 0.866667 0.027451
0.654902 0.866667 0.027451
0.725490 0.866667 0.027451
0.796078 0.866667 0.027451
0.929412 0.933333 0.023529
1.000000 0.941176 0.019608
0.000000 0.933333 0.145098
0.023529 0.933333 0.098039
0.023529 0.933333 0.027451
0.086275 0.933333 0.023529
0.156863 0.933333 0.023529
0.227451 0.933333 0.023529
0.298039 0.933333 0.023529
0.368627 0.933333 0.023529
0.439216 0.933333 0.023529
0.505882 0.933333 0.023529
0.576471 0.933333 0.023529
0.647059 0.933333 0.023529
0.717647 0.933333 0.023529
0.788235 0.933333 0.023529
0.858824 0.933333 0.023529
0.988235 1.000000 0.019608
0.000000 1.000000 0.149020
0.019608 1.000000 0.101961
0.019608 1.000000 0.031373
0.078431 1.000000 0.019608
0.149020 1.000000 0.019608
0.219608 1.000000 0.019608
0.290196 1.000000 0.019608
0.356863 1.000000 0.019608
0.427451 1.000000 0.019608
0.498039 1.000000 0.019608
0.568627 1.000000 0.019608
0.639216 1.000000 0.019608
0.709804 1.000000 0.019608
0.776471 1.000000 0.019608
0.847059 1.000000 0.019608
0.917647 1.000000 0.019608
0.011765 0.000000 0.133333
0.078431 0.000000 0.133333
0.133333 0.000000 0.121569
0.200000 0.000000 0.117647
0.266667 0.000000 0.109804
0.333333 0.000000 0.105882
0.400000 0.000000 0.101961
0.466667 0.000000 0.094118
0.533333 0.000000 0.090196
0.600000 0.000000 0.082353
0.666667 0.000000 0.078431
0.733333 0.000000 0.070588
0.800000 0.000000 0.066667
0.866667 0.000000 0.062745
0.933333 0.000000 0.054902
1.000000 0.000000 0.050980
0.000000 0.054902 0.133333
0.070588 0.062745 0.133333
0.133333 0.062745 0.129412
0.200000 0.058824 0.117647
0.266667 0.054902 0.109804
0.333333 0.054902 0.101961
0.400000 0.050980 0.090196
0.466667 0.047059 0.082353
0.533333 0.043137 0.070588
0.600000 0.039216 0.062745
0.666667 0.035294 0.054902
0.733333 0.031373 0.043137
0.800000 0.031373 0.035294
0.866667 0.027451 0.027451
0.933333 0.027451 0.023529
1.000000 0.031373 0.019608
0.000000 0.121569 0.133333
0.062745 0.129412 0.133333
0.133333 0.133333 0.133333
0.200000 0.137255 0.129412
0.266667 0.137255 0.125490
0.333333 0.141176 0.121569
0.400000 0.145098 0.121569
0.466667 0.145098 0.117647
0.533333 0.149020 0.113725
0.600000 0.149020 0.109804
0.666667 0.152941 0.105882
0.733333 0.156863 0.101961
0.800000 0.156863 0.098039
0.866667 0.160784 0.098039
0.933333 0.164706 0.094118
1.000000 0.164706 0.090196
0.000000 0.200000 0.149020
0.058824 0.200000 0.141176
0.129412 0.200000 0.137255
0.196078 0.200000 0.129412
0.266667 0.207843 0.125490
0.333333 0.211765 0.121569
0.400000 0.211765 0.121569
0.466667 0.215686 0.117647
0.533333 0.219608 0.113725
0.600000 0.219608 0.109804
0.666667 0.223529 0.105882
0.733333 0.227451 0.101961
0.800000 0.227451 0.098039
0.866667 0.231373 0.098039
0.933333 0.231373 0.094118
1.000000 0.235294 0.090196
0.000000 0.266667 0.156863
0.054902 0.266667 0.145098
0.125490 0.266667 0.137255
0.184314 0.266667 0.125490
0.254902 0.266667 0.125490
0.333333 0.282353 0.121569
0.400000 0.282353 0.121569
0.466667 0.286275 0.117647
0.533333 0.290196 0.113725
0.600000 0.290196 0.109804
0.666667 0.294118 0.105882
0.733333 0.294118 0.101961
0.800000 0.298039 0.098039
0.866667 0.301961 0.098039
0.933333 0.301961 0.094118
1.000000 0.305882 0.090196
0.000000 0.333333 0.160784
0.054902 0.333333 0.145098
0.121569 0.333333 0.141176
0.176471 0.333333 0.121569
0.247059 0.333333 0.121569
0.317647 0.333333 0.121569
0.400000 0.352941 0.121569
0.466667 0.356863 0.117647
0.533333 0.356863 0.113725
0.600000 0.360784 0.109804
0.666667 0.364706 0.105882
0.733333 0.364706 0.101961
0.800000 0.368627 0.098039
0.866667 0.372549 0.098039
0.933333 0.372549 0.094118
1.000000 0.376471 0.090196
0.000000 0.400000 0.164706
0.050980 0.400000 0.149020
0.121569 0.400000 0.145098
0.168627 0.400000 0.121569
0.235294 0.400000 0.121569
0.305882 0.400000 0.121569
0.376471 0.400000 0.121569
0.466667 0.427451 0.117647
0.533333 0.427451 0.113725
0.600000 0.431373 0.109804
0.666667 0.431373 0.105882
0.733333 0.435294 0.101961
0.800000 0.439216 0.098039
0.866667 0.439216 0.098039
0.933333 0.443137 0.094118
1.000000 0.447059 0.090196
0.000000 0.466667 0.172549
0.047059 0.466667 0.152941
0.117647 0.466667 0.145098
0.156863 0.466667 0.117647
0.227451 0.466667 0.117647
0.298039 0.466667 0.117647
0.368627 0.466667 0.117647
0.439216 0.466667 0.117647
0.533333 0.498039 0.113725
0.600000 0.501961 0.109804
0.666667 0.501961 0.105882
0.733333 0.505882 0.101961
0.800000 0.509804 0.098039
0.866667 0.509804 0.098039
0.933333 0.513725 0.094118
1.000000 0.517647 0.090196
0.000000 0.533333 0.176471
0.043137 0.533333 0.152941
0.113725 0.533333 0.149020
0.149020 0.533333 0.113725
0.219608 0.533333 0.113725
0.290196 0.533333 0.113725
0.356863 0.533333 0.113725
0.427451 0.533333 0.113725
0.498039 0.533333 0.113725
0.600000 0.572549 0.109804
0.666667 0.572549 0.105882
0.733333 0.576471 0.101961
0.800000 0.576471 0.098039
0.866667 0.580392 0.098039
0.933333 0.584314 0.094118
1.000000 0.584314 0.090196
0.000000 0.600000 0.184314
0.039216 0.600000 0.156863
0.109804 0.600000 0.149020
0.137255 0.600000 0.109804
0.207843 0.600000 0.109804
0.278431 0.600000 0.109804
0.349020 0.600000 0.109804
0.419608 0.600000 0.109804
0.490196 0.600000 0.109804
0.560784 0.600000 0.109804
0.666667 0.643137 0.105882
0.733333 0.647059 0.101961
0.800000 0.647059 0.098039
0.866667 0.650980 0.098039
0.933333 0.654902 0.094118
1.000000 0.654902 0.090196
0.000000 0.666667 0.188235
0.035294 0.666667 0.160784
0.105882 0.666667 0.152941
0.129412 0.666667 0.105882
0.200000 0.666667 0.105882
0.270588 0.666667 0.105882
0.341176 0.666667 0.105882
0.411765 0.666667 0.105882
0.478431 0.666667 0.105882
0.549020 0.666667 0.105882
0.619608 0.666667 0.105882
0.733333 0.717647 0.101961
0.800000 0.717647 0.098039
0.866667 0.721569 0.098039
0.933333 0.721569 0.094118
1.000000 0.725490 0.090196
0.000000 0.733333 0.196078
0.031373 0.733333 0.160784
0.101961 0.733333 0.156863
0.121569 0.733333 0.101961
0.192157 0.733333 0.101961
0.262745 0.733333 0.101961
0.329412 0.733333 0.101961
0.400000 0.733333 0.101961
0.470588 0.733333 0.101961
0.541176 0.733333 0.101961
0.611765 0.733333 0.101961
0.682353 0.733333 0.101961
0.800000 0.788235 0.098039
0.866667 0.792157 0.098039
0.933333 0.792157 0.094118
1.000000 0.796078 0.090196
0.000000 0.800000 0.200000
0.031373 0.800000 0.164706
0.098039 0.800000 0.156863
0.109804 0.800000 0.098039
0.180392 0.800000 0.098039
0.250980 0.800000 0.098039
0.321569 0.800000 0.098039
0.392157 0.800000 0.098039
0.462745 0.800000 0.098039
0.533333 0.800000 0.098039
0.600000 0.800000 0.098039
0.670588 0.800000 0.098039
0.741176 0.800000 0.098039
0.866667 0.862745 0.098039
0.933333 0.862745 0.094118
1.000000 0.866667 0.090196
0.000000 0.866667 0.203922
0.027451 0.866667 0.164706
0.098039 0.866667 0.160784
0.101961 0.866667 0.098039
0.172549 0.866667 0.098039
0.243137 0.866667 0.098039
0.313725 0.866667 0.098039
0.384314 0.866667 0.098039
0.450980 0.866667 0.098039
0.521569 0.866667 0.098039
0.592157 0.866667 0.098039
0.662745 0.866667 0.098039
0.733333 0.866667 0.098039
0.803922 0.866667 0.098039
0.933333 0.933333 0.094118
1.000000 0.937255 0.090196
0.000000 0.933333 0.211765
0.023529 0.933333 0.168627
0.094118 0.933333 0.164706
0.094118 0.933333 0.094118
0.164706 0.933333 0.094118
0.231373 0.933333 0.094118
0.301961 0.933333 0.094118
0.372549 0.933333 0.094118
0.443137 0.933333 0.094118
0.513725 0.933333 0.094118
0.584314 0.933333 0.094118
0.654902 0.933333 0.094118
0.721569 0.933333 0.094118
0.792157 0.933333 0.094118
0.862745 0.933333 0.094118
0.996078 1.000000 0.090196
0.000000 1.000000 0.215686
0.019608 1.000000 0.172549
0.090196 1.000000 0.164706
0.090196 1.000000 0.094118
0.152941 1.000000 0.090196
0.223529 1.000000 0.090196
0.294118 1.000000 0.090196
0.364706 1.000000 0.090196
0.435294 1.000000 0.090196
0.505882 1.000000 0.090196
0.572549 1.000000 0.090196
0.643137 1.000000 0.090196
0.713725 1.000000 0.090196
0.784314 1.000000 0.090196
0.854902 1.000000 0.090196
0.925490 1.000000 0.090196
0.015686 0.000000 0.200000
0.082353 0.000000 0.200000
0.149020 0.000000 0.200000
0.200000 0.000000 0.184314
0.266667 0.000000 0.176471
0.333333 0.000000 0.172549
0.400000 0.000000 0.168627
0.466667 0.000000 0.160784
0.533333 0.000000 0.156863
0.600000 0.000000 0.149020
0.666667 0.000000 0.145098
0.733333 0.000000 0.137255
0.800000 0.000000 0.133333
0.866667 0.000000 0.129412
0.933333 0.000000 0.121569
1.000000 0.000000 0.117647
0.000000 0.050980 0.200000
0.070588 0.058824 0.200000
0.141176 0.058824 0.200000
0.200000 0.058824 0.188235
0.266667 0.054902 0.180392
0.333333 0.054902 0.168627
0.400000 0.050980 0.160784
0.466667 0.047059 0.152941
0.533333 0.043137 0.141176
0.600000 0.039216 0.133333
0.666667 0.035294 0.125490
0.733333 0.031373 0.113725
0.800000 0.031373 0.105882
0.866667 0.027451 0.098039
0.933333 0.023529 0.086275
1.000000 0.019608 0.078431
0.000000 0.117647 0.200000
0.058824 0.117647 0.200000
0.137255 0.129412 0.200000
0.200000 0.129412 0.196078
0.266667 0.125490 0.184314
0.333333 0.121569 0.176471
0.400000 0.121569 0.168627
0.466667 0.117647 0.156863
0.533333 0.113725 0.149020
0.600000 0.109804 0.137255
0.666667 0.105882 0.129412
0.733333 0.101961 0.121569
0.800000 0.098039 0.109804
0.866667 0.098039 0.101961
0.933333 0.094118 0.094118
1.000000 0.094118 0.090196
0.000000 0.184314 0.200000
0.058824 0.188235 0.200000
0.129412 0.196078 0.200000
0.200000 0.200000 0.200000
0.266667 0.203922 0.196078
0.333333 0.203922 0.192157
0.400000 0.207843 0.188235
0.466667 0.211765 0.188235
0.533333 0.211765 0.184314
0.600000 0.215686 0.180392
0.666667 0.215686 0.176471
0.733333 0.219608 0.172549
0.800000 0.223529 0.168627
0.866667 0.223529 0.164706
0.933333 0.227451 0.164706
1.000000 0.231373 0.160784
0.000000 0.266667 0.223529
0.054902 0.266667 0.215686
0.125490 0.266667 0.207843
0.196078 0.266667 0.203922
0.262745 0.266667 0.196078
0.333333 0.274510 0.192157
0.400000 0.278431 0.188235
0.466667 0.278431 0.188235
0.533333 0.282353 0.184314
0.600000 0.286275 0.180392
0.666667 0.286275 0.176471
0.733333 0.290196 0.172549
0.800000 0.294118 0.168627
0.866667 0.294118 0.164706
0.933333 0.298039 0.164706
1.000000 0.298039 0.160784
0.000000 0.333333 0.227451
0.054902 0.333333 0.215686
0.121569 0.333333 0.211765
0.192157 0.333333 0.203922
0.250980 0.333333 0.192157
0.321569 0.333333 0.192157
0.400000 0.349020 0.188235
0.466667 0.349020 0.188235
0.533333 0.352941 0.184314
0.600000 0.356863 0.180392
0.666667 0.356863 0.176471
0.733333 0.360784 0.172549
0.800000 0.360784 0.168627
0.866667 0.364706 0.164706
0.933333 0.368627 0.164706
1.000000 0.368627 0.160784
0.000000 0.400000 0.235294
0.050980 0.400000 0.219608
0.121569 0.400000 0.211765
0.188235 0.400000 0.207843
0.243137 0.400000 0.188235
0.313725 0.400000 0.188235
0.384314 0.400000 0.188235
0.466667 0.419608 0.188235
0.533333 0.423529 0.184314
0.600000 0.423529 0.180392
0.666667 0.427451 0.176471
0.733333 0.431373 0.172549
0.800000 0.431373 0.168627
0.866667 0.435294 0.164706
0.933333 0.439216 0.164706
1.000000 0.439216 0.160784
0.000000 0.466667 0.239216
0.047059 0.466667 0.223529
0.117647 0.466667 0.215686
0.188235 0.466667 0.211765
0.235294 0.466667 0.188235
0.301961 0.466667 0.188235
0.372549 0.466667 0.188235
