pkg/planetgen/color/luts/scorched.cube
TITLE "scorched archetype LUT"
LUT_3D_SIZE 16
0.000000 0.000000 0.000000
0.062745 0.007843 0.015686
0.125490 0.019608 0.035294
0.188235 0.027451 0.050980
0.254902 0.039216 0.066667
0.317647 0.047059 0.082353
0.380392 0.058824 0.101961
0.443137 0.066667 0.117647
0.505882 0.074510 0.133333
0.568627 0.086275 0.149020
0.635294 0.094118 0.168627
0.698039 0.105882 0.184314
0.760784 0.113725 0.200000
0.823529 0.121569 0.215686
0.886275 0.133333 0.235294
0.949020 0.141176 0.250980
0.015686 0.062745 0.007843
0.062745 0.054902 0.007843
0.125490 0.058824 0.019608
0.188235 0.062745 0.027451
0.254902 0.062745 0.039216
0.317647 0.066667 0.047059
0.380392 0.066667 0.058824
0.443137 0.070588 0.066667
0.505882 0.074510 0.078431
0.568627 0.086275 0.098039
0.635294 0.094118 0.113725
0.698039 0.105882 0.129412
0.760784 0.113725 0.145098
0.823529 0.121569 0.164706
0.886275 0.133333 0.180392
0.949020 0.141176 0.196078
0.035294 0.125490 0.019608
0.086275 0.125490 0.019608
0.125490 0.113725 0.019608
0.188235 0.113725 0.027451
0.254902 0.117647 0.039216
0.317647 0.117647 0.047059
0.380392 0.121569 0.058824
0.443137 0.125490 0.066667
0.505882 0.125490 0.074510
0.568627 0.129412 0.086275
0.635294 0.129412 0.094118
0.698039 0.133333 0.105882
0.760784 0.137255 0.113725
0.823529 0.137255 0.121569
0.886275 0.141176 0.133333
0.949020 0.141176 0.141176
0.050980 0.188235 0.027451
0.101961 0.188235 0.027451
0.156863 0.188235 0.027451
0.188235 0.168627 0.027451
0.254902 0.172549 0.039216
0.317647 0.172549 0.047059
0.380392 0.176471 0.058824
0.443137 0.176471 0.066667
0.505882 0.180392 0.074510
0.568627 0.184314 0.086275
0.635294 0.184314 0.094118
0.698039 0.188235 0.105882
0.760784 0.188235 0.113725
0.823529 0.192157 0.121569
0.886275 0.192157 0.133333
0.949020 0.196078 0.141176
0.066667 0.254902 0.039216
0.121569 0.254902 0.039216
0.172549 0.254902 0.039216
0.227451 0.254902 0.039216
0.254902 0.223529 0.039216
0.317647 0.227451 0.047059
0.380392 0.227451 0.058824
0.443137 0.231373 0.066667
0.505882 0.235294 0.074510
0.568627 0.235294 0.086275
0.635294 0.239216 0.094118
0.698039 0.239216 0.105882
0.760784 0.243137 0.113725
0.823529 0.247059 0.121569
0.886275 0.247059 0.133333
0.949020 0.250980 0.141176
0.082353 0.317647 0.047059
0.137255 0.317647 0.047059
0.192157 0.317647 0.047059
0.243137 0.317647 0.047059
0.298039 0.317647 0.047059
0.317647 0.282353 0.047059
0.380392 0.282353 0.058824
0.443137 0.286275 0.066667
0.505882 0.286275 0.074510
0.568627 0.290196 0.086275
0.635294 0.294118 0.094118
0.698039 0.294118 0.105882
0.760784 0.298039 0.113725
0.823529 0.298039 0.121569
0.886275 0.301961 0.133333
0.949020 0.305882 0.141176
0.101961 0.380392 0.058824
0.152941 0.380392 0.058824
0.207843 0.380392 0.058824
0.262745 0.380392 0.058824
0.313725 0.380392 0.058824
0.368627 0.380392 0.058824
0.380392 0.337255 0.058824
0.443137 0.341176 0.066667
0.505882 0.341176 0.074510
0.568627 0.345098 0.086275
0.635294 0.345098 0.094118
0.698039 0.349020 0.105882
0.760784 0.349020 0.113725
0.823529 0.352941 0.121569
0.886275 0.356863 0.133333
0.949020 0.356863 0.141176
0.117647 0.443137 0.066667
0.168627 0.443137 0.066667
0.223529 0.443137 0.066667
0.278431 0.443137 0.066667
0.333333 0.443137 0.066667
0.384314 0.443137 0.066667
0.439216 0.443137 0.066667
0.443137 0.392157 0.066667
0.505882 0.396078 0.074510
0.568627 0.396078 0.086275
0.635294 0.400000 0.094118
0.698039 0.403922 0.105882
0.760784 0.403922 0.113725
0.823529 0.407843 0.121569
0.886275 0.407843 0.133333
0.949020 0.411765 0.141176
0.133333 0.505882 0.074510
0.188235 0.505882 0.074510
0.239216 0.505882 0.074510
0.294118 0.505882 0.074510
0.349020 0.505882 0.074510
0.403922 0.505882 0.074510
0.454902 0.505882 0.074510
0.505882 0.501961 0.074510
0.505882 0.450980 0.074510
0.568627 0.450980 0.086275
0.635294 0.454902 0.094118
0.698039 0.454902 0.105882
0.760784 0.458824 0.113725
0.823529 0.462745 0.121569
0.886275 0.462745 0.133333
0.949020 0.466667 0.141176
0.149020 0.568627 0.086275
0.203922 0.568627 0.086275
0.258824 0.568627 0.086275
0.309804 0.568627 0.086275
0.364706 0.568627 0.086275
0.419608 0.568627 0.086275
0.474510 0.568627 0.086275
0.525490 0.568627 0.086275
0.568627 0.560784 0.086275
0.568627 0.505882 0.086275
0.635294 0.505882 0.094118
0.698039 0.509804 0.105882
0.760784 0.513725 0.113725
0.823529 0.513725 0.121569
0.886275 0.517647 0.133333
0.949020 0.517647 0.141176
0.168627 0.635294 0.094118
0.219608 0.635294 0.094118
0.274510 0.635294 0.094118
0.329412 0.635294 0.094118
0.380392 0.635294 0.094118
0.435294 0.635294 0.094118
0.490196 0.635294 0.094118
0.545098 0.635294 0.094118
0.596078 0.635294 0.094118
0.635294 0.615686 0.094118
0.635294 0.560784 0.094118
0.698039 0.564706 0.105882
0.760784 0.564706 0.113725
0.823529 0.568627 0.121569
0.886275 0.572549 0.133333
0.949020 0.572549 0.141176
0.184314 0.698039 0.105882
0.239216 0.698039 0.105882
0.290196 0.698039 0.105882
0.345098 0.698039 0.105882
0.400000 0.698039 0.105882
0.450980 0.698039 0.105882
0.505882 0.698039 0.105882
0.560784 0.698039 0.105882
0.615686 0.698039 0.105882
0.666667 0.698039 0.105882
0.698039 0.670588 0.105882
0.698039 0.619608 0.105882
0.760784 0.619608 0.113725
0.823529 0.623529 0.121569
0.886275 0.623529 0.133333
0.949020 0.627451 0.141176
0.200000 0.760784 0.113725
0.254902 0.760784 0.113725
0.305882 0.760784 0.113725
0.360784 0.760784 0.113725
0.415686 0.760784 0.113725
0.470588 0.760784 0.113725
0.521569 0.760784 0.113725
0.576471 0.760784 0.113725
0.631373 0.760784 0.113725
0.686275 0.760784 0.113725
0.737255 0.760784 0.113725
0.760784 0.729412 0.113725
0.760784 0.674510 0.113725
0.823529 0.674510 0.121569
0.886275 0.678431 0.133333
0.949020 0.682353 0.141176
0.215686 0.823529 0.121569
0.270588 0.823529 0.121569
0.325490 0.823529 0.121569
0.376471 0.823529 0.121569
0.431373 0.823529 0.121569
0.486275 0.823529 0.121569
0.541176 0.823529 0.121569
0.592157 0.823529 0.121569
0.647059 0.823529 0.121569
0.701961 0.823529 0.121569
0.756863 0.823529 0.121569
0.807843 0.823529 0.121569
0.823529 0.784314 0.121569
0.823529 0.729412 0.121569
0.886275 0.733333 0.133333
0.949020 0.733333 0.141176
0.235294 0.886275 0.133333
0.286275 0.886275 0.133333
0.341176 0.886275 0.133333
0.396078 0.886275 0.133333
0.447059 0.886275 0.133333
0.501961 0.886275 0.133333
0.556863 0.886275 0.133333
0.611765 0.886275 0.133333
0.662745 0.886275 0.133333
0.717647 0.886275 0.133333
0.772549 0.886275 0.133333
0.827451 0.886275 0.133333
0.878431 0.886275 0.133333
0.886275 0.839216 0.133333
0.886275 0.784314 0.133333
0.949020 0.788235 0.141176
0.250980 0.949020 0.141176
0.305882 0.949020 0.141176
0.356863 0.949020 0.141176
0.411765 0.949020 0.141176
0.466667 0.949020 0.141176
0.517647 0.949020 0.141176
0.572549 0.949020 0.141176
0.627451 0.949020 0.141176
0.682353 0.949020 0.141176
0.733333 0.949020 0.141176
0.788235 0.949020 0.141176
0.843137 0.949020 0.141176
0.898039 0.949020 0.141176
0.949020 0.949020 0.141176
0.949020 0.898039 0.141176
0.949020 0.843137 0.141176
0.007843 0.015686 0.062745
0.054902 0.007843 0.062745
0.125490 0.019608 0.086275
0.188235 0.027451 0.101961
0.254902 0.039216 0.121569
0.317647 0.047059 0.137255
0.380392 0.058824 0.152941
0.443137 0.066667 0.168627
0.505882 0.074510 0.188235
0.568627 0.086275 0.203922
0.635294 0.094118 0.219608
0.698039 0.105882 0.239216
0.760784 0.113725 0.254902
0.823529 0.121569 0.270588
0.886275 0.133333 0.286275
0.949020 0.141176 0.305882
0.007843 0.062745 0.054902
0.062745 0.062745 0.062745
0.125490 0.074510 0.078431
0.188235 0.082353 0.098039
0.254902 0.090196 0.113725
0.317647 0.101961 0.129412
0.380392 0.109804 0.145098
0.443137 0.121569 0.164706
0.505882 0.129412 0.180392
0.568627 0.141176 0.196078
0.635294 0.149020 0.211765
0.698039 0.156863 0.231373
0.760784 0.168627 0.247059
0.823529 0.176471 0.262745
0.886275 0.188235 0.278431
0.949020 0.196078 0.298039
0.019608 0.125490 0.058824
0.078431 0.125490 0.074510
0.125490 0.117647 0.074510
0.188235 0.121569 0.082353
0.254902 0.125490 0.090196
0.317647 0.125490 0.101961
0.380392 0.129412 0.109804
0.443137 0.129412 0.121569
0.505882 0.133333 0.129412
0.568627 0.141176 0.141176
0.635294 0.149020 0.160784
0.698039 0.156863 0.176471
0.760784 0.168627 0.192157
0.823529 0.176471 0.207843
0.886275 0.188235 0.227451
0.949020 0.196078 0.243137
0.027451 0.188235 0.062745
0.098039 0.188235 0.082353
0.149020 0.188235 0.082353
0.188235 0.176471 0.082353
0.254902 0.176471 0.090196
0.317647 0.180392 0.101961
0.380392 0.184314 0.109804
0.443137 0.184314 0.121569
0.505882 0.188235 0.129412
0.568627 0.188235 0.141176
0.635294 0.192157 0.149020
0.698039 0.196078 0.156863
0.760784 0.196078 0.168627
0.823529 0.200000 0.176471
0.886275 0.200000 0.188235
0.949020 0.203922 0.196078
0.039216 0.254902 0.062745
0.113725 0.254902 0.090196
0.168627 0.254902 0.090196
0.219608 0.254902 0.090196
0.254902 0.231373 0.090196
0.317647 0.235294 0.101961
0.380392 0.235294 0.109804
0.443137 0.239216 0.121569
0.505882 0.239216 0.129412
0.568627 0.243137 0.141176
0.635294 0.247059 0.149020
0.698039 0.247059 0.156863
0.760784 0.250980 0.168627
0.823529 0.250980 0.176471
0.886275 0.254902 0.188235
0.949020 0.258824 0.196078
0.047059 0.317647 0.066667
0.129412 0.317647 0.101961
0.184314 0.317647 0.101961
0.239216 0.317647 0.101961
0.290196 0.317647 0.101961
0.317647 0.286275 0.101961
0.380392 0.290196 0.109804
0.443137 0.294118 0.121569
0.505882 0.294118 0.129412
0.568627 0.298039 0.141176
0.635294 0.298039 0.149020
0.698039 0.301961 0.156863
0.760784 0.305882 0.168627
0.823529 0.305882 0.176471
0.886275 0.309804 0.188235
0.949020 0.309804 0.196078
0.058824 0.380392 0.066667
0.145098 0.380392 0.109804
0.200000 0.380392 0.109804
0.254902 0.380392 0.109804
0.309804 0.380392 0.109804
0.360784 0.380392 0.109804
0.380392 0.345098 0.109804
0.443137 0.345098 0.121569
0.505882 0.349020 0.129412
0.568627 0.352941 0.141176
0.635294 0.352941 0.149020
0.698039 0.356863 0.156863
0.760784 0.356863 0.168627
0.823529 0.360784 0.176471
0.886275 0.360784 0.188235
0.949020 0.364706 0.196078
0.066667 0.443137 0.070588
0.164706 0.443137 0.121569
0.215686 0.443137 0.121569
0.270588 0.443137 0.121569
0.325490 0.443137 0.121569
0.380392 0.443137 0.121569
0.431373 0.443137 0.121569
0.443137 0.400000 0.121569
0.505882 0.403922 0.129412
0.568627 0.403922 0.141176
0.635294 0.407843 0.149020
0.698039 0.407843 0.156863
0.760784 0.411765 0.168627
0.823529 0.415686 0.176471
0.886275 0.415686 0.188235
0.949020 0.419608 0.196078
0.078431 0.505882 0.074510
0.180392 0.505882 0.129412
0.235294 0.505882 0.129412
0.286275 0.505882 0.129412
0.341176 0.505882 0.129412
0.396078 0.505882 0.129412
0.450980 0.505882 0.129412
0.501961 0.505882 0.129412
0.505882 0.454902 0.129412
0.568627 0.458824 0.141176
0.635294 0.462745 0.149020
0.698039 0.462745 0.156863
0.760784 0.466667 0.168627
0.823529 0.466667 0.176471
0.886275 0.470588 0.188235
0.949020 0.474510 0.196078
0.098039 0.568627 0.086275
0.196078 0.568627 0.141176
0.250980 0.568627 0.141176
0.305882 0.568627 0.141176
0.356863 0.568627 0.141176
0.411765 0.568627 0.141176
0.466667 0.568627 0.141176
0.521569 0.568627 0.141176
0.568627 0.564706 0.141176
0.568627 0.513725 0.141176
0.635294 0.513725 0.149020
0.698039 0.517647 0.156863
0.760784 0.517647 0.168627
0.823529 0.521569 0.176471
0.886275 0.525490 0.188235
0.949020 0.525490 0.196078
0.113725 0.635294 0.094118
0.211765 0.635294 0.149020
0.266667 0.635294 0.149020
0.321569 0.635294 0.149020
0.376471 0.635294 0.149020
0.427451 0.635294 0.149020
0.482353 0.635294 0.149020
0.537255 0.635294 0.149020
0.592157 0.635294 0.149020
0.635294 0.623529 0.149020
0.635294 0.568627 0.149020
0.698039 0.572549 0.156863
0.760784 0.572549 0.168627
0.823529 0.576471 0.176471
0.886275 0.576471 0.188235
0.949020 0.580392 0.196078
0.129412 0.698039 0.105882
0.231373 0.698039 0.156863
0.282353 0.698039 0.156863
0.337255 0.698039 0.156863
0.392157 0.698039 0.156863
0.447059 0.698039 0.156863
0.498039 0.698039 0.156863
0.552941 0.698039 0.156863
0.607843 0.698039 0.156863
0.658824 0.698039 0.156863
0.698039 0.678431 0.156863
0.698039 0.623529 0.156863
0.760784 0.627451 0.168627
0.823529 0.631373 0.176471
0.886275 0.631373 0.188235
0.949020 0.635294 0.196078
0.145098 0.760784 0.113725
0.247059 0.760784 0.168627
0.301961 0.760784 0.168627
0.352941 0.760784 0.168627
0.407843 0.760784 0.168627
0.462745 0.760784 0.168627
0.517647 0.760784 0.168627
0.568627 0.760784 0.168627
0.623529 0.760784 0.168627
0.678431 0.760784 0.168627
0.729412 0.760784 0.168627
0.760784 0.733333 0.168627
0.760784 0.682353 0.168627
0.823529 0.682353 0.176471
0.886275 0.686275 0.188235
0.949020 0.686275 0.196078
0.164706 0.823529 0.121569
0.262745 0.823529 0.176471
0.317647 0.823529 0.176471
0.372549 0.823529 0.176471
0.423529 0.823529 0.176471
0.478431 0.823529 0.176471
0.533333 0.823529 0.176471
0.588235 0.823529 0.176471
0.639216 0.823529 0.176471
0.694118 0.823529 0.176471
0.749020 0.823529 0.176471
0.800000 0.823529 0.176471
0.823529 0.792157 0.176471
0.823529 0.737255 0.176471
0.886275 0.741176 0.188235
0.949020 0.741176 0.196078
0.180392 0.886275 0.133333
0.278431 0.886275 0.188235
0.333333 0.886275 0.188235
0.388235 0.886275 0.188235
0.443137 0.886275 0.188235
0.494118 0.886275 0.188235
0.549020 0.886275 0.188235
0.603922 0.886275 0.188235
0.658824 0.886275 0.188235
0.709804 0.886275 0.188235
0.764706 0.886275 0.188235
0.819608 0.886275 0.188235
0.870588 0.886275 0.188235
0.886275 0.847059 0.188235
0.886275 0.792157 0.188235
0.949020 0.796078 0.196078
0.196078 0.949020 0.141176
0.298039 0.949020 0.196078
0.349020 0.949020 0.196078
0.403922 0.949020 0.196078
0.458824 0.949020 0.196078
0.513725 0.949020 0.196078
0.564706 0.949020 0.196078
0.619608 0.949020 0.196078
0.674510 0.949020 0.196078
0.729412 0.949020 0.196078
0.780392 0.949020 0.196078
0.835294 0.949020 0.196078
0.890196 0.949020 0.196078
0.941176 0.949020 0.196078
0.949020 0.901961 0.196078
0.949020 0.850980 0.196078
0.019608 0.035294 0.125490
0.058824 0.019608 0.125490
0.113725 0.019608 0.125490
0.188235 0.027451 0.156863
0.254902 0.039216 0.172549
0.317647 0.047059 0.192157
0.380392 0.058824 0.207843
0.443137 0.066667 0.223529
0.505882 0.074510 0.239216
0.568627 0.086275 0.258824
0.635294 0.094118 0.274510
0.698039 0.105882 0.290196
0.760784 0.113725 0.305882
0.823529 0.121569 0.325490
0.886275 0.133333 0.341176
0.949020 0.141176 0.356863
0.019608 0.086275 0.125490
0.074510 0.078431 0.125490
0.117647 0.074510 0.125490
0.188235 0.082353 0.149020
0.254902 0.090196 0.168627
0.317647 0.101961 0.184314
0.380392 0.109804 0.200000
0.443137 0.121569 0.215686
0.505882 0.129412 0.235294
0.568627 0.141176 0.250980
0.635294 0.149020 0.266667
0.698039 0.156863 0.282353
0.760784 0.168627 0.301961
0.823529 0.176471 0.317647
0.886275 0.188235 0.333333
0.949020 0.196078 0.349020
0.019608 0.125490 0.113725
0.074510 0.125490 0.117647
0.125490 0.125490 0.125490
0.188235 0.137255 0.145098
0.254902 0.145098 0.160784
0.317647 0.156863 0.176471
0.380392 0.164706 0.192157
0.443137 0.172549 0.211765
0.505882 0.184314 0.227451
0.568627 0.192157 0.243137
0.635294 0.203922 0.258824
0.698039 0.211765 0.278431
0.760784 0.223529 0.294118
0.823529 0.231373 0.309804
0.886275 0.239216 0.325490
0.949020 0.250980 0.345098
0.027451 0.188235 0.113725
0.082353 0.188235 0.121569
0.145098 0.188235 0.137255
0.188235 0.184314 0.137255
0.254902 0.184314 0.145098
0.317647 0.188235 0.156863
0.380392 0.188235 0.164706
0.443137 0.192157 0.172549
0.505882 0.196078 0.184314
0.568627 0.196078 0.192157
0.635294 0.203922 0.207843
0.698039 0.211765 0.223529
0.760784 0.223529 0.239216
0.823529 0.231373 0.254902
0.886275 0.239216 0.274510
0.949020 0.250980 0.290196
0.039216 0.254902 0.117647
0.090196 0.254902 0.125490
0.160784 0.254902 0.145098
0.215686 0.254902 0.145098
0.254902 0.239216 0.145098
0.317647 0.243137 0.156863
0.380392 0.243137 0.164706
0.443137 0.247059 0.172549
0.505882 0.247059 0.184314
0.568627 0.250980 0.192157
0.635294 0.250980 0.203922
0.698039 0.254902 0.211765
0.760784 0.258824 0.223529
0.823529 0.258824 0.231373
0.886275 0.262745 0.239216
0.949020 0.262745 0.250980
0.047059 0.317647 0.117647
0.101961 0.317647 0.125490
0.176471 0.317647 0.156863
0.231373 0.317647 0.156863
0.286275 0.317647 0.156863
0.317647 0.294118 0.156863
0.380392 0.298039 0.164706
0.443137 0.298039 0.172549
0.505882 0.301961 0.184314
0.568627 0.305882 0.192157
0.635294 0.305882 0.203922
0.698039 0.309804 0.211765
0.760784 0.309804 0.223529
0.823529 0.313725 0.231373
0.886275 0.317647 0.239216
0.949020 0.317647 0.250980
0.058824 0.380392 0.121569
0.109804 0.380392 0.129412
0.192157 0.380392 0.164706
0.247059 0.380392 0.164706
0.301961 0.380392 0.164706
0.352941 0.380392 0.164706
0.380392 0.352941 0.164706
0.443137 0.352941 0.172549
0.505882 0.356863 0.184314
0.568627 0.356863 0.192157
0.635294 0.360784 0.203922
0.698039 0.364706 0.211765
0.760784 0.364706 0.223529
0.823529 0.368627 0.231373
0.886275 0.368627 0.239216
0.949020 0.372549 0.250980
0.066667 0.443137 0.125490
0.121569 0.443137 0.129412
0.211765 0.443137 0.172549
0.262745 0.443137 0.172549
0.317647 0.443137 0.172549
0.372549 0.443137 0.172549
0.423529 0.443137 0.172549
0.443137 0.407843 0.172549
0.505882 0.407843 0.184314
0.568627 0.411765 0.192157
0.635294 0.415686 0.203922
0.698039 0.415686 0.211765
0.760784 0.419608 0.223529
0.823529 0.419608 0.231373
0.886275 0.423529 0.239216
0.949020 0.427451 0.250980
0.074510 0.505882 0.125490
0.129412 0.505882 0.133333
0.227451 0.505882 0.184314
0.282353 0.505882 0.184314
0.333333 0.505882 0.184314
0.388235 0.505882 0.184314
0.443137 0.505882 0.184314
0.494118 0.505882 0.184314
0.505882 0.462745 0.184314
0.568627 0.466667 0.192157
0.635294 0.466667 0.203922
0.698039 0.470588 0.211765
0.760784 0.474510 0.223529
0.823529 0.474510 0.231373
0.886275 0.478431 0.239216
0.949020 0.478431 0.250980
0.086275 0.568627 0.129412
0.141176 0.568627 0.141176
0.243137 0.568627 0.192157
0.298039 0.568627 0.192157
0.352941 0.568627 0.192157
0.403922 0.568627 0.192157
0.458824 0.568627 0.192157
0.513725 0.568627 0.192157
0.564706 0.568627 0.192157
0.568627 0.521569 0.192157
0.635294 0.521569 0.203922
0.698039 0.525490 0.211765
0.760784 0.525490 0.223529
0.823529 0.529412 0.231373
0.886275 0.529412 0.239216
0.949020 0.533333 0.250980
0.094118 0.635294 0.129412
0.160784 0.635294 0.149020
0.258824 0.635294 0.203922
0.313725 0.635294 0.203922
0.368627 0.635294 0.203922
0.423529 0.635294 0.203922
0.474510 0.635294 0.203922
0.529412 0.635294 0.203922
0.584314 0.635294 0.203922
0.635294 0.631373 0.203922
0.635294 0.576471 0.203922
0.698039 0.576471 0.211765
0.760784 0.580392 0.223529
0.823529 0.584314 0.231373
0.886275 0.584314 0.239216
0.949020 0.588235 0.250980
0.105882 0.698039 0.133333
0.176471 0.698039 0.156863
0.278431 0.698039 0.211765
0.329412 0.698039 0.211765
0.384314 0.698039 0.211765
0.439216 0.698039 0.211765
0.490196 0.698039 0.211765
0.545098 0.698039 0.211765
0.600000 0.698039 0.211765
0.654902 0.698039 0.211765
0.698039 0.686275 0.211765
0.698039 0.631373 0.211765
0.760784 0.635294 0.223529
0.823529 0.635294 0.231373
0.886275 0.639216 0.239216
0.949020 0.643137 0.250980
0.113725 0.760784 0.137255
0.192157 0.760784 0.168627
0.294118 0.760784 0.223529
0.349020 0.760784 0.223529
0.400000 0.760784 0.223529
0.454902 0.760784 0.223529
0.509804 0.760784 0.223529
0.560784 0.760784 0.223529
0.615686 0.760784 0.223529
0.670588 0.760784 0.223529
0.725490 0.760784 0.223529
0.760784 0.741176 0.223529
0.760784 0.686275 0.223529
0.823529 0.690196 0.231373
0.886275 0.694118 0.239216
0.949020 0.694118 0.250980
0.121569 0.823529 0.137255
0.207843 0.823529 0.176471
0.309804 0.823529 0.231373
0.364706 0.823529 0.231373
0.419608 0.823529 0.231373
0.470588 0.823529 0.231373
0.525490 0.823529 0.231373
0.580392 0.823529 0.231373
0.631373 0.823529 0.231373
0.686275 0.823529 0.231373
0.741176 0.823529 0.231373
0.796078 0.823529 0.231373
0.823529 0.800000 0.231373
0.823529 0.745098 0.231373
0.886275 0.745098 0.239216
0.949020 0.749020 0.250980
0.133333 0.886275 0.141176
0.227451 0.886275 0.188235
0.325490 0.886275 0.239216
0.380392 0.886275 0.239216
0.435294 0.886275 0.239216
0.490196 0.886275 0.239216
0.541176 0.886275 0.239216
0.596078 0.886275 0.239216
0.650980 0.886275 0.239216
0.701961 0.886275 0.239216
0.756863 0.886275 0.239216
0.811765 0.886275 0.239216
0.866667 0.886275 0.239216
0.886275 0.854902 0.239216
0.886275 0.800000 0.239216
0.949020 0.803922 0.250980
0.141176 0.949020 0.141176
0.243137 0.949020 0.196078
0.345098 0.949020 0.250980
0.396078 0.949020 0.250980
0.450980 0.949020 0.250980
0.505882 0.949020 0.250980
0.556863 0.949020 0.250980
0.611765 0.949020 0.250980
0.666667 0.949020 0.250980
0.721569 0.949020 0.250980
0.772549 0.949020 0.250980
0.827451 0.949020 0.250980
0.882353 0.949020 0.250980
0.937255 0.949020 0.250980
0.949020 0.909804 0.250980
0.949020 0.854902 0.250980
0.027451 0.050980 0.188235
0.062745 0.027451 0.188235
0.113725 0.027451 0.188235
0.168627 0.027451 0.188235
0.254902 0.039216 0.227451
0.317647 0.047059 0.243137
0.380392 0.058824 0.262745
0.443137 0.066667 0.278431
0.505882 0.074510 0.294118
0.568627 0.086275 0.309804
0.635294 0.094118 0.329412
0.698039 0.105882 0.345098
0.760784 0.113725 0.360784
0.823529 0.121569 0.376471
0.886275 0.133333 0.396078
0.949020 0.141176 0.411765
0.027451 0.101961 0.188235
0.082353 0.098039 0.188235
0.121569 0.082353 0.188235
0.176471 0.082353 0.188235
0.254902 0.090196 0.219608
0.317647 0.101961 0.239216
0.380392 0.109804 0.254902
0.443137 0.121569 0.270588
0.505882 0.129412 0.286275
0.568627 0.141176 0.305882
0.635294 0.149020 0.321569
0.698039 0.156863 0.337255
0.760784 0.168627 0.352941
0.823529 0.176471 0.372549
0.886275 0.188235 0.388235
0.949020 0.196078 0.403922
0.027451 0.156863 0.188235
0.082353 0.149020 0.188235
0.137255 0.145098 0.188235
0.184314 0.137255 0.188235
0.254902 0.145098 0.215686
0.317647 0.156863 0.231373
0.380392 0.164706 0.247059
0.443137 0.172549 0.262745
0.505882 0.184314 0.282353
0.568627 0.192157 0.298039
0.635294 0.203922 0.313725
0.698039 0.211765 0.329412
0.760784 0.223529 0.349020
0.823529 0.231373 0.364706
0.886275 0.239216 0.380392
0.949020 0.250980 0.396078
0.027451 0.188235 0.168627
0.082353 0.188235 0.176471
0.137255 0.188235 0.184314
0.188235 0.188235 0.188235
0.254902 0.200000 0.207843
0.317647 0.207843 0.223529
0.380392 0.219608 0.239216
0.443137 0.227451 0.254902
0.505882 0.239216 0.274510
0.568627 0.247059 0.290196
0.635294 0.254902 0.305882
0.698039 0.266667 0.321569
0.760784 0.274510 0.341176
0.823529 0.286275 0.356863
0.886275 0.294118 0.372549
0.949020 0.305882 0.388235
0.039216 0.254902 0.172549
0.090196 0.254902 0.176471
0.145098 0.254902 0.184314
0.207843 0.254902 0.200000
0.254902 0.247059 0.200000
0.317647 0.247059 0.207843
0.380392 0.250980 0.219608
0.443137 0.254902 0.227451
0.505882 0.254902 0.239216
0.568627 0.258824 0.247059
0.635294 0.258824 0.254902
0.698039 0.266667 0.270588
0.760784 0.274510 0.286275
0.823529 0.286275 0.301961
0.886275 0.294118 0.321569
0.949020 0.305882 0.337255
0.047059 0.317647 0.172549
0.101961 0.317647 0.180392
0.156863 0.317647 0.188235
0.223529 0.317647 0.207843
0.278431 0.317647 0.207843
0.317647 0.301961 0.207843
0.380392 0.305882 0.219608
0.443137 0.305882 0.227451
0.505882 0.309804 0.239216
0.568627 0.309804 0.247059
0.635294 0.313725 0.254902
0.698039 0.317647 0.266667
0.760784 0.317647 0.274510
0.823529 0.321569 0.286275
0.886275 0.321569 0.294118
0.949020 0.325490 0.305882
0.058824 0.380392 0.176471
0.109804 0.380392 0.184314
0.164706 0.380392 0.188235
0.239216 0.380392 0.219608
0.294118 0.380392 0.219608
0.349020 0.380392 0.219608
0.380392 0.356863 0.219608
0.443137 0.360784 0.227451
0.505882 0.364706 0.239216
0.568627 0.364706 0.247059
0.635294 0.368627 0.254902
0.698039 0.368627 0.266667
0.760784 0.372549 0.274510
0.823529 0.376471 0.286275
0.886275 0.376471 0.294118
0.949020 0.380392 0.305882
0.066667 0.443137 0.176471
0.121569 0.443137 0.184314
0.172549 0.443137 0.192157
0.254902 0.443137 0.227451
0.309804 0.443137 0.227451
0.364706 0.443137 0.227451
0.419608 0.443137 0.227451
