pkg/planetgen/color/luts/scorched.cube
TITLE "scorched archetype LUT"
LUT_3D_SIZE 6
0.000000 0.000000 0.000000
0.188235 0.027451 0.050980
0.380392 0.058824 0.101961
0.568627 0.086275 0.149020
0.760784 0.113725 0.200000
0.949020 0.141176 0.250980
0.050980 0.188235 0.027451
0.188235 0.168627 0.027451
0.380392 0.176471 0.058824
0.568627 0.184314 0.086275
0.760784 0.188235 0.113725
0.949020 0.196078 0.141176
0.101961 0.380392 0.058824
0.262745 0.380392 0.058824
0.380392 0.337255 0.058824
0.568627 0.345098 0.086275
0.760784 0.349020 0.113725
0.949020 0.356863 0.141176
0.149020 0.568627 0.086275
0.309804 0.568627 0.086275
0.474510 0.568627 0.086275
0.568627 0.505882 0.086275
0.760784 0.513725 0.113725
0.949020 0.517647 0.141176
0.200000 0.760784 0.113725
0.360784 0.760784 0.113725
0.521569 0.760784 0.113725
0.686275 0.760784 0.113725
0.760784 0.674510 0.113725
0.949020 0.682353 0.141176
0.250980 0.949020 0.141176
0.411765 0.949020 0.141176
0.572549 0.949020 0.141176
0.733333 0.949020 0.141176
0.898039 0.949020 0.141176
0.949020 0.843137 0.141176
0.027451 0.050980 0.188235
0.168627 0.027451 0.188235
0.380392 0.058824 0.262745
0.568627 0.086275 0.309804
0.760784 0.113725 0.360784
0.949020 0.141176 0.411765
0.027451 0.188235 0.168627
0.188235 0.188235 0.188235
0.380392 0.219608 0.239216
0.568627 0.247059 0.290196
0.760784 0.274510 0.341176
0.949020 0.305882 0.388235
0.058824 0.380392 0.176471
0.239216 0.380392 0.219608
0.380392 0.356863 0.219608
0.568627 0.364706 0.247059
0.760784 0.372549 0.274510
0.949020 0.380392 0.305882
0.086275 0.568627 0.184314
0.290196 0.568627 0.247059
0.450980 0.568627 0.247059
0.568627 0.525490 0.247059
0.760784 0.533333 0.274510
0.949020 0.541176 0.305882
0.113725 0.760784 0.188235
0.341176 0.760784 0.274510
0.501961 0.760784 0.274510
0.662745 0.760784 0.274510
0.760784 0.694118 0.274510
0.949020 0.701961 0.305882
0.141176 0.949020 0.196078
0.388235 0.949020 0.305882
0.552941 0.949020 0.305882
0.713725 0.949020 0.305882
0.874510 0.949020 0.305882
0.949020 0.862745 0.305882
0.058824 0.101961 0.380392
0.176471 0.058824 0.380392
0.337255 0.058824 0.380392
0.568627 0.086275 0.474510
0.760784 0.113725 0.521569
0.949020 0.141176 0.572549
0.058824 0.262745 0.380392
0.219608 0.239216 0.380392
0.356863 0.219608 0.380392
0.568627 0.247059 0.450980
0.760784 0.274510 0.501961
0.949020 0.305882 0.552941
0.058824 0.380392 0.337255
0.219608 0.380392 0.356863
0.380392 0.380392 0.380392
0.568627 0.407843 0.431373
0.760784 0.435294 0.478431
0.949020 0.466667 0.529412
0.086275 0.568627 0.345098
0.247059 0.568627 0.364706
0.431373 0.568627 0.407843
0.568627 0.549020 0.407843
0.760784 0.556863 0.435294
0.949020 0.560784 0.466667
0.113725 0.760784 0.349020
0.274510 0.760784 0.372549
0.478431 0.760784 0.435294
0.643137 0.760784 0.435294
0.760784 0.717647 0.435294
0.949020 0.725490 0.466667
0.141176 0.949020 0.356863
0.305882 0.949020 0.380392
0.529412 0.949020 0.466667
0.690196 0.949020 0.466667
0.854902 0.949020 0.466667
0.949020 0.886275 0.466667
0.086275 0.149020 0.568627
0.184314 0.086275 0.568627
0.345098 0.086275 0.568627
0.505882 0.086275 0.568627
0.760784 0.113725 0.686275
0.949020 0.141176 0.733333
0.086275 0.309804 0.568627
0.247059 0.290196 0.568627
0.364706 0.247059 0.568627
0.525490 0.247059 0.568627
0.760784 0.274510 0.662745
0.949020 0.305882 0.713725
0.086275 0.474510 0.568627
0.247059 0.450980 0.568627
0.407843 0.431373 0.568627
0.549020 0.407843 0.568627
0.760784 0.435294 0.643137
0.949020 0.466667 0.690196
0.086275 0.568627 0.505882
0.247059 0.568627 0.525490
0.407843 0.568627 0.549020
0.568627 0.568627 0.568627
0.760784 0.600000 0.619608
0.949020 0.627451 0.670588
0.113725 0.760784 0.513725
0.274510 0.760784 0.533333
0.435294 0.760784 0.556863
0.619608 0.760784 0.600000
0.760784 0.737255 0.600000
0.949020 0.745098 0.627451
0.141176 0.949020 0.517647
0.305882 0.949020 0.541176
0.466667 0.949020 0.560784
0.670588 0.949020 0.627451
0.831373 0.949020 0.627451
0.949020 0.905882 0.627451
0.113725 0.200000 0.760784
0.188235 0.113725 0.760784
0.349020 0.113725 0.760784
0.513725 0.113725 0.760784
0.674510 0.113725 0.760784
0.949020 0.141176 0.898039
0.113725 0.360784 0.760784
0.274510 0.341176 0.760784
0.372549 0.274510 0.760784
0.533333 0.274510 0.760784
0.694118 0.274510 0.760784
0.949020 0.305882 0.874510
0.113725 0.521569 0.760784
0.274510 0.501961 0.760784
0.435294 0.478431 0.760784
0.556863 0.435294 0.760784
0.717647 0.435294 0.760784
0.949020 0.466667 0.854902
0.113725 0.686275 0.760784
0.274510 0.662745 0.760784
0.435294 0.643137 0.760784
0.600000 0.619608 0.760784
0.737255 0.600000 0.760784
0.949020 0.627451 0.831373
0.113725 0.760784 0.674510
0.274510 0.760784 0.694118
0.435294 0.760784 0.717647
0.600000 0.760784 0.737255
0.760784 0.760784 0.760784
0.949020 0.788235 0.811765
0.141176 0.949020 0.682353
0.305882 0.949020 0.701961
0.466667 0.949020 0.725490
0.627451 0.949020 0.745098
0.811765 0.949020 0.788235
0.949020 0.929412 0.788235
0.141176 0.250980 0.949020
0.196078 0.141176 0.949020
0.356863 0.141176 0.949020
0.517647 0.141176 0.949020
0.682353 0.141176 0.949020
0.843137 0.141176 0.949020
0.141176 0.411765 0.949020
0.305882 0.388235 0.949020
0.380392 0.305882 0.949020
0.541176 0.305882 0.949020
0.701961 0.305882 0.949020
0.862745 0.305882 0.949020
0.141176 0.572549 0.949020
0.305882 0.552941 0.949020
0.466667 0.529412 0.949020
0.560784 0.466667 0.949020
0.725490 0.466667 0.949020
0.886275 0.466667 0.949020
0.141176 0.733333 0.949020
0.305882 0.713725 0.949020
0.466667 0.690196 0.949020
0.627451 0.670588 0.949020
0.745098 0.627451 0.949020
0.905882 0.627451 0.949020
0.141176 0.898039 0.949020
0.305882 0.874510 0.949020
0.466667 0.854902 0.949020
0.627451 0.831373 0.949020
0.788235 0.811765 0.949020
0.929412 0.788235 0.949020
0.141176 0.949020 0.843137
0.305882 0.949020 0.862745
0.466667 0.949020 0.886275
0.627451 0.949020 0.905882
0.788235 0.949020 0.929412
0.949020 0.949020 0.949020
