pkg/planetgen/color/luts/super_terran.cube
TITLE "super_terran archetype LUT"
LUT_3D_SIZE 16
0.000000 0.000000 0.000000
0.062745 0.000000 0.003922
0.125490 0.000000 0.007843
0.188235 0.000000 0.007843
0.254902 0.000000 0.011765
0.317647 0.000000 0.015686
0.380392 0.000000 0.019608
0.443137 0.000000 0.023529
0.505882 0.000000 0.023529
0.568627 0.000000 0.027451
0.635294 0.000000 0.031373
0.698039 0.000000 0.035294
0.760784 0.000000 0.039216
0.823529 0.000000 0.039216
0.886275 0.000000 0.043137
0.949020 0.000000 0.047059
0.003922 0.062745 0.000000
0.062745 0.058824 0.000000
0.125490 0.058824 0.000000
0.188235 0.054902 0.000000
0.254902 0.050980 0.000000
0.317647 0.047059 0.000000
0.380392 0.043137 0.000000
0.443137 0.039216 0.000000
0.505882 0.039216 0.000000
0.568627 0.035294 0.000000
0.635294 0.031373 0.000000
0.698039 0.027451 0.000000
0.760784 0.023529 0.000000
0.823529 0.023529 0.000000
0.886275 0.019608 0.000000
0.949020 0.015686 0.000000
0.007843 0.125490 0.000000
0.070588 0.125490 0.000000
0.125490 0.121569 0.000000
0.188235 0.117647 0.000000
0.254902 0.113725 0.000000
0.317647 0.109804 0.000000
0.380392 0.105882 0.000000
0.443137 0.105882 0.000000
0.505882 0.101961 0.000000
0.568627 0.098039 0.000000
0.635294 0.094118 0.000000
0.698039 0.090196 0.000000
0.760784 0.090196 0.000000
0.823529 0.086275 0.000000
0.886275 0.082353 0.000000
0.949020 0.078431 0.000000
0.007843 0.188235 0.000000
0.074510 0.188235 0.000000
0.137255 0.188235 0.000000
0.188235 0.180392 0.000000
0.254902 0.176471 0.000000
0.317647 0.172549 0.000000
0.380392 0.172549 0.000000
0.443137 0.168627 0.000000
0.505882 0.164706 0.000000
0.568627 0.160784 0.000000
0.635294 0.156863 0.000000
0.698039 0.156863 0.000000
0.760784 0.152941 0.000000
0.823529 0.149020 0.000000
0.886275 0.145098 0.000000
0.949020 0.141176 0.000000
0.011765 0.254902 0.000000
0.074510 0.254902 0.000000
0.141176 0.254902 0.000000
0.203922 0.254902 0.000000
0.254902 0.239216 0.000000
0.317647 0.239216 0.000000
0.380392 0.235294 0.000000
0.443137 0.231373 0.000000
0.505882 0.227451 0.000000
0.568627 0.223529 0.000000
0.635294 0.223529 0.000000
0.698039 0.219608 0.000000
0.760784 0.215686 0.000000
0.823529 0.211765 0.000000
0.886275 0.207843 0.000000
0.949020 0.203922 0.000000
0.015686 0.317647 0.000000
0.078431 0.317647 0.000000
0.141176 0.317647 0.000000
0.203922 0.317647 0.000000
0.270588 0.317647 0.000000
0.317647 0.301961 0.000000
0.380392 0.298039 0.000000
0.443137 0.294118 0.000000
0.505882 0.290196 0.000000
0.568627 0.286275 0.000000
0.635294 0.286275 0.000000
0.698039 0.282353 0.000000
0.760784 0.278431 0.000000
0.823529 0.274510 0.000000
0.886275 0.270588 0.000000
0.949020 0.270588 0.000000
0.019608 0.380392 0.000000
0.082353 0.380392 0.000000
0.145098 0.380392 0.000000
0.207843 0.380392 0.000000
0.270588 0.380392 0.000000
0.337255 0.380392 0.000000
0.380392 0.360784 0.000000
0.443137 0.356863 0.000000
0.505882 0.352941 0.000000
0.568627 0.352941 0.000000
0.635294 0.349020 0.000000
0.698039 0.345098 0.000000
0.760784 0.341176 0.000000
0.823529 0.337255 0.000000
0.886275 0.337255 0.000000
0.949020 0.333333 0.000000
0.023529 0.443137 0.000000
0.086275 0.443137 0.000000
0.149020 0.443137 0.000000
0.211765 0.443137 0.000000
0.274510 0.443137 0.000000
0.337255 0.443137 0.000000
0.403922 0.443137 0.000000
0.443137 0.419608 0.000000
0.505882 0.419608 0.000000
0.568627 0.415686 0.000000
0.635294 0.411765 0.000000
0.698039 0.407843 0.000000
0.760784 0.403922 0.000000
0.823529 0.403922 0.000000
0.886275 0.400000 0.000000
0.949020 0.396078 0.000000
0.023529 0.505882 0.000000
0.090196 0.505882 0.000000
0.152941 0.505882 0.000000
0.215686 0.505882 0.000000
0.278431 0.505882 0.000000
0.341176 0.505882 0.000000
0.403922 0.505882 0.000000
0.470588 0.505882 0.000000
0.505882 0.482353 0.000000
0.568627 0.478431 0.000000
0.635294 0.474510 0.000000
0.698039 0.470588 0.000000
0.760784 0.470588 0.000000
0.823529 0.466667 0.000000
0.886275 0.462745 0.000000
0.949020 0.458824 0.000000
0.027451 0.568627 0.000000
0.090196 0.568627 0.000000
0.156863 0.568627 0.000000
0.219608 0.568627 0.000000
0.282353 0.568627 0.000000
0.345098 0.568627 0.000000
0.407843 0.568627 0.000000
0.470588 0.568627 0.000000
0.533333 0.568627 0.000000
0.568627 0.541176 0.000000
0.635294 0.537255 0.000000
0.698039 0.533333 0.000000
0.760784 0.533333 0.000000
0.823529 0.529412 0.000000
0.886275 0.525490 0.000000
0.949020 0.521569 0.000000
0.031373 0.635294 0.000000
0.094118 0.635294 0.000000
0.156863 0.635294 0.000000
0.223529 0.635294 0.000000
0.286275 0.635294 0.000000
0.349020 0.635294 0.000000
0.411765 0.635294 0.000000
0.474510 0.635294 0.000000
0.537255 0.635294 0.000000
0.600000 0.635294 0.000000
0.635294 0.600000 0.000000
0.698039 0.600000 0.000000
0.760784 0.596078 0.000000
0.823529 0.592157 0.000000
0.886275 0.588235 0.000000
0.949020 0.584314 0.000000
0.035294 0.698039 0.000000
0.098039 0.698039 0.000000
0.160784 0.698039 0.000000
0.223529 0.698039 0.000000
0.286275 0.698039 0.000000
0.352941 0.698039 0.000000
0.415686 0.698039 0.000000
0.478431 0.698039 0.000000
0.541176 0.698039 0.000000
0.603922 0.698039 0.000000
0.666667 0.698039 0.000000
0.698039 0.662745 0.000000
0.760784 0.658824 0.000000
0.823529 0.654902 0.000000
0.886275 0.650980 0.000000
0.949020 0.650980 0.000000
0.039216 0.760784 0.000000
0.101961 0.760784 0.000000
0.164706 0.760784 0.000000
0.227451 0.760784 0.000000
0.290196 0.760784 0.000000
0.352941 0.760784 0.000000
0.419608 0.760784 0.000000
0.482353 0.760784 0.000000
0.545098 0.760784 0.000000
0.607843 0.760784 0.000000
0.670588 0.760784 0.000000
0.733333 0.760784 0.000000
0.760784 0.721569 0.000000
0.823529 0.717647 0.000000
0.886275 0.713725 0.000000
0.949020 0.713725 0.000000
0.039216 0.823529 0.000000
0.105882 0.823529 0.000000
0.168627 0.823529 0.000000
0.231373 0.823529 0.000000
0.294118 0.823529 0.000000
0.356863 0.823529 0.000000
0.419608 0.823529 0.000000
0.486275 0.823529 0.000000
0.549020 0.823529 0.000000
0.611765 0.823529 0.000000
0.674510 0.823529 0.000000
0.737255 0.823529 0.000000
0.800000 0.823529 0.000000
0.823529 0.780392 0.000000
0.886275 0.780392 0.000000
0.949020 0.776471 0.000000
0.043137 0.886275 0.000000
0.105882 0.886275 0.000000
0.172549 0.886275 0.000000
0.235294 0.886275 0.000000
0.298039 0.886275 0.000000
0.360784 0.886275 0.000000
0.423529 0.886275 0.000000
0.486275 0.886275 0.000000
0.552941 0.886275 0.000000
0.615686 0.886275 0.000000
0.678431 0.886275 0.000000
0.741176 0.886275 0.000000
0.803922 0.886275 0.000000
0.866667 0.886275 0.000000
0.886275 0.843137 0.000000
0.949020 0.839216 0.000000
0.047059 0.949020 0.000000
0.109804 0.949020 0.000000
0.172549 0.949020 0.000000
0.239216 0.949020 0.000000
0.301961 0.949020 0.000000
0.364706 0.949020 0.000000
0.427451 0.949020 0.000000
0.490196 0.949020 0.000000
0.552941 0.949020 0.000000
0.615686 0.949020 0.000000
0.682353 0.949020 0.000000
0.745098 0.949020 0.000000
0.807843 0.949020 0.000000
0.870588 0.949020 0.000000
0.933333 0.949020 0.000000
0.949020 0.901961 0.000000
0.000000 0.003922 0.062745
0.058824 0.000000 0.062745
0.125490 0.000000 0.070588
0.188235 0.000000 0.074510
0.254902 0.000000 0.074510
0.317647 0.000000 0.078431
0.380392 0.000000 0.082353
0.443137 0.000000 0.086275
0.505882 0.000000 0.090196
0.568627 0.000000 0.090196
0.635294 0.000000 0.094118
0.698039 0.000000 0.098039
0.760784 0.000000 0.101961
0.823529 0.000000 0.105882
0.886275 0.000000 0.105882
0.949020 0.000000 0.109804
0.000000 0.062745 0.058824
0.062745 0.062745 0.062745
0.125490 0.058824 0.058824
0.188235 0.050980 0.058824
0.254902 0.043137 0.054902
0.317647 0.039216 0.050980
0.380392 0.031373 0.050980
0.443137 0.023529 0.047059
0.505882 0.019608 0.043137
0.568627 0.011765 0.039216
0.635294 0.007843 0.039216
0.698039 0.000000 0.035294
0.760784 0.000000 0.039216
0.823529 0.000000 0.039216
0.886275 0.000000 0.043137
0.949020 0.000000 0.047059
0.000000 0.125490 0.058824
0.058824 0.125490 0.058824
0.125490 0.121569 0.058824
0.188235 0.113725 0.050980
0.254902 0.101961 0.043137
0.317647 0.094118 0.039216
0.380392 0.082353 0.031373
0.443137 0.074510 0.023529
0.505882 0.062745 0.019608
0.568627 0.054902 0.011765
0.635294 0.043137 0.007843
0.698039 0.035294 0.000000
0.760784 0.031373 0.000000
0.823529 0.027451 0.000000
0.886275 0.023529 0.000000
0.949020 0.019608 0.000000
0.000000 0.188235 0.054902
0.058824 0.188235 0.050980
0.125490 0.188235 0.050980
0.188235 0.184314 0.050980
0.254902 0.172549 0.043137
0.317647 0.164706 0.039216
0.380392 0.152941 0.031373
0.443137 0.145098 0.023529
0.505882 0.133333 0.019608
0.568627 0.125490 0.011765
0.635294 0.113725 0.007843
0.698039 0.105882 0.000000
0.760784 0.101961 0.000000
0.823529 0.094118 0.000000
0.886275 0.090196 0.000000
0.949020 0.086275 0.000000
0.000000 0.254902 0.050980
0.054902 0.254902 0.043137
0.125490 0.254902 0.043137
0.192157 0.254902 0.043137
0.254902 0.243137 0.043137
0.317647 0.231373 0.039216
0.380392 0.223529 0.031373
0.443137 0.211765 0.023529
0.505882 0.203922 0.019608
0.568627 0.192157 0.011765
0.635294 0.184314 0.007843
0.698039 0.172549 0.000000
0.760784 0.168627 0.000000
0.823529 0.164706 0.000000
0.886275 0.160784 0.000000
0.949020 0.156863 0.000000
0.000000 0.317647 0.047059
0.050980 0.317647 0.039216
0.121569 0.317647 0.039216
0.192157 0.317647 0.039216
0.262745 0.317647 0.039216
0.317647 0.301961 0.039216
0.380392 0.294118 0.031373
0.443137 0.282353 0.023529
0.505882 0.274510 0.019608
0.568627 0.262745 0.011765
0.635294 0.254902 0.007843
0.698039 0.243137 0.000000
0.760784 0.239216 0.000000
0.823529 0.231373 0.000000
0.886275 0.227451 0.000000
0.949020 0.223529 0.000000
0.000000 0.380392 0.043137
0.050980 0.380392 0.031373
0.117647 0.380392 0.031373
0.188235 0.380392 0.031373
0.258824 0.380392 0.031373
0.329412 0.380392 0.031373
0.380392 0.360784 0.031373
0.443137 0.352941 0.023529
0.505882 0.341176 0.019608
0.568627 0.333333 0.011765
0.635294 0.321569 0.007843
0.698039 0.313725 0.000000
0.760784 0.305882 0.000000
0.823529 0.301961 0.000000
0.886275 0.298039 0.000000
0.949020 0.290196 0.000000
0.000000 0.443137 0.039216
0.047059 0.443137 0.023529
0.117647 0.443137 0.023529
0.184314 0.443137 0.023529
0.254902 0.443137 0.023529
0.325490 0.443137 0.023529
0.396078 0.443137 0.023529
0.443137 0.423529 0.023529
0.505882 0.411765 0.019608
0.568627 0.403922 0.011765
0.635294 0.392157 0.007843
0.698039 0.384314 0.000000
0.760784 0.376471 0.000000
0.823529 0.368627 0.000000
0.886275 0.364706 0.000000
0.949020 0.360784 0.000000
0.000000 0.505882 0.039216
0.043137 0.505882 0.019608
0.113725 0.505882 0.019608
0.184314 0.505882 0.019608
0.250980 0.505882 0.019608
0.321569 0.505882 0.019608
0.392157 0.505882 0.019608
0.462745 0.505882 0.019608
0.505882 0.482353 0.019608
0.568627 0.470588 0.011765
0.635294 0.462745 0.007843
0.698039 0.450980 0.000000
0.760784 0.447059 0.000000
0.823529 0.439216 0.000000
0.886275 0.431373 0.000000
0.949020 0.427451 0.000000
0.000000 0.568627 0.035294
0.039216 0.568627 0.011765
0.109804 0.568627 0.011765
0.180392 0.568627 0.011765
0.250980 0.568627 0.011765
0.317647 0.568627 0.011765
0.388235 0.568627 0.011765
0.458824 0.568627 0.011765
0.529412 0.568627 0.011765
0.568627 0.541176 0.011765
0.635294 0.533333 0.007843
0.698039 0.521569 0.000000
0.760784 0.513725 0.000000
0.823529 0.505882 0.000000
0.886275 0.501961 0.000000
0.949020 0.494118 0.000000
0.000000 0.635294 0.031373
0.039216 0.635294 0.007843
0.105882 0.635294 0.007843
0.176471 0.635294 0.007843
0.247059 0.635294 0.007843
0.317647 0.635294 0.007843
0.384314 0.635294 0.007843
0.454902 0.635294 0.007843
0.525490 0.635294 0.007843
0.596078 0.635294 0.007843
0.635294 0.603922 0.007843
0.698039 0.592157 0.000000
0.760784 0.584314 0.000000
0.823529 0.576471 0.000000
0.886275 0.568627 0.000000
0.949020 0.564706 0.000000
0.000000 0.698039 0.027451
0.035294 0.698039 0.000000
0.105882 0.698039 0.000000
0.172549 0.698039 0.000000
0.243137 0.698039 0.000000
0.313725 0.698039 0.000000
0.384314 0.698039 0.000000
0.450980 0.698039 0.000000
0.521569 0.698039 0.000000
0.592157 0.698039 0.000000
0.662745 0.698039 0.000000
0.698039 0.662745 0.000000
0.760784 0.650980 0.000000
0.823529 0.643137 0.000000
0.886275 0.639216 0.000000
0.949020 0.631373 0.000000
0.000000 0.760784 0.023529
0.039216 0.760784 0.000000
0.105882 0.760784 0.000000
0.176471 0.760784 0.000000
0.247059 0.760784 0.000000
0.313725 0.760784 0.000000
0.384314 0.760784 0.000000
0.450980 0.760784 0.000000
0.521569 0.760784 0.000000
0.592157 0.760784 0.000000
0.658824 0.760784 0.000000
0.729412 0.760784 0.000000
0.760784 0.721569 0.000000
0.823529 0.713725 0.000000
0.886275 0.705882 0.000000
0.949020 0.698039 0.000000
0.000000 0.823529 0.023529
0.039216 0.823529 0.000000
0.109804 0.823529 0.000000
0.176471 0.823529 0.000000
0.247059 0.823529 0.000000
0.313725 0.823529 0.000000
0.384314 0.823529 0.000000
0.450980 0.823529 0.000000
0.521569 0.823529 0.000000
0.588235 0.823529 0.000000
0.658824 0.823529 0.000000
0.725490 0.823529 0.000000
0.796078 0.823529 0.000000
0.823529 0.780392 0.000000
0.886275 0.772549 0.000000
0.949020 0.768627 0.000000
0.000000 0.886275 0.019608
0.043137 0.886275 0.000000
0.113725 0.886275 0.000000
0.180392 0.886275 0.000000
0.247059 0.886275 0.000000
0.317647 0.886275 0.000000
0.384314 0.886275 0.000000
0.454902 0.886275 0.000000
0.521569 0.886275 0.000000
0.588235 0.886275 0.000000
0.658824 0.886275 0.000000
0.725490 0.886275 0.000000
0.796078 0.886275 0.000000
0.862745 0.886275 0.000000
0.886275 0.843137 0.000000
0.949020 0.835294 0.000000
0.000000 0.949020 0.015686
0.047059 0.949020 0.000000
0.113725 0.949020 0.000000
0.184314 0.949020 0.000000
0.250980 0.949020 0.000000
0.317647 0.949020 0.000000
0.388235 0.949020 0.000000
0.454902 0.949020 0.000000
0.521569 0.949020 0.000000
0.592157 0.949020 0.000000
0.658824 0.949020 0.000000
0.725490 0.949020 0.000000
0.792157 0.949020 0.000000
0.862745 0.949020 0.000000
0.929412 0.949020 0.000000
0.949020 0.901961 0.000000
0.000000 0.007843 0.125490
0.058824 0.000000 0.125490
0.121569 0.000000 0.125490
0.188235 0.000000 0.137255
0.254902 0.000000 0.141176
0.317647 0.000000 0.141176
0.380392 0.000000 0.145098
0.443137 0.000000 0.149020
0.505882 0.000000 0.152941
0.568627 0.000000 0.156863
0.635294 0.000000 0.156863
0.698039 0.000000 0.160784
0.760784 0.000000 0.164706
0.823529 0.000000 0.168627
0.886275 0.000000 0.172549
0.949020 0.000000 0.172549
0.000000 0.070588 0.125490
0.058824 0.058824 0.125490
0.121569 0.058824 0.125490
0.188235 0.050980 0.125490
0.254902 0.043137 0.125490
0.317647 0.039216 0.121569
0.380392 0.031373 0.117647
0.443137 0.023529 0.117647
0.505882 0.019608 0.113725
0.568627 0.011765 0.109804
0.635294 0.007843 0.105882
0.698039 0.000000 0.105882
0.760784 0.000000 0.105882
0.823529 0.000000 0.109804
0.886275 0.000000 0.113725
0.949020 0.000000 0.113725
0.000000 0.125490 0.121569
0.058824 0.125490 0.121569
0.125490 0.125490 0.125490
0.188235 0.121569 0.125490
0.254902 0.113725 0.121569
0.317647 0.105882 0.117647
0.380392 0.101961 0.113725
0.443137 0.094118 0.113725
0.505882 0.090196 0.109804
0.568627 0.082353 0.105882
0.635294 0.074510 0.101961
0.698039 0.070588 0.101961
0.760784 0.062745 0.098039
0.823529 0.058824 0.094118
0.886275 0.050980 0.094118
0.949020 0.043137 0.090196
0.000000 0.188235 0.117647
0.050980 0.188235 0.113725
0.125490 0.188235 0.121569
0.188235 0.188235 0.121569
0.254902 0.176471 0.113725
0.317647 0.168627 0.105882
0.380392 0.156863 0.101961
0.443137 0.149020 0.094118
0.505882 0.137255 0.090196
0.568627 0.129412 0.082353
0.635294 0.117647 0.074510
0.698039 0.109804 0.070588
0.760784 0.098039 0.062745
0.823529 0.090196 0.058824
0.886275 0.078431 0.050980
0.949020 0.070588 0.043137
0.000000 0.254902 0.113725
0.043137 0.254902 0.101961
0.121569 0.254902 0.113725
0.192157 0.254902 0.113725
0.254902 0.247059 0.113725
0.317647 0.235294 0.105882
0.380392 0.227451 0.101961
0.443137 0.215686 0.094118
0.505882 0.207843 0.090196
0.568627 0.196078 0.082353
0.635294 0.188235 0.074510
0.698039 0.176471 0.070588
0.760784 0.168627 0.062745
0.823529 0.156863 0.058824
0.886275 0.149020 0.050980
0.949020 0.137255 0.043137
0.000000 0.317647 0.109804
0.039216 0.317647 0.094118
0.117647 0.317647 0.105882
0.188235 0.317647 0.105882
0.258824 0.317647 0.105882
0.317647 0.305882 0.105882
0.380392 0.298039 0.101961
0.443137 0.286275 0.094118
0.505882 0.278431 0.090196
0.568627 0.266667 0.082353
0.635294 0.258824 0.074510
0.698039 0.247059 0.070588
0.760784 0.239216 0.062745
0.823529 0.227451 0.058824
0.886275 0.219608 0.050980
0.949020 0.207843 0.043137
0.000000 0.380392 0.105882
0.031373 0.380392 0.082353
0.113725 0.380392 0.101961
0.184314 0.380392 0.101961
0.254902 0.380392 0.101961
0.325490 0.380392 0.101961
0.380392 0.364706 0.101961
0.443137 0.356863 0.094118
0.505882 0.345098 0.090196
0.568627 0.337255 0.082353
0.635294 0.325490 0.074510
0.698039 0.317647 0.070588
0.760784 0.305882 0.062745
0.823529 0.298039 0.058824
0.886275 0.286275 0.050980
0.949020 0.278431 0.043137
0.000000 0.443137 0.105882
0.023529 0.443137 0.074510
0.113725 0.443137 0.094118
0.180392 0.443137 0.094118
0.250980 0.443137 0.094118
0.321569 0.443137 0.094118
0.392157 0.443137 0.094118
0.443137 0.427451 0.094118
0.505882 0.415686 0.090196
0.568627 0.407843 0.082353
0.635294 0.396078 0.074510
0.698039 0.388235 0.070588
0.760784 0.376471 0.062745
0.823529 0.368627 0.058824
0.886275 0.356863 0.050980
0.949020 0.349020 0.043137
0.000000 0.505882 0.101961
0.019608 0.505882 0.062745
0.109804 0.505882 0.090196
0.180392 0.505882 0.090196
0.247059 0.505882 0.090196
0.317647 0.505882 0.090196
0.388235 0.505882 0.090196
0.458824 0.505882 0.090196
0.505882 0.486275 0.090196
0.568627 0.474510 0.082353
0.635294 0.466667 0.074510
0.698039 0.454902 0.070588
0.760784 0.447059 0.062745
0.823529 0.435294 0.058824
0.886275 0.427451 0.050980
0.949020 0.415686 0.043137
0.000000 0.568627 0.098039
0.011765 0.568627 0.054902
0.105882 0.568627 0.082353
0.176471 0.568627 0.082353
0.247059 0.568627 0.082353
0.317647 0.568627 0.082353
0.384314 0.568627 0.082353
0.454902 0.568627 0.082353
0.525490 0.568627 0.082353
0.568627 0.545098 0.082353
0.635294 0.537255 0.074510
0.698039 0.525490 0.070588
0.760784 0.517647 0.062745
0.823529 0.505882 0.058824
0.886275 0.498039 0.050980
0.949020 0.486275 0.043137
0.000000 0.635294 0.094118
0.007843 0.635294 0.043137
0.101961 0.635294 0.074510
0.172549 0.635294 0.074510
0.243137 0.635294 0.074510
0.313725 0.635294 0.074510
0.384314 0.635294 0.074510
0.450980 0.635294 0.074510
0.521569 0.635294 0.074510
0.592157 0.635294 0.074510
0.635294 0.603922 0.074510
0.698039 0.596078 0.070588
0.760784 0.584314 0.062745
0.823529 0.576471 0.058824
0.886275 0.564706 0.050980
0.949020 0.556863 0.043137
0.000000 0.698039 0.090196
0.000000 0.698039 0.035294
0.101961 0.698039 0.070588
0.172549 0.698039 0.070588
0.239216 0.698039 0.070588
0.309804 0.698039 0.070588
0.380392 0.698039 0.070588
0.450980 0.698039 0.070588
0.517647 0.698039 0.070588
0.588235 0.698039 0.070588
0.658824 0.698039 0.070588
0.698039 0.666667 0.070588
0.760784 0.654902 0.062745
0.823529 0.647059 0.058824
0.886275 0.635294 0.050980
0.949020 0.627451 0.043137
0.000000 0.760784 0.090196
0.000000 0.760784 0.031373
0.098039 0.760784 0.062745
0.168627 0.760784 0.062745
0.239216 0.760784 0.062745
0.305882 0.760784 0.062745
0.376471 0.760784 0.062745
0.447059 0.760784 0.062745
0.517647 0.760784 0.062745
0.584314 0.760784 0.062745
0.654902 0.760784 0.062745
0.725490 0.760784 0.062745
0.760784 0.725490 0.062745
0.823529 0.713725 0.058824
0.886275 0.705882 0.050980
0.949020 0.694118 0.043137
0.000000 0.823529 0.086275
0.000000 0.823529 0.027451
0.094118 0.823529 0.058824
0.164706 0.823529 0.058824
0.235294 0.823529 0.058824
0.305882 0.823529 0.058824
0.372549 0.823529 0.058824
0.443137 0.823529 0.058824
0.513725 0.823529 0.058824
0.584314 0.823529 0.058824
0.650980 0.823529 0.058824
0.721569 0.823529 0.058824
0.792157 0.823529 0.058824
0.823529 0.784314 0.058824
0.886275 0.776471 0.050980
0.949020 0.764706 0.043137
0.000000 0.886275 0.082353
0.000000 0.886275 0.023529
0.094118 0.886275 0.050980
0.160784 0.886275 0.050980
0.231373 0.886275 0.050980
0.301961 0.886275 0.050980
0.372549 0.886275 0.050980
0.439216 0.886275 0.050980
0.509804 0.886275 0.050980
0.580392 0.886275 0.050980
0.650980 0.886275 0.050980
0.717647 0.886275 0.050980
0.788235 0.886275 0.050980
0.858824 0.886275 0.050980
0.886275 0.843137 0.050980
0.949020 0.835294 0.043137
0.000000 0.949020 0.078431
0.000000 0.949020 0.019608
0.090196 0.949020 0.043137
0.160784 0.949020 0.043137
0.227451 0.949020 0.043137
0.298039 0.949020 0.043137
0.368627 0.949020 0.043137
0.439216 0.949020 0.043137
0.505882 0.949020 0.043137
0.576471 0.949020 0.043137
0.647059 0.949020 0.043137
0.717647 0.949020 0.043137
0.788235 0.949020 0.043137
0.854902 0.949020 0.043137
0.925490 0.949020 0.043137
0.949020 0.905882 0.043137
0.000000 0.007843 0.188235
0.054902 0.000000 0.188235
0.117647 0.000000 0.188235
0.180392 0.000000 0.188235
0.254902 0.000000 0.203922
0.317647 0.000000 0.203922
0.380392 0.000000 0.207843
0.443137 0.000000 0.211765
0.505882 0.000000 0.215686
0.568627 0.000000 0.219608
0.635294 0.000000 0.223529
0.698039 0.000000 0.223529
0.760784 0.000000 0.227451
0.823529 0.000000 0.231373
0.886275 0.000000 0.235294
0.949020 0.000000 0.239216
0.000000 0.074510 0.188235
0.050980 0.058824 0.188235
0.113725 0.050980 0.188235
0.184314 0.050980 0.188235
0.254902 0.043137 0.192157
0.317647 0.039216 0.192157
0.380392 0.031373 0.188235
0.443137 0.023529 0.184314
0.505882 0.019608 0.184314
0.568627 0.011765 0.180392
0.635294 0.007843 0.176471
0.698039 0.000000 0.172549
0.760784 0.000000 0.176471
0.823529 0.000000 0.176471
0.886275 0.000000 0.180392
0.949020 0.000000 0.184314
0.000000 0.137255 0.188235
0.050980 0.125490 0.188235
0.121569 0.125490 0.188235
0.188235 0.121569 0.188235
0.254902 0.113725 0.192157
0.317647 0.105882 0.188235
0.380392 0.101961 0.184314
0.443137 0.094118 0.180392
0.505882 0.090196 0.180392
0.568627 0.082353 0.176471
0.635294 0.074510 0.172549
0.698039 0.070588 0.172549
0.760784 0.062745 0.168627
0.823529 0.058824 0.164706
0.886275 0.050980 0.160784
0.949020 0.043137 0.160784
0.000000 0.188235 0.180392
0.050980 0.188235 0.184314
0.121569 0.188235 0.188235
0.188235 0.188235 0.188235
0.254902 0.184314 0.188235
0.317647 0.176471 0.184314
0.380392 0.172549 0.180392
0.443137 0.164706 0.180392
0.505882 0.156863 0.176471
0.568627 0.152941 0.172549
0.635294 0.145098 0.168627
0.698039 0.141176 0.168627
0.760784 0.133333 0.164706
0.823529 0.125490 0.160784
0.886275 0.121569 0.156863
0.949020 0.113725 0.156863
0.000000 0.254902 0.176471
0.043137 0.254902 0.172549
0.113725 0.254902 0.176471
0.188235 0.254902 0.184314
0.254902 0.250980 0.184314
0.317647 0.239216 0.176471
0.380392 0.231373 0.172549
0.443137 0.219608 0.164706
0.505882 0.211765 0.156863
0.568627 0.200000 0.152941
0.635294 0.192157 0.145098
0.698039 0.180392 0.141176
0.760784 0.172549 0.133333
0.823529 0.160784 0.125490
0.886275 0.152941 0.121569
0.949020 0.141176 0.113725
0.000000 0.317647 0.172549
0.039216 0.317647 0.164706
0.105882 0.317647 0.168627
0.184314 0.317647 0.176471
0.254902 0.317647 0.176471
0.317647 0.309804 0.176471
0.380392 0.298039 0.172549
0.443137 0.290196 0.164706
0.505882 0.278431 0.156863
0.568627 0.270588 0.152941
0.635294 0.258824 0.145098
0.698039 0.250980 0.141176
0.760784 0.239216 0.133333
0.823529 0.231373 0.125490
0.886275 0.219608 0.121569
0.949020 0.211765 0.113725
0.000000 0.380392 0.172549
0.031373 0.380392 0.152941
0.101961 0.380392 0.156863
0.180392 0.380392 0.172549
0.250980 0.380392 0.172549
0.321569 0.380392 0.172549
0.380392 0.368627 0.172549
0.443137 0.360784 0.164706
0.505882 0.349020 0.156863
0.568627 0.341176 0.152941
0.635294 0.329412 0.145098
0.698039 0.321569 0.141176
0.760784 0.309804 0.133333
0.823529 0.301961 0.125490
0.886275 0.290196 0.121569
0.949020 0.282353 0.113725
0.000000 0.443137 0.168627
0.023529 0.443137 0.145098
0.094118 0.443137 0.149020
0.180392 0.443137 0.164706
0.247059 0.443137 0.164706
0.317647 0.443137 0.164706
0.388235 0.443137 0.164706
