pkg/planetgen/color/luts/super_terran.cube
TITLE "super_terran archetype LUT"
LUT_3D_SIZE 6
0.000000 0.000000 0.000000
0.188235 0.000000 0.007843
0.380392 0.000000 0.019608
0.568627 0.000000 0.027451
0.760784 0.000000 0.039216
0.949020 0.000000 0.047059
0.007843 0.188235 0.000000
0.188235 0.180392 0.000000
0.380392 0.172549 0.000000
0.568627 0.160784 0.000000
0.760784 0.152941 0.000000
0.949020 0.141176 0.000000
0.019608 0.380392 0.000000
0.207843 0.380392 0.000000
0.380392 0.360784 0.000000
0.568627 0.352941 0.000000
0.760784 0.341176 0.000000
0.949020 0.333333 0.000000
0.027451 0.568627 0.000000
0.219608 0.568627 0.000000
0.407843 0.568627 0.000000
0.568627 0.541176 0.000000
0.760784 0.533333 0.000000
0.949020 0.521569 0.000000
0.039216 0.760784 0.000000
0.227451 0.760784 0.000000
0.419608 0.760784 0.000000
0.607843 0.760784 0.000000
0.760784 0.721569 0.000000
0.949020 0.713725 0.000000
0.047059 0.949020 0.000000
0.239216 0.949020 0.000000
0.427451 0.949020 0.000000
0.615686 0.949020 0.000000
0.807843 0.949020 0.000000
0.949020 0.901961 0.000000
0.000000 0.007843 0.188235
0.180392 0.000000 0.188235
0.380392 0.000000 0.207843
0.568627 0.000000 0.219608
0.760784 0.000000 0.227451
0.949020 0.000000 0.239216
0.000000 0.188235 0.180392
0.188235 0.188235 0.188235
0.380392 0.172549 0.180392
0.568627 0.152941 0.172549
0.760784 0.133333 0.164706
0.949020 0.113725 0.156863
0.000000 0.380392 0.172549
0.180392 0.380392 0.172549
0.380392 0.368627 0.172549
0.568627 0.341176 0.152941
0.760784 0.309804 0.133333
0.949020 0.282353 0.113725
0.000000 0.568627 0.160784
0.172549 0.568627 0.152941
0.380392 0.568627 0.152941
0.568627 0.549020 0.152941
0.760784 0.521569 0.133333
0.949020 0.490196 0.113725
0.000000 0.760784 0.152941
0.164706 0.760784 0.133333
0.372549 0.760784 0.133333
0.580392 0.760784 0.133333
0.760784 0.729412 0.133333
0.949020 0.698039 0.113725
0.000000 0.949020 0.141176
0.156863 0.949020 0.113725
0.364706 0.949020 0.113725
0.572549 0.949020 0.113725
0.784314 0.949020 0.113725
0.949020 0.909804 0.113725
0.000000 0.019608 0.380392
0.172549 0.000000 0.380392
0.360784 0.000000 0.380392
0.568627 0.000000 0.407843
0.760784 0.000000 0.419608
0.949020 0.000000 0.427451
0.000000 0.207843 0.380392
0.172549 0.180392 0.380392
0.368627 0.172549 0.380392
0.568627 0.152941 0.380392
0.760784 0.133333 0.372549
0.949020 0.113725 0.364706
0.000000 0.380392 0.360784
0.172549 0.380392 0.368627
0.380392 0.380392 0.380392
0.568627 0.360784 0.372549
0.760784 0.341176 0.364706
0.949020 0.321569 0.352941
0.000000 0.568627 0.352941
0.152941 0.568627 0.341176
0.372549 0.568627 0.360784
0.568627 0.560784 0.360784
0.760784 0.529412 0.341176
0.949020 0.501961 0.321569
0.000000 0.760784 0.341176
0.133333 0.760784 0.309804
0.364706 0.760784 0.341176
0.572549 0.760784 0.341176
0.760784 0.737255 0.341176
0.949020 0.709804 0.321569
0.000000 0.949020 0.333333
0.113725 0.949020 0.282353
0.352941 0.949020 0.321569
0.564706 0.949020 0.321569
0.772549 0.949020 0.321569
0.949020 0.917647 0.321569
0.000000 0.027451 0.568627
0.160784 0.000000 0.568627
0.352941 0.000000 0.568627
0.541176 0.000000 0.568627
0.760784 0.000000 0.607843
0.949020 0.000000 0.615686
0.000000 0.219608 0.568627
0.152941 0.172549 0.568627
0.341176 0.152941 0.568627
0.549020 0.152941 0.568627
0.760784 0.133333 0.580392
0.949020 0.113725 0.572549
0.000000 0.407843 0.568627
0.152941 0.380392 0.568627
0.360784 0.372549 0.568627
0.560784 0.360784 0.568627
0.760784 0.341176 0.572549
0.949020 0.321569 0.564706
0.000000 0.568627 0.541176
0.152941 0.568627 0.549020
0.360784 0.568627 0.560784
0.568627 0.568627 0.568627
0.760784 0.552941 0.560784
0.949020 0.533333 0.552941
0.000000 0.760784 0.533333
0.133333 0.760784 0.521569
0.341176 0.760784 0.529412
0.560784 0.760784 0.552941
0.760784 0.749020 0.552941
0.949020 0.721569 0.533333
0.000000 0.949020 0.521569
0.113725 0.949020 0.490196
0.321569 0.949020 0.501961
0.552941 0.949020 0.533333
0.760784 0.949020 0.533333
0.949020 0.929412 0.533333
0.000000 0.039216 0.760784
0.152941 0.000000 0.760784
0.341176 0.000000 0.760784
0.533333 0.000000 0.760784
0.721569 0.000000 0.760784
0.949020 0.000000 0.807843
0.000000 0.227451 0.760784
0.133333 0.164706 0.760784
0.309804 0.133333 0.760784
0.521569 0.133333 0.760784
0.729412 0.133333 0.760784
0.949020 0.113725 0.784314
0.000000 0.419608 0.760784
0.133333 0.372549 0.760784
0.341176 0.364706 0.760784
0.529412 0.341176 0.760784
0.737255 0.341176 0.760784
0.949020 0.321569 0.772549
0.000000 0.607843 0.760784
0.133333 0.580392 0.760784
0.341176 0.572549 0.760784
0.552941 0.560784 0.760784
0.749020 0.552941 0.760784
0.949020 0.533333 0.760784
0.000000 0.760784 0.721569
0.133333 0.760784 0.729412
0.341176 0.760784 0.737255
0.552941 0.760784 0.749020
0.760784 0.760784 0.760784
0.949020 0.741176 0.752941
0.000000 0.949020 0.713725
0.113725 0.949020 0.698039
0.321569 0.949020 0.709804
0.533333 0.949020 0.721569
0.752941 0.949020 0.741176
0.949020 0.941176 0.741176
0.000000 0.047059 0.949020
0.141176 0.000000 0.949020
0.333333 0.000000 0.949020
0.521569 0.000000 0.949020
0.713725 0.000000 0.949020
0.901961 0.000000 0.949020
0.000000 0.239216 0.949020
0.113725 0.156863 0.949020
0.282353 0.113725 0.949020
0.490196 0.113725 0.949020
0.698039 0.113725 0.949020
0.909804 0.113725 0.949020
0.000000 0.427451 0.949020
0.113725 0.364706 0.949020
0.321569 0.352941 0.949020
0.501961 0.321569 0.949020
0.709804 0.321569 0.949020
0.917647 0.321569 0.949020
0.000000 0.615686 0.949020
0.113725 0.572549 0.949020
0.321569 0.564706 0.949020
0.533333 0.552941 0.949020
0.721569 0.533333 0.949020
0.929412 0.533333 0.949020
0.000000 0.807843 0.949020
0.113725 0.784314 0.949020
0.321569 0.772549 0.949020
0.533333 0.760784 0.949020
0.741176 0.752941 0.949020
0.941176 0.741176 0.949020
0.000000 0.949020 0.901961
0.113725 0.949020 0.909804
0.321569 0.949020 0.917647
0.533333 0.949020 0.929412
0.741176 0.949020 0.941176
0.949020 0.949020 0.949020
