pkg/planetgen/color/luts/tundra.cube
TITLE "tundra archetype LUT"
LUT_3D_SIZE 16
0.000000 0.000000 0.000000
0.070588 0.015686 0.011765
0.141176 0.031373 0.019608
0.211765 0.047059 0.031373
0.278431 0.062745 0.043137
0.349020 0.078431 0.050980
0.419608 0.094118 0.062745
0.490196 0.109804 0.074510
0.560784 0.125490 0.082353
0.631373 0.137255 0.094118
0.701961 0.152941 0.105882
0.768627 0.168627 0.113725
0.839216 0.184314 0.125490
0.909804 0.200000 0.137255
0.980392 0.215686 0.145098
1.000000 0.219608 0.149020
0.011765 0.070588 0.015686
0.066667 0.070588 0.011765
0.141176 0.090196 0.019608
0.211765 0.105882 0.031373
0.278431 0.121569 0.043137
0.349020 0.137255 0.050980
0.419608 0.152941 0.062745
0.490196 0.168627 0.074510
0.560784 0.184314 0.082353
0.631373 0.200000 0.094118
0.701961 0.215686 0.105882
0.768627 0.231373 0.113725
0.839216 0.243137 0.125490
0.909804 0.258824 0.137255
0.980392 0.274510 0.145098
1.000000 0.278431 0.149020
0.019608 0.141176 0.031373
0.070588 0.141176 0.019608
0.129412 0.141176 0.019608
0.211765 0.164706 0.031373
0.278431 0.180392 0.043137
0.349020 0.196078 0.050980
0.419608 0.211765 0.062745
0.490196 0.227451 0.074510
0.560784 0.243137 0.082353
0.631373 0.258824 0.094118
0.701961 0.274510 0.105882
0.768627 0.290196 0.113725
0.839216 0.305882 0.125490
0.909804 0.321569 0.137255
0.980392 0.337255 0.145098
1.000000 0.333333 0.149020
0.031373 0.211765 0.047059
0.074510 0.211765 0.031373
0.137255 0.211765 0.031373
0.196078 0.211765 0.031373
0.278431 0.239216 0.043137
0.349020 0.254902 0.050980
0.419608 0.270588 0.062745
0.490196 0.286275 0.074510
0.560784 0.301961 0.082353
0.631373 0.317647 0.094118
0.701961 0.333333 0.105882
0.768627 0.349020 0.113725
0.839216 0.364706 0.125490
0.909804 0.380392 0.137255
0.980392 0.396078 0.145098
1.000000 0.392157 0.149020
0.043137 0.278431 0.062745
0.082353 0.278431 0.043137
0.141176 0.278431 0.043137
0.200000 0.278431 0.043137
0.258824 0.278431 0.043137
0.349020 0.313725 0.050980
0.419608 0.329412 0.062745
0.490196 0.345098 0.074510
0.560784 0.360784 0.082353
0.631373 0.376471 0.094118
0.701961 0.392157 0.105882
0.768627 0.407843 0.113725
0.839216 0.423529 0.125490
0.909804 0.439216 0.137255
0.980392 0.454902 0.145098
1.000000 0.447059 0.149020
0.050980 0.349020 0.078431
0.086275 0.349020 0.050980
0.145098 0.349020 0.050980
0.207843 0.349020 0.050980
0.266667 0.349020 0.050980
0.325490 0.349020 0.050980
0.419608 0.392157 0.062745
0.490196 0.403922 0.074510
0.560784 0.419608 0.082353
0.631373 0.435294 0.094118
0.701961 0.450980 0.105882
0.768627 0.466667 0.113725
0.839216 0.482353 0.125490
0.909804 0.498039 0.137255
0.980392 0.513725 0.145098
1.000000 0.505882 0.149020
0.062745 0.419608 0.094118
0.094118 0.419608 0.062745
0.152941 0.419608 0.062745
0.211765 0.419608 0.062745
0.270588 0.419608 0.062745
0.329412 0.419608 0.062745
0.392157 0.419608 0.062745
0.490196 0.466667 0.074510
0.560784 0.482353 0.082353
0.631373 0.498039 0.094118
0.701961 0.509804 0.105882
0.768627 0.525490 0.113725
0.839216 0.541176 0.125490
0.909804 0.556863 0.137255
0.980392 0.572549 0.145098
1.000000 0.560784 0.149020
0.074510 0.490196 0.109804
0.098039 0.490196 0.074510
0.156863 0.490196 0.074510
0.215686 0.490196 0.074510
0.278431 0.490196 0.074510
0.337255 0.490196 0.074510
0.396078 0.490196 0.074510
0.454902 0.490196 0.074510
0.560784 0.541176 0.082353
0.631373 0.556863 0.094118
0.701961 0.572549 0.105882
0.768627 0.588235 0.113725
0.839216 0.603922 0.125490
0.909804 0.615686 0.137255
0.980392 0.631373 0.145098
1.000000 0.615686 0.149020
0.082353 0.560784 0.125490
0.101961 0.560784 0.082353
0.164706 0.560784 0.082353
0.223529 0.560784 0.082353
0.282353 0.560784 0.082353
0.341176 0.560784 0.082353
0.400000 0.560784 0.082353
0.462745 0.560784 0.082353
0.521569 0.560784 0.082353
0.631373 0.615686 0.094118
0.701961 0.631373 0.105882
0.768627 0.647059 0.113725
0.839216 0.662745 0.125490
0.909804 0.678431 0.137255
0.980392 0.694118 0.145098
1.000000 0.674510 0.149020
0.094118 0.631373 0.137255
0.109804 0.631373 0.094118
0.168627 0.631373 0.094118
0.227451 0.631373 0.094118
0.286275 0.631373 0.094118
0.349020 0.631373 0.094118
0.407843 0.631373 0.094118
0.466667 0.631373 0.094118
0.525490 0.631373 0.094118
0.584314 0.631373 0.094118
0.701961 0.690196 0.105882
0.768627 0.705882 0.113725
0.839216 0.721569 0.125490
0.909804 0.737255 0.137255
0.980392 0.752941 0.145098
1.000000 0.729412 0.149020
0.105882 0.701961 0.152941
0.113725 0.701961 0.105882
0.172549 0.701961 0.105882
0.235294 0.701961 0.105882
0.294118 0.701961 0.105882
0.352941 0.701961 0.105882
0.411765 0.701961 0.105882
0.470588 0.701961 0.105882
0.533333 0.701961 0.105882
0.592157 0.701961 0.105882
0.650980 0.701961 0.105882
0.768627 0.764706 0.113725
0.839216 0.780392 0.125490
0.909804 0.796078 0.137255
0.980392 0.811765 0.145098
1.000000 0.788235 0.149020
0.113725 0.768627 0.168627
0.121569 0.768627 0.113725
0.180392 0.768627 0.113725
0.239216 0.768627 0.113725
0.298039 0.768627 0.113725
0.356863 0.768627 0.113725
0.419608 0.768627 0.113725
0.478431 0.768627 0.113725
0.537255 0.768627 0.113725
0.596078 0.768627 0.113725
0.654902 0.768627 0.113725
0.713725 0.768627 0.113725
0.839216 0.839216 0.125490
0.909804 0.854902 0.137255
0.980392 0.870588 0.145098
1.000000 0.843137 0.149020
0.125490 0.839216 0.184314
0.125490 0.839216 0.125490
0.184314 0.839216 0.125490
0.243137 0.839216 0.125490
0.305882 0.839216 0.125490
0.364706 0.839216 0.125490
0.423529 0.839216 0.125490
0.482353 0.839216 0.125490
0.541176 0.839216 0.125490
0.603922 0.839216 0.125490
0.662745 0.839216 0.125490
0.721569 0.839216 0.125490
0.780392 0.839216 0.125490
0.905882 0.909804 0.137255
0.980392 0.929412 0.145098
1.000000 0.901961 0.149020
0.137255 0.909804 0.200000
0.137255 0.909804 0.141176
0.192157 0.909804 0.137255
0.250980 0.909804 0.137255
0.309804 0.909804 0.137255
0.368627 0.909804 0.137255
0.427451 0.909804 0.137255
0.490196 0.909804 0.137255
0.549020 0.909804 0.137255
0.607843 0.909804 0.137255
0.666667 0.909804 0.137255
0.725490 0.909804 0.137255
0.784314 0.909804 0.137255
0.847059 0.909804 0.137255
0.968627 0.980392 0.145098
1.000000 0.956863 0.149020
0.145098 0.980392 0.215686
0.145098 0.980392 0.156863
0.196078 0.980392 0.145098
0.254902 0.980392 0.145098
0.313725 0.980392 0.145098
0.376471 0.980392 0.145098
0.435294 0.980392 0.145098
0.494118 0.980392 0.145098
0.552941 0.980392 0.145098
0.611765 0.980392 0.145098
0.674510 0.980392 0.145098
0.733333 0.980392 0.145098
0.792157 0.980392 0.145098
0.850980 0.980392 0.145098
0.909804 0.980392 0.145098
0.984314 1.000000 0.149020
0.149020 1.000000 0.219608
0.149020 1.000000 0.164706
0.192157 1.000000 0.149020
0.250980 1.000000 0.149020
0.305882 1.000000 0.149020
0.360784 1.000000 0.149020
0.419608 1.000000 0.149020
0.474510 1.000000 0.149020
0.533333 1.000000 0.149020
0.588235 1.000000 0.149020
0.647059 1.000000 0.149020
0.701961 1.000000 0.149020
0.760784 1.000000 0.149020
0.815686 1.000000 0.149020
0.870588 1.000000 0.149020
0.929412 1.000000 0.149020
0.015686 0.011765 0.070588
0.070588 0.011765 0.066667
0.141176 0.019608 0.070588
0.211765 0.031373 0.074510
0.278431 0.043137 0.082353
0.349020 0.050980 0.086275
0.419608 0.062745 0.094118
0.490196 0.074510 0.098039
0.560784 0.082353 0.101961
0.631373 0.094118 0.109804
0.701961 0.105882 0.113725
0.768627 0.113725 0.121569
0.839216 0.125490 0.125490
0.909804 0.141176 0.137255
0.980392 0.156863 0.145098
1.000000 0.164706 0.149020
0.011765 0.066667 0.070588
0.070588 0.070588 0.070588
0.141176 0.086275 0.082353
0.211765 0.101961 0.090196
0.278431 0.117647 0.101961
0.349020 0.133333 0.113725
0.419608 0.149020 0.121569
0.490196 0.164706 0.133333
0.560784 0.176471 0.145098
0.631373 0.192157 0.152941
0.701961 0.207843 0.164706
0.768627 0.223529 0.176471
0.839216 0.239216 0.184314
0.909804 0.254902 0.196078
0.980392 0.270588 0.207843
1.000000 0.274510 0.207843
0.019608 0.141176 0.090196
0.082353 0.141176 0.086275
0.133333 0.141176 0.082353
0.211765 0.160784 0.090196
0.278431 0.176471 0.101961
0.349020 0.192157 0.113725
0.419608 0.207843 0.121569
0.490196 0.223529 0.133333
0.560784 0.239216 0.145098
0.631373 0.254902 0.152941
0.701961 0.266667 0.164706
0.768627 0.282353 0.176471
0.839216 0.298039 0.184314
0.909804 0.313725 0.196078
0.980392 0.329412 0.207843
1.000000 0.329412 0.207843
0.031373 0.211765 0.105882
0.090196 0.211765 0.101961
0.141176 0.211765 0.090196
0.200000 0.211765 0.090196
0.278431 0.235294 0.101961
0.349020 0.250980 0.113725
0.419608 0.266667 0.121569
0.490196 0.282353 0.133333
0.560784 0.298039 0.145098
0.631373 0.313725 0.152941
0.701961 0.329412 0.164706
0.768627 0.345098 0.176471
0.839216 0.360784 0.184314
0.909804 0.372549 0.196078
0.980392 0.388235 0.207843
1.000000 0.384314 0.207843
0.043137 0.278431 0.121569
0.101961 0.278431 0.117647
0.145098 0.278431 0.101961
0.203922 0.278431 0.101961
0.266667 0.278431 0.101961
0.349020 0.309804 0.113725
0.419608 0.325490 0.121569
0.490196 0.341176 0.133333
0.560784 0.356863 0.145098
0.631373 0.372549 0.152941
0.701961 0.388235 0.164706
0.768627 0.403922 0.176471
0.839216 0.419608 0.184314
0.909804 0.435294 0.196078
0.980392 0.450980 0.207843
1.000000 0.443137 0.207843
0.050980 0.349020 0.137255
0.113725 0.349020 0.133333
0.152941 0.349020 0.113725
0.211765 0.349020 0.113725
0.270588 0.349020 0.113725
0.329412 0.349020 0.113725
0.419608 0.384314 0.121569
0.490196 0.400000 0.133333
0.560784 0.415686 0.145098
0.631373 0.431373 0.152941
0.701961 0.447059 0.164706
0.768627 0.462745 0.176471
0.839216 0.478431 0.184314
0.909804 0.494118 0.196078
0.980392 0.509804 0.207843
1.000000 0.498039 0.207843
0.062745 0.419608 0.152941
0.121569 0.419608 0.149020
0.156863 0.419608 0.121569
0.215686 0.419608 0.121569
0.274510 0.419608 0.121569
0.337255 0.419608 0.121569
0.396078 0.419608 0.121569
0.490196 0.458824 0.133333
0.560784 0.474510 0.145098
0.631373 0.490196 0.152941
0.701961 0.505882 0.164706
0.768627 0.521569 0.176471
0.839216 0.537255 0.184314
0.909804 0.552941 0.196078
0.980392 0.568627 0.207843
1.000000 0.556863 0.207843
0.074510 0.490196 0.168627
0.133333 0.490196 0.164706
0.164706 0.490196 0.133333
0.223529 0.490196 0.133333
0.282353 0.490196 0.133333
0.341176 0.490196 0.133333
0.400000 0.490196 0.133333
0.458824 0.490196 0.133333
0.560784 0.533333 0.145098
0.631373 0.549020 0.152941
0.701961 0.564706 0.164706
0.768627 0.580392 0.176471
0.839216 0.596078 0.184314
0.909804 0.611765 0.196078
0.980392 0.627451 0.207843
1.000000 0.611765 0.207843
0.082353 0.560784 0.184314
0.145098 0.560784 0.176471
0.168627 0.560784 0.145098
0.227451 0.560784 0.145098
0.286275 0.560784 0.145098
0.345098 0.560784 0.145098
0.407843 0.560784 0.145098
0.466667 0.560784 0.145098
0.525490 0.560784 0.145098
0.631373 0.611765 0.152941
0.701961 0.627451 0.164706
0.768627 0.639216 0.176471
0.839216 0.654902 0.184314
0.909804 0.670588 0.196078
0.980392 0.686275 0.207843
1.000000 0.670588 0.207843
0.094118 0.631373 0.200000
0.152941 0.631373 0.192157
0.172549 0.631373 0.152941
0.235294 0.631373 0.152941
0.294118 0.631373 0.152941
0.352941 0.631373 0.152941
0.411765 0.631373 0.152941
0.470588 0.631373 0.152941
0.529412 0.631373 0.152941
0.592157 0.631373 0.152941
0.701961 0.686275 0.164706
0.768627 0.701961 0.176471
0.839216 0.717647 0.184314
0.909804 0.733333 0.196078
0.980392 0.745098 0.207843
1.000000 0.725490 0.207843
0.105882 0.701961 0.215686
0.164706 0.701961 0.207843
0.180392 0.701961 0.164706
0.239216 0.701961 0.164706
0.298039 0.701961 0.164706
0.356863 0.701961 0.164706
0.415686 0.701961 0.164706
0.478431 0.701961 0.164706
0.537255 0.701961 0.164706
0.596078 0.701961 0.164706
0.654902 0.701961 0.164706
0.768627 0.760784 0.176471
0.839216 0.776471 0.184314
0.909804 0.792157 0.196078
0.980392 0.807843 0.207843
1.000000 0.784314 0.207843
0.113725 0.768627 0.231373
0.176471 0.768627 0.223529
0.184314 0.768627 0.176471
0.243137 0.768627 0.176471
0.301961 0.768627 0.176471
0.364706 0.768627 0.176471
0.423529 0.768627 0.176471
0.482353 0.768627 0.176471
0.541176 0.768627 0.176471
0.600000 0.768627 0.176471
0.662745 0.768627 0.176471
0.721569 0.768627 0.176471
0.839216 0.835294 0.184314
0.909804 0.850980 0.196078
0.980392 0.866667 0.207843
1.000000 0.839216 0.207843
0.125490 0.839216 0.243137
0.184314 0.839216 0.239216
0.192157 0.839216 0.184314
0.250980 0.839216 0.184314
0.309804 0.839216 0.184314
0.368627 0.839216 0.184314
0.427451 0.839216 0.184314
0.486275 0.839216 0.184314
0.549020 0.839216 0.184314
0.607843 0.839216 0.184314
0.666667 0.839216 0.184314
0.725490 0.839216 0.184314
0.784314 0.839216 0.184314
0.909804 0.909804 0.196078
0.980392 0.925490 0.207843
1.000000 0.898039 0.207843
0.137255 0.909804 0.258824
0.196078 0.909804 0.254902
0.196078 0.909804 0.196078
0.254902 0.909804 0.196078
0.313725 0.909804 0.196078
0.372549 0.909804 0.196078
0.435294 0.909804 0.196078
0.494118 0.909804 0.196078
0.552941 0.909804 0.196078
0.611765 0.909804 0.196078
0.670588 0.909804 0.196078
0.733333 0.909804 0.196078
0.792157 0.909804 0.196078
0.850980 0.909804 0.196078
0.976471 0.980392 0.207843
1.000000 0.952941 0.207843
0.145098 0.980392 0.274510
0.207843 0.980392 0.270588
0.207843 0.980392 0.211765
0.262745 0.980392 0.207843
0.321569 0.980392 0.207843
0.380392 0.980392 0.207843
0.439216 0.980392 0.207843
0.498039 0.980392 0.207843
0.556863 0.980392 0.207843
0.619608 0.980392 0.207843
0.678431 0.980392 0.207843
0.737255 0.980392 0.207843
0.796078 0.980392 0.207843
0.854902 0.980392 0.207843
0.913725 0.980392 0.207843
0.992157 1.000000 0.207843
0.149020 1.000000 0.278431
0.207843 1.000000 0.274510
0.207843 1.000000 0.215686
0.254902 1.000000 0.207843
0.309804 1.000000 0.207843
0.368627 1.000000 0.207843
0.423529 1.000000 0.207843
0.482353 1.000000 0.207843
0.537255 1.000000 0.207843
0.592157 1.000000 0.207843
0.650980 1.000000 0.207843
0.705882 1.000000 0.207843
0.764706 1.000000 0.207843
0.819608 1.000000 0.207843
0.878431 1.000000 0.207843
0.933333 1.000000 0.207843
0.031373 0.019608 0.141176
0.090196 0.019608 0.141176
0.141176 0.019608 0.129412
0.211765 0.031373 0.137255
0.278431 0.043137 0.141176
0.349020 0.050980 0.145098
0.419608 0.062745 0.152941
0.490196 0.074510 0.156863
0.560784 0.082353 0.164706
0.631373 0.094118 0.168627
0.701961 0.105882 0.172549
0.768627 0.113725 0.180392
0.839216 0.125490 0.184314
0.909804 0.137255 0.192157
0.980392 0.145098 0.196078
1.000000 0.149020 0.192157
0.019608 0.070588 0.141176
0.086275 0.082353 0.141176
0.141176 0.082353 0.133333
0.211765 0.090196 0.141176
0.278431 0.101961 0.145098
0.349020 0.113725 0.152941
0.419608 0.121569 0.156863
0.490196 0.133333 0.164706
0.560784 0.145098 0.168627
0.631373 0.152941 0.172549
0.701961 0.164706 0.180392
0.768627 0.176471 0.184314
0.839216 0.184314 0.192157
0.909804 0.196078 0.196078
0.980392 0.211765 0.207843
1.000000 0.215686 0.207843
0.019608 0.129412 0.141176
0.082353 0.133333 0.141176
0.141176 0.141176 0.141176
0.211765 0.156863 0.149020
0.278431 0.172549 0.160784
0.349020 0.188235 0.172549
0.419608 0.200000 0.180392
0.490196 0.215686 0.192157
0.560784 0.231373 0.203922
0.631373 0.247059 0.211765
0.701961 0.262745 0.223529
0.768627 0.278431 0.235294
0.839216 0.294118 0.243137
0.909804 0.309804 0.254902
0.980392 0.325490 0.266667
1.000000 0.325490 0.262745
0.031373 0.211765 0.164706
0.090196 0.211765 0.160784
0.149020 0.211765 0.156863
0.203922 0.211765 0.149020
0.278431 0.231373 0.160784
0.349020 0.247059 0.172549
0.419608 0.262745 0.180392
0.490196 0.278431 0.192157
0.560784 0.294118 0.203922
0.631373 0.305882 0.211765
0.701961 0.321569 0.223529
0.768627 0.337255 0.235294
0.839216 0.352941 0.243137
0.909804 0.368627 0.254902
0.980392 0.384314 0.266667
1.000000 0.380392 0.262745
0.043137 0.278431 0.180392
0.101961 0.278431 0.176471
0.160784 0.278431 0.172549
0.211765 0.278431 0.160784
0.270588 0.278431 0.160784
0.349020 0.305882 0.172549
0.419608 0.321569 0.180392
0.490196 0.337255 0.192157
0.560784 0.352941 0.203922
0.631373 0.368627 0.211765
0.701961 0.384314 0.223529
0.768627 0.400000 0.235294
0.839216 0.411765 0.243137
0.909804 0.427451 0.254902
0.980392 0.443137 0.266667
1.000000 0.439216 0.262745
0.050980 0.349020 0.196078
0.113725 0.349020 0.192157
0.172549 0.349020 0.188235
0.215686 0.349020 0.172549
0.274510 0.349020 0.172549
0.333333 0.349020 0.172549
0.419608 0.380392 0.180392
0.490196 0.396078 0.192157
0.560784 0.411765 0.203922
0.631373 0.427451 0.211765
0.701961 0.443137 0.223529
0.768627 0.458824 0.235294
0.839216 0.474510 0.243137
0.909804 0.490196 0.254902
0.980392 0.505882 0.266667
1.000000 0.494118 0.262745
0.062745 0.419608 0.211765
0.121569 0.419608 0.207843
0.180392 0.419608 0.200000
0.223529 0.419608 0.180392
0.282353 0.419608 0.180392
0.341176 0.419608 0.180392
0.400000 0.419608 0.180392
0.490196 0.454902 0.192157
0.560784 0.470588 0.203922
0.631373 0.486275 0.211765
0.701961 0.501961 0.223529
0.768627 0.517647 0.235294
0.839216 0.533333 0.243137
0.909804 0.549020 0.254902
0.980392 0.564706 0.266667
1.000000 0.552941 0.262745
0.074510 0.490196 0.227451
0.133333 0.490196 0.223529
0.192157 0.490196 0.215686
0.227451 0.490196 0.192157
0.286275 0.490196 0.192157
0.345098 0.490196 0.192157
0.403922 0.490196 0.192157
0.466667 0.490196 0.192157
0.560784 0.529412 0.203922
0.631373 0.545098 0.211765
0.701961 0.560784 0.223529
0.768627 0.576471 0.235294
0.839216 0.592157 0.243137
0.909804 0.607843 0.254902
0.980392 0.623529 0.266667
1.000000 0.607843 0.262745
0.082353 0.560784 0.243137
0.145098 0.560784 0.239216
0.203922 0.560784 0.231373
0.231373 0.560784 0.203922
0.294118 0.560784 0.203922
0.352941 0.560784 0.203922
0.411765 0.560784 0.203922
0.470588 0.560784 0.203922
0.529412 0.560784 0.203922
0.631373 0.603922 0.211765
0.701961 0.619608 0.223529
0.768627 0.635294 0.235294
0.839216 0.650980 0.243137
0.909804 0.666667 0.254902
0.980392 0.682353 0.266667
1.000000 0.666667 0.262745
0.094118 0.631373 0.258824
0.152941 0.631373 0.254902
0.211765 0.631373 0.247059
0.239216 0.631373 0.211765
0.298039 0.631373 0.211765
0.356863 0.631373 0.211765
0.415686 0.631373 0.211765
0.474510 0.631373 0.211765
0.537255 0.631373 0.211765
0.596078 0.631373 0.211765
0.701961 0.678431 0.223529
0.768627 0.694118 0.235294
0.839216 0.709804 0.243137
0.909804 0.725490 0.254902
0.980392 0.741176 0.266667
1.000000 0.721569 0.262745
0.105882 0.701961 0.274510
0.164706 0.701961 0.266667
0.223529 0.701961 0.262745
0.243137 0.701961 0.223529
0.301961 0.701961 0.223529
0.364706 0.701961 0.223529
0.423529 0.701961 0.223529
0.482353 0.701961 0.223529
0.541176 0.701961 0.223529
0.600000 0.701961 0.223529
0.658824 0.701961 0.223529
0.768627 0.756863 0.235294
0.839216 0.768627 0.243137
0.909804 0.784314 0.254902
0.980392 0.800000 0.266667
1.000000 0.776471 0.262745
0.113725 0.768627 0.290196
0.176471 0.768627 0.282353
0.235294 0.768627 0.278431
0.250980 0.768627 0.235294
0.309804 0.768627 0.235294
0.368627 0.768627 0.235294
0.427451 0.768627 0.235294
0.486275 0.768627 0.235294
0.545098 0.768627 0.235294
0.607843 0.768627 0.235294
0.666667 0.768627 0.235294
0.725490 0.768627 0.235294
0.839216 0.831373 0.243137
0.909804 0.847059 0.254902
0.980392 0.862745 0.266667
1.000000 0.835294 0.262745
0.125490 0.839216 0.305882
0.184314 0.839216 0.298039
0.243137 0.839216 0.294118
0.254902 0.839216 0.243137
0.313725 0.839216 0.243137
0.372549 0.839216 0.243137
0.435294 0.839216 0.243137
0.494118 0.839216 0.243137
0.552941 0.839216 0.243137
0.611765 0.839216 0.243137
0.670588 0.839216 0.243137
0.729412 0.839216 0.243137
0.792157 0.839216 0.243137
0.909804 0.905882 0.254902
0.980392 0.921569 0.266667
1.000000 0.890196 0.262745
0.137255 0.909804 0.321569
0.196078 0.909804 0.313725
0.254902 0.909804 0.309804
0.258824 0.909804 0.254902
0.321569 0.909804 0.254902
0.380392 0.909804 0.254902
0.439216 0.909804 0.254902
0.498039 0.909804 0.254902
0.556863 0.909804 0.254902
0.615686 0.909804 0.254902
0.678431 0.909804 0.254902
0.737255 0.909804 0.254902
0.796078 0.909804 0.254902
0.854902 0.909804 0.254902
0.980392 0.980392 0.266667
1.000000 0.949020 0.262745
0.145098 0.980392 0.337255
0.207843 0.980392 0.329412
0.266667 0.980392 0.325490
0.266667 0.980392 0.266667
0.325490 0.980392 0.266667
0.384314 0.980392 0.266667
0.443137 0.980392 0.266667
0.505882 0.980392 0.266667
0.564706 0.980392 0.266667
0.623529 0.980392 0.266667
0.682353 0.980392 0.266667
0.741176 0.980392 0.266667
0.800000 0.980392 0.266667
0.862745 0.980392 0.266667
0.921569 0.980392 0.266667
0.996078 1.000000 0.262745
0.149020 1.000000 0.333333
0.207843 1.000000 0.329412
0.262745 1.000000 0.325490
0.262745 1.000000 0.266667
0.313725 1.000000 0.262745
0.372549 1.000000 0.262745
0.427451 1.000000 0.262745
0.486275 1.000000 0.262745
0.541176 1.000000 0.262745
0.600000 1.000000 0.262745
0.654902 1.000000 0.262745
0.713725 1.000000 0.262745
0.768627 1.000000 0.262745
0.823529 1.000000 0.262745
0.882353 1.000000 0.262745
0.937255 1.000000 0.262745
0.047059 0.031373 0.211765
0.105882 0.031373 0.211765
0.164706 0.031373 0.211765
0.211765 0.031373 0.196078
0.278431 0.043137 0.200000
0.349020 0.050980 0.207843
0.419608 0.062745 0.211765
0.490196 0.074510 0.215686
0.560784 0.082353 0.223529
0.631373 0.094118 0.227451
0.701961 0.105882 0.235294
0.768627 0.113725 0.239216
0.839216 0.125490 0.243137
0.909804 0.137255 0.250980
0.980392 0.145098 0.254902
1.000000 0.149020 0.250980
0.031373 0.074510 0.211765
0.101961 0.090196 0.211765
0.160784 0.090196 0.211765
0.211765 0.090196 0.200000
0.278431 0.101961 0.203922
0.349020 0.113725 0.211765
0.419608 0.121569 0.215686
0.490196 0.133333 0.223529
0.560784 0.145098 0.227451
0.631373 0.152941 0.235294
0.701961 0.164706 0.239216
0.768627 0.176471 0.243137
0.839216 0.184314 0.250980
0.909804 0.196078 0.254902
0.980392 0.207843 0.262745
1.000000 0.207843 0.254902
0.031373 0.137255 0.211765
0.090196 0.141176 0.211765
0.156863 0.149020 0.211765
0.211765 0.149020 0.203922
0.278431 0.160784 0.211765
0.349020 0.172549 0.215686
0.419608 0.180392 0.223529
0.490196 0.192157 0.227451
0.560784 0.203922 0.231373
0.631373 0.211765 0.239216
0.701961 0.223529 0.243137
0.768627 0.235294 0.250980
0.839216 0.243137 0.254902
0.909804 0.254902 0.258824
0.980392 0.266667 0.266667
1.000000 0.266667 0.262745
0.031373 0.196078 0.211765
0.090196 0.200000 0.211765
0.149020 0.203922 0.211765
0.211765 0.211765 0.211765
0.278431 0.223529 0.219608
0.349020 0.239216 0.231373
0.419608 0.254902 0.243137
0.490196 0.270588 0.250980
0.560784 0.286275 0.262745
0.631373 0.301961 0.274510
0.701961 0.317647 0.282353
0.768627 0.333333 0.294118
0.839216 0.349020 0.305882
0.909804 0.364706 0.313725
0.980392 0.380392 0.325490
1.000000 0.376471 0.321569
0.043137 0.278431 0.239216
0.101961 0.278431 0.235294
0.160784 0.278431 0.231373
0.219608 0.278431 0.223529
0.274510 0.278431 0.219608
0.349020 0.301961 0.231373
0.419608 0.317647 0.243137
0.490196 0.329412 0.250980
0.560784 0.345098 0.262745
0.631373 0.360784 0.274510
0.701961 0.376471 0.282353
0.768627 0.392157 0.294118
0.839216 0.407843 0.305882
0.909804 0.423529 0.313725
0.980392 0.439216 0.325490
1.000000 0.431373 0.321569
0.050980 0.349020 0.254902
0.113725 0.349020 0.250980
0.172549 0.349020 0.247059
0.231373 0.349020 0.239216
0.282353 0.349020 0.231373
0.341176 0.349020 0.231373
0.419608 0.376471 0.243137
0.490196 0.392157 0.250980
0.560784 0.407843 0.262745
0.631373 0.423529 0.274510
0.701961 0.435294 0.282353
0.768627 0.450980 0.294118
0.839216 0.466667 0.305882
0.909804 0.482353 0.313725
0.980392 0.498039 0.325490
1.000000 0.490196 0.321569
0.062745 0.419608 0.270588
0.121569 0.419608 0.266667
0.180392 0.419608 0.262745
0.243137 0.419608 0.254902
0.286275 0.419608 0.243137
0.345098 0.419608 0.243137
0.403922 0.419608 0.243137
0.490196 0.450980 0.250980
0.560784 0.466667 0.262745
0.631373 0.482353 0.274510
0.701961 0.498039 0.282353
0.768627 0.513725 0.294118
0.839216 0.529412 0.305882
0.909804 0.541176 0.313725
0.980392 0.556863 0.325490
1.000000 0.545098 0.321569
0.074510 0.490196 0.286275
0.133333 0.490196 0.282353
0.192157 0.490196 0.278431
0.250980 0.490196 0.270588
0.290196 0.490196 0.250980
0.352941 0.490196 0.250980
0.411765 0.490196 0.250980
