pkg/planetgen/color/luts/tundra.cube
TITLE "tundra archetype LUT"
LUT_3D_SIZE 6
0.000000 0.000000 0.000000
0.211765 0.047059 0.031373
0.419608 0.094118 0.062745
0.631373 0.137255 0.094118
0.839216 0.184314 0.125490
1.000000 0.219608 0.149020
0.031373 0.211765 0.047059
0.196078 0.211765 0.031373
0.419608 0.270588 0.062745
0.631373 0.317647 0.094118
0.839216 0.364706 0.125490
1.000000 0.392157 0.149020
0.062745 0.419608 0.094118
0.211765 0.419608 0.062745
0.392157 0.419608 0.062745
0.631373 0.498039 0.094118
0.839216 0.541176 0.125490
1.000000 0.560784 0.149020
0.094118 0.631373 0.137255
0.227451 0.631373 0.094118
0.407843 0.631373 0.094118
0.584314 0.631373 0.094118
0.839216 0.721569 0.125490
1.000000 0.729412 0.149020
0.125490 0.839216 0.184314
0.243137 0.839216 0.125490
0.423529 0.839216 0.125490
0.603922 0.839216 0.125490
0.780392 0.839216 0.125490
1.000000 0.901961 0.149020
0.149020 1.000000 0.219608
0.250980 1.000000 0.149020
0.419608 1.000000 0.149020
0.588235 1.000000 0.149020
0.760784 1.000000 0.149020
0.929412 1.000000 0.149020
0.047059 0.031373 0.211765
0.211765 0.031373 0.196078
0.419608 0.062745 0.211765
0.631373 0.094118 0.227451
0.839216 0.125490 0.243137
1.000000 0.149020 0.250980
0.031373 0.196078 0.211765
0.211765 0.211765 0.211765
0.419608 0.254902 0.243137
0.631373 0.301961 0.274510
0.839216 0.349020 0.305882
1.000000 0.376471 0.321569
0.062745 0.419608 0.270588
0.243137 0.419608 0.254902
0.403922 0.419608 0.243137
0.631373 0.482353 0.274510
0.839216 0.529412 0.305882
1.000000 0.545098 0.321569
0.094118 0.631373 0.317647
0.274510 0.631373 0.301961
0.423529 0.631373 0.274510
0.600000 0.631373 0.274510
0.839216 0.705882 0.305882
1.000000 0.717647 0.321569
0.125490 0.839216 0.364706
0.305882 0.839216 0.349020
0.439216 0.839216 0.305882
0.615686 0.839216 0.305882
0.796078 0.839216 0.305882
1.000000 0.886275 0.321569
0.149020 1.000000 0.392157
0.321569 1.000000 0.376471
0.435294 1.000000 0.321569
0.603922 1.000000 0.321569
0.772549 1.000000 0.321569
0.945098 1.000000 0.321569
0.094118 0.062745 0.419608
0.270588 0.062745 0.419608
0.419608 0.062745 0.392157
0.631373 0.094118 0.407843
0.839216 0.125490 0.423529
1.000000 0.149020 0.419608
0.062745 0.211765 0.419608
0.254902 0.243137 0.419608
0.419608 0.243137 0.403922
0.631373 0.274510 0.423529
0.839216 0.305882 0.439216
1.000000 0.321569 0.435294
0.062745 0.392157 0.419608
0.243137 0.403922 0.419608
0.419608 0.419608 0.419608
0.631373 0.466667 0.450980
0.839216 0.513725 0.482353
1.000000 0.533333 0.490196
0.094118 0.631373 0.498039
0.274510 0.631373 0.482353
0.450980 0.631373 0.466667
0.615686 0.631373 0.450980
0.839216 0.690196 0.482353
1.000000 0.701961 0.490196
0.125490 0.839216 0.541176
0.305882 0.839216 0.529412
0.482353 0.839216 0.513725
0.631373 0.839216 0.482353
0.811765 0.839216 0.482353
1.000000 0.870588 0.490196
0.149020 1.000000 0.560784
0.321569 1.000000 0.545098
0.490196 1.000000 0.533333
0.615686 1.000000 0.490196
0.788235 1.000000 0.490196
0.956863 1.000000 0.490196
0.137255 0.094118 0.631373
0.317647 0.094118 0.631373
0.498039 0.094118 0.631373
0.631373 0.094118 0.584314
0.839216 0.125490 0.603922
1.000000 0.149020 0.588235
0.094118 0.227451 0.631373
0.301961 0.274510 0.631373
0.482353 0.274510 0.631373
0.631373 0.274510 0.600000
0.839216 0.305882 0.615686
1.000000 0.321569 0.603922
0.094118 0.407843 0.631373
0.274510 0.423529 0.631373
0.466667 0.450980 0.631373
0.631373 0.450980 0.615686
0.839216 0.482353 0.631373
1.000000 0.490196 0.615686
0.094118 0.584314 0.631373
0.274510 0.600000 0.631373
0.450980 0.615686 0.631373
0.631373 0.631373 0.631373
0.839216 0.674510 0.662745
1.000000 0.690196 0.658824
0.125490 0.839216 0.721569
0.305882 0.839216 0.705882
0.482353 0.839216 0.690196
0.662745 0.839216 0.674510
0.823529 0.839216 0.662745
1.000000 0.858824 0.658824
0.149020 1.000000 0.729412
0.321569 1.000000 0.717647
0.490196 1.000000 0.701961
0.658824 1.000000 0.690196
0.800000 1.000000 0.658824
0.972549 1.000000 0.658824
0.184314 0.125490 0.839216
0.364706 0.125490 0.839216
0.541176 0.125490 0.839216
0.721569 0.125490 0.839216
0.839216 0.125490 0.780392
1.000000 0.149020 0.760784
0.125490 0.243137 0.839216
0.349020 0.305882 0.839216
0.529412 0.305882 0.839216
0.705882 0.305882 0.839216
0.839216 0.305882 0.796078
1.000000 0.321569 0.772549
0.125490 0.423529 0.839216
0.305882 0.439216 0.839216
0.513725 0.482353 0.839216
0.690196 0.482353 0.839216
0.839216 0.482353 0.811765
1.000000 0.490196 0.788235
0.125490 0.603922 0.839216
0.305882 0.615686 0.839216
0.482353 0.631373 0.839216
0.674510 0.662745 0.839216
0.839216 0.662745 0.823529
1.000000 0.658824 0.800000
0.125490 0.780392 0.839216
0.305882 0.796078 0.839216
0.482353 0.811765 0.839216
0.662745 0.823529 0.839216
0.839216 0.839216 0.839216
1.000000 0.843137 0.831373
0.149020 1.000000 0.901961
0.321569 1.000000 0.886275
0.490196 1.000000 0.870588
0.658824 1.000000 0.858824
0.831373 1.000000 0.843137
0.984314 1.000000 0.831373
0.219608 0.149020 1.000000
0.392157 0.149020 1.000000
0.560784 0.149020 1.000000
0.729412 0.149020 1.000000
0.901961 0.149020 1.000000
1.000000 0.149020 0.929412
0.149020 0.250980 1.000000
0.376471 0.321569 1.000000
0.545098 0.321569 1.000000
0.717647 0.321569 1.000000
0.886275 0.321569 1.000000
1.000000 0.321569 0.945098
0.149020 0.419608 1.000000
0.321569 0.431373 1.000000
0.533333 0.490196 1.000000
0.701961 0.490196 1.000000
0.870588 0.490196 1.000000
1.000000 0.490196 0.956863
0.149020 0.588235 1.000000
0.321569 0.603922 1.000000
0.490196 0.615686 1.000000
0.690196 0.658824 1.000000
0.858824 0.658824 1.000000
1.000000 0.658824 0.972549
0.149020 0.760784 1.000000
0.321569 0.772549 1.000000
0.490196 0.788235 1.000000
0.658824 0.800000 1.000000
0.843137 0.831373 1.000000
1.000000 0.831373 0.984314
0.149020 0.929412 1.000000
0.321569 0.945098 1.000000
0.490196 0.956863 1.000000
0.658824 0.972549 1.000000
0.831373 0.984314 1.000000
1.000000 1.000000 1.000000
