pkg/planetgen/color/luts/unknown.cube
TITLE "unknown archetype LUT"
LUT_3D_SIZE 16
0.000000 0.000000 0.000000
0.062745 0.003922 0.003922
0.125490 0.007843 0.007843
0.188235 0.007843 0.007843
0.254902 0.011765 0.011765
0.317647 0.015686 0.015686
0.380392 0.019608 0.019608
0.443137 0.023529 0.023529
0.505882 0.023529 0.023529
0.568627 0.027451 0.027451
0.635294 0.031373 0.031373
0.698039 0.035294 0.035294
0.760784 0.039216 0.039216
0.823529 0.039216 0.039216
0.886275 0.043137 0.043137
0.949020 0.047059 0.047059
0.003922 0.062745 0.003922
0.062745 0.062745 0.003922
0.125490 0.066667 0.007843
0.188235 0.070588 0.007843
0.254902 0.074510 0.011765
0.317647 0.074510 0.015686
0.380392 0.078431 0.019608
0.443137 0.082353 0.023529
0.505882 0.086275 0.023529
0.568627 0.090196 0.027451
0.635294 0.090196 0.031373
0.698039 0.094118 0.035294
0.760784 0.098039 0.039216
0.823529 0.101961 0.039216
0.886275 0.105882 0.043137
0.949020 0.105882 0.047059
0.007843 0.125490 0.007843
0.066667 0.125490 0.007843
0.125490 0.125490 0.007843
0.188235 0.129412 0.007843
0.254902 0.133333 0.011765
0.317647 0.137255 0.015686
0.380392 0.141176 0.019608
0.443137 0.141176 0.023529
0.505882 0.145098 0.023529
0.568627 0.149020 0.027451
0.635294 0.152941 0.031373
0.698039 0.156863 0.035294
0.760784 0.156863 0.039216
0.823529 0.160784 0.039216
0.886275 0.164706 0.043137
0.949020 0.168627 0.047059
0.007843 0.188235 0.007843
0.070588 0.188235 0.007843
0.129412 0.188235 0.007843
0.188235 0.188235 0.007843
0.254902 0.192157 0.011765
0.317647 0.196078 0.015686
0.380392 0.200000 0.019608
0.443137 0.203922 0.023529
0.505882 0.203922 0.023529
0.568627 0.207843 0.027451
0.635294 0.211765 0.031373
0.698039 0.215686 0.035294
0.760784 0.219608 0.039216
0.823529 0.223529 0.039216
0.886275 0.223529 0.043137
0.949020 0.227451 0.047059
0.011765 0.254902 0.011765
0.074510 0.254902 0.011765
0.133333 0.254902 0.011765
0.192157 0.254902 0.011765
0.254902 0.254902 0.011765
0.317647 0.254902 0.015686
0.380392 0.258824 0.019608
0.443137 0.262745 0.023529
0.505882 0.266667 0.023529
0.568627 0.270588 0.027451
0.635294 0.270588 0.031373
0.698039 0.274510 0.035294
0.760784 0.278431 0.039216
0.823529 0.282353 0.039216
0.886275 0.286275 0.043137
0.949020 0.286275 0.047059
0.015686 0.317647 0.015686
0.074510 0.317647 0.015686
0.137255 0.317647 0.015686
0.196078 0.317647 0.015686
0.254902 0.317647 0.015686
0.317647 0.317647 0.015686
0.380392 0.321569 0.019608
0.443137 0.321569 0.023529
0.505882 0.325490 0.023529
0.568627 0.329412 0.027451
0.635294 0.333333 0.031373
0.698039 0.337255 0.035294
0.760784 0.337255 0.039216
0.823529 0.341176 0.039216
0.886275 0.345098 0.043137
0.949020 0.349020 0.047059
0.019608 0.380392 0.019608
0.078431 0.380392 0.019608
0.141176 0.380392 0.019608
0.200000 0.380392 0.019608
0.258824 0.380392 0.019608
0.321569 0.380392 0.019608
0.380392 0.380392 0.019608
0.443137 0.384314 0.023529
0.505882 0.388235 0.023529
0.568627 0.388235 0.027451
0.635294 0.392157 0.031373
0.698039 0.396078 0.035294
0.760784 0.400000 0.039216
0.823529 0.403922 0.039216
0.886275 0.403922 0.043137
0.949020 0.407843 0.047059
0.023529 0.443137 0.023529
0.082353 0.443137 0.023529
0.141176 0.443137 0.023529
0.203922 0.443137 0.023529
0.262745 0.443137 0.023529
0.321569 0.443137 0.023529
0.384314 0.443137 0.023529
0.443137 0.443137 0.023529
0.505882 0.447059 0.023529
0.568627 0.450980 0.027451
0.635294 0.450980 0.031373
0.698039 0.454902 0.035294
0.760784 0.458824 0.039216
0.823529 0.462745 0.039216
0.886275 0.466667 0.043137
0.949020 0.470588 0.047059
0.023529 0.505882 0.023529
0.086275 0.505882 0.023529
0.145098 0.505882 0.023529
0.203922 0.505882 0.023529
0.266667 0.505882 0.023529
0.325490 0.505882 0.023529
0.388235 0.505882 0.023529
0.447059 0.505882 0.023529
0.505882 0.505882 0.023529
0.568627 0.509804 0.027451
0.635294 0.513725 0.031373
0.698039 0.517647 0.035294
0.760784 0.517647 0.039216
0.823529 0.521569 0.039216
0.886275 0.525490 0.043137
0.949020 0.529412 0.047059
0.027451 0.568627 0.027451
0.090196 0.568627 0.027451
0.149020 0.568627 0.027451
0.207843 0.568627 0.027451
0.270588 0.568627 0.027451
0.329412 0.568627 0.027451
0.388235 0.568627 0.027451
0.450980 0.568627 0.027451
0.509804 0.568627 0.027451
0.568627 0.568627 0.027451
0.635294 0.572549 0.031373
0.698039 0.576471 0.035294
0.760784 0.580392 0.039216
0.823529 0.584314 0.039216
0.886275 0.584314 0.043137
0.949020 0.588235 0.047059
0.031373 0.635294 0.031373
0.090196 0.635294 0.031373
0.152941 0.635294 0.031373
0.211765 0.635294 0.031373
0.270588 0.635294 0.031373
0.333333 0.635294 0.031373
0.392157 0.635294 0.031373
0.450980 0.635294 0.031373
0.513725 0.635294 0.031373
0.572549 0.635294 0.031373
0.635294 0.635294 0.031373
0.698039 0.635294 0.035294
0.760784 0.639216 0.039216
0.823529 0.643137 0.039216
0.886275 0.647059 0.043137
0.949020 0.650980 0.047059
0.035294 0.698039 0.035294
0.094118 0.698039 0.035294
0.156863 0.698039 0.035294
0.215686 0.698039 0.035294
0.274510 0.698039 0.035294
0.337255 0.698039 0.035294
0.396078 0.698039 0.035294
0.454902 0.698039 0.035294
0.517647 0.698039 0.035294
0.576471 0.698039 0.035294
0.635294 0.698039 0.035294
0.698039 0.698039 0.035294
0.760784 0.698039 0.039216
0.823529 0.701961 0.039216
0.886275 0.705882 0.043137
0.949020 0.709804 0.047059
0.039216 0.760784 0.039216
0.098039 0.760784 0.039216
0.156863 0.760784 0.039216
0.219608 0.760784 0.039216
0.278431 0.760784 0.039216
0.337255 0.760784 0.039216
0.400000 0.760784 0.039216
0.458824 0.760784 0.039216
0.517647 0.760784 0.039216
0.580392 0.760784 0.039216
0.639216 0.760784 0.039216
0.698039 0.760784 0.039216
0.760784 0.760784 0.039216
0.823529 0.764706 0.039216
0.886275 0.764706 0.043137
0.949020 0.768627 0.047059
0.039216 0.823529 0.039216
0.101961 0.823529 0.039216
0.160784 0.823529 0.039216
0.223529 0.823529 0.039216
0.282353 0.823529 0.039216
0.341176 0.823529 0.039216
0.403922 0.823529 0.039216
0.462745 0.823529 0.039216
0.521569 0.823529 0.039216
0.584314 0.823529 0.039216
0.643137 0.823529 0.039216
0.701961 0.823529 0.039216
0.764706 0.823529 0.039216
0.823529 0.823529 0.039216
0.886275 0.827451 0.043137
0.949020 0.831373 0.047059
0.043137 0.886275 0.043137
0.105882 0.886275 0.043137
0.164706 0.886275 0.043137
0.223529 0.886275 0.043137
0.286275 0.886275 0.043137
0.345098 0.886275 0.043137
0.403922 0.886275 0.043137
0.466667 0.886275 0.043137
0.525490 0.886275 0.043137
0.584314 0.886275 0.043137
0.647059 0.886275 0.043137
0.705882 0.886275 0.043137
0.764706 0.886275 0.043137
0.827451 0.886275 0.043137
0.886275 0.886275 0.043137
0.949020 0.890196 0.047059
0.047059 0.949020 0.047059
0.105882 0.949020 0.047059
0.168627 0.949020 0.047059
0.227451 0.949020 0.047059
0.286275 0.949020 0.047059
0.349020 0.949020 0.047059
0.407843 0.949020 0.047059
0.470588 0.949020 0.047059
0.529412 0.949020 0.047059
0.588235 0.949020 0.047059
0.650980 0.949020 0.047059
0.709804 0.949020 0.047059
0.768627 0.949020 0.047059
0.831373 0.949020 0.047059
0.890196 0.949020 0.047059
0.949020 0.949020 0.047059
0.003922 0.003922 0.062745
0.062745 0.003922 0.062745
0.125490 0.007843 0.066667
0.188235 0.007843 0.070588
0.254902 0.011765 0.074510
0.317647 0.015686 0.074510
0.380392 0.019608 0.078431
0.443137 0.023529 0.082353
0.505882 0.023529 0.086275
0.568627 0.027451 0.090196
0.635294 0.031373 0.090196
0.698039 0.035294 0.094118
0.760784 0.039216 0.098039
0.823529 0.039216 0.101961
0.886275 0.043137 0.105882
0.949020 0.047059 0.105882
0.003922 0.062745 0.062745
0.062745 0.062745 0.062745
0.125490 0.066667 0.066667
0.188235 0.070588 0.070588
0.254902 0.074510 0.074510
0.317647 0.074510 0.074510
0.380392 0.078431 0.078431
0.443137 0.082353 0.082353
0.505882 0.086275 0.086275
0.568627 0.090196 0.090196
0.635294 0.090196 0.090196
0.698039 0.094118 0.094118
0.760784 0.098039 0.098039
0.823529 0.101961 0.101961
0.886275 0.105882 0.105882
0.949020 0.105882 0.105882
0.007843 0.125490 0.066667
0.066667 0.125490 0.066667
0.125490 0.125490 0.066667
0.188235 0.129412 0.070588
0.254902 0.133333 0.074510
0.317647 0.137255 0.074510
0.380392 0.141176 0.078431
0.443137 0.141176 0.082353
0.505882 0.145098 0.086275
0.568627 0.149020 0.090196
0.635294 0.152941 0.090196
0.698039 0.156863 0.094118
0.760784 0.156863 0.098039
0.823529 0.160784 0.101961
0.886275 0.164706 0.105882
0.949020 0.168627 0.105882
0.007843 0.188235 0.070588
0.070588 0.188235 0.070588
0.129412 0.188235 0.070588
0.188235 0.188235 0.070588
0.254902 0.192157 0.074510
0.317647 0.196078 0.074510
0.380392 0.200000 0.078431
0.443137 0.203922 0.082353
0.505882 0.203922 0.086275
0.568627 0.207843 0.090196
0.635294 0.211765 0.090196
0.698039 0.215686 0.094118
0.760784 0.219608 0.098039
0.823529 0.223529 0.101961
0.886275 0.223529 0.105882
0.949020 0.227451 0.105882
0.011765 0.254902 0.074510
0.074510 0.254902 0.074510
0.133333 0.254902 0.074510
0.192157 0.254902 0.074510
0.254902 0.254902 0.074510
0.317647 0.254902 0.074510
0.380392 0.258824 0.078431
0.443137 0.262745 0.082353
0.505882 0.266667 0.086275
0.568627 0.270588 0.090196
0.635294 0.270588 0.090196
0.698039 0.274510 0.094118
0.760784 0.278431 0.098039
0.823529 0.282353 0.101961
0.886275 0.286275 0.105882
0.949020 0.286275 0.105882
0.015686 0.317647 0.074510
0.074510 0.317647 0.074510
0.137255 0.317647 0.074510
0.196078 0.317647 0.074510
0.254902 0.317647 0.074510
0.317647 0.317647 0.074510
0.380392 0.321569 0.078431
0.443137 0.321569 0.082353
0.505882 0.325490 0.086275
0.568627 0.329412 0.090196
0.635294 0.333333 0.090196
0.698039 0.337255 0.094118
0.760784 0.337255 0.098039
0.823529 0.341176 0.101961
0.886275 0.345098 0.105882
0.949020 0.349020 0.105882
0.019608 0.380392 0.078431
0.078431 0.380392 0.078431
0.141176 0.380392 0.078431
0.200000 0.380392 0.078431
0.258824 0.380392 0.078431
0.321569 0.380392 0.078431
0.380392 0.380392 0.078431
0.443137 0.384314 0.082353
0.505882 0.388235 0.086275
0.568627 0.388235 0.090196
0.635294 0.392157 0.090196
0.698039 0.396078 0.094118
0.760784 0.400000 0.098039
0.823529 0.403922 0.101961
0.886275 0.403922 0.105882
0.949020 0.407843 0.105882
0.023529 0.443137 0.082353
0.082353 0.443137 0.082353
0.141176 0.443137 0.082353
0.203922 0.443137 0.082353
0.262745 0.443137 0.082353
0.321569 0.443137 0.082353
0.384314 0.443137 0.082353
0.443137 0.443137 0.082353
0.505882 0.447059 0.086275
0.568627 0.450980 0.090196
0.635294 0.450980 0.090196
0.698039 0.454902 0.094118
0.760784 0.458824 0.098039
0.823529 0.462745 0.101961
0.886275 0.466667 0.105882
0.949020 0.470588 0.105882
0.023529 0.505882 0.086275
0.086275 0.505882 0.086275
0.145098 0.505882 0.086275
0.203922 0.505882 0.086275
0.266667 0.505882 0.086275
0.325490 0.505882 0.086275
0.388235 0.505882 0.086275
0.447059 0.505882 0.086275
0.505882 0.505882 0.086275
0.568627 0.509804 0.090196
0.635294 0.513725 0.090196
0.698039 0.517647 0.094118
0.760784 0.517647 0.098039
0.823529 0.521569 0.101961
0.886275 0.525490 0.105882
0.949020 0.529412 0.105882
0.027451 0.568627 0.090196
0.090196 0.568627 0.090196
0.149020 0.568627 0.090196
0.207843 0.568627 0.090196
0.270588 0.568627 0.090196
0.329412 0.568627 0.090196
0.388235 0.568627 0.090196
0.450980 0.568627 0.090196
0.509804 0.568627 0.090196
0.568627 0.568627 0.090196
0.635294 0.572549 0.090196
0.698039 0.576471 0.094118
0.760784 0.580392 0.098039
0.823529 0.584314 0.101961
0.886275 0.584314 0.105882
0.949020 0.588235 0.105882
0.031373 0.635294 0.090196
0.090196 0.635294 0.090196
0.152941 0.635294 0.090196
0.211765 0.635294 0.090196
0.270588 0.635294 0.090196
0.333333 0.635294 0.090196
0.392157 0.635294 0.090196
0.450980 0.635294 0.090196
0.513725 0.635294 0.090196
0.572549 0.635294 0.090196
0.635294 0.635294 0.090196
0.698039 0.635294 0.094118
0.760784 0.639216 0.098039
0.823529 0.643137 0.101961
0.886275 0.647059 0.105882
0.949020 0.650980 0.105882
0.035294 0.698039 0.094118
0.094118 0.698039 0.094118
0.156863 0.698039 0.094118
0.215686 0.698039 0.094118
0.274510 0.698039 0.094118
0.337255 0.698039 0.094118
0.396078 0.698039 0.094118
0.454902 0.698039 0.094118
0.517647 0.698039 0.094118
0.576471 0.698039 0.094118
0.635294 0.698039 0.094118
0.698039 0.698039 0.094118
0.760784 0.698039 0.098039
0.823529 0.701961 0.101961
0.886275 0.705882 0.105882
0.949020 0.709804 0.105882
0.039216 0.760784 0.098039
0.098039 0.760784 0.098039
0.156863 0.760784 0.098039
0.219608 0.760784 0.098039
0.278431 0.760784 0.098039
0.337255 0.760784 0.098039
0.400000 0.760784 0.098039
0.458824 0.760784 0.098039
0.517647 0.760784 0.098039
0.580392 0.760784 0.098039
0.639216 0.760784 0.098039
0.698039 0.760784 0.098039
0.760784 0.760784 0.098039
0.823529 0.764706 0.101961
0.886275 0.764706 0.105882
0.949020 0.768627 0.105882
0.039216 0.823529 0.101961
0.101961 0.823529 0.101961
0.160784 0.823529 0.101961
0.223529 0.823529 0.101961
0.282353 0.823529 0.101961
0.341176 0.823529 0.101961
0.403922 0.823529 0.101961
0.462745 0.823529 0.101961
0.521569 0.823529 0.101961
0.584314 0.823529 0.101961
0.643137 0.823529 0.101961
0.701961 0.823529 0.101961
0.764706 0.823529 0.101961
0.823529 0.823529 0.101961
0.886275 0.827451 0.105882
0.949020 0.831373 0.105882
0.043137 0.886275 0.105882
0.105882 0.886275 0.105882
0.164706 0.886275 0.105882
0.223529 0.886275 0.105882
0.286275 0.886275 0.105882
0.345098 0.886275 0.105882
0.403922 0.886275 0.105882
0.466667 0.886275 0.105882
0.525490 0.886275 0.105882
0.584314 0.886275 0.105882
0.647059 0.886275 0.105882
0.705882 0.886275 0.105882
0.764706 0.886275 0.105882
0.827451 0.886275 0.105882
0.886275 0.886275 0.105882
0.949020 0.890196 0.105882
0.047059 0.949020 0.105882
0.105882 0.949020 0.105882
0.168627 0.949020 0.105882
0.227451 0.949020 0.105882
0.286275 0.949020 0.105882
0.349020 0.949020 0.105882
0.407843 0.949020 0.105882
0.470588 0.949020 0.105882
0.529412 0.949020 0.105882
0.588235 0.949020 0.105882
0.650980 0.949020 0.105882
0.709804 0.949020 0.105882
0.768627 0.949020 0.105882
0.831373 0.949020 0.105882
0.890196 0.949020 0.105882
0.949020 0.949020 0.105882
0.007843 0.007843 0.125490
0.066667 0.007843 0.125490
0.125490 0.007843 0.125490
0.188235 0.007843 0.129412
0.254902 0.011765 0.133333
0.317647 0.015686 0.137255
0.380392 0.019608 0.141176
0.443137 0.023529 0.141176
0.505882 0.023529 0.145098
0.568627 0.027451 0.149020
0.635294 0.031373 0.152941
0.698039 0.035294 0.156863
0.760784 0.039216 0.156863
0.823529 0.039216 0.160784
0.886275 0.043137 0.164706
0.949020 0.047059 0.168627
0.007843 0.066667 0.125490
0.066667 0.066667 0.125490
0.125490 0.066667 0.125490
0.188235 0.070588 0.129412
0.254902 0.074510 0.133333
0.317647 0.074510 0.137255
0.380392 0.078431 0.141176
0.443137 0.082353 0.141176
0.505882 0.086275 0.145098
0.568627 0.090196 0.149020
0.635294 0.090196 0.152941
0.698039 0.094118 0.156863
0.760784 0.098039 0.156863
0.823529 0.101961 0.160784
0.886275 0.105882 0.164706
0.949020 0.105882 0.168627
0.007843 0.125490 0.125490
0.066667 0.125490 0.125490
0.125490 0.125490 0.125490
0.188235 0.129412 0.129412
0.254902 0.133333 0.133333
0.317647 0.137255 0.137255
0.380392 0.141176 0.141176
0.443137 0.141176 0.141176
0.505882 0.145098 0.145098
0.568627 0.149020 0.149020
0.635294 0.152941 0.152941
0.698039 0.156863 0.156863
0.760784 0.156863 0.156863
0.823529 0.160784 0.160784
0.886275 0.164706 0.164706
0.949020 0.168627 0.168627
0.007843 0.188235 0.129412
0.070588 0.188235 0.129412
0.129412 0.188235 0.129412
0.188235 0.188235 0.129412
0.254902 0.192157 0.133333
0.317647 0.196078 0.137255
0.380392 0.200000 0.141176
0.443137 0.203922 0.141176
0.505882 0.203922 0.145098
0.568627 0.207843 0.149020
0.635294 0.211765 0.152941
0.698039 0.215686 0.156863
0.760784 0.219608 0.156863
0.823529 0.223529 0.160784
0.886275 0.223529 0.164706
0.949020 0.227451 0.168627
0.011765 0.254902 0.133333
0.074510 0.254902 0.133333
0.133333 0.254902 0.133333
0.192157 0.254902 0.133333
0.254902 0.254902 0.133333
0.317647 0.254902 0.137255
0.380392 0.258824 0.141176
0.443137 0.262745 0.141176
0.505882 0.266667 0.145098
0.568627 0.270588 0.149020
0.635294 0.270588 0.152941
0.698039 0.274510 0.156863
0.760784 0.278431 0.156863
0.823529 0.282353 0.160784
0.886275 0.286275 0.164706
0.949020 0.286275 0.168627
0.015686 0.317647 0.137255
0.074510 0.317647 0.137255
0.137255 0.317647 0.137255
0.196078 0.317647 0.137255
0.254902 0.317647 0.137255
0.317647 0.317647 0.137255
0.380392 0.321569 0.141176
0.443137 0.321569 0.141176
0.505882 0.325490 0.145098
0.568627 0.329412 0.149020
0.635294 0.333333 0.152941
0.698039 0.337255 0.156863
0.760784 0.337255 0.156863
0.823529 0.341176 0.160784
0.886275 0.345098 0.164706
0.949020 0.349020 0.168627
0.019608 0.380392 0.141176
0.078431 0.380392 0.141176
0.141176 0.380392 0.141176
0.200000 0.380392 0.141176
0.258824 0.380392 0.141176
0.321569 0.380392 0.141176
0.380392 0.380392 0.141176
0.443137 0.384314 0.141176
0.505882 0.388235 0.145098
0.568627 0.388235 0.149020
0.635294 0.392157 0.152941
0.698039 0.396078 0.156863
0.760784 0.400000 0.156863
0.823529 0.403922 0.160784
0.886275 0.403922 0.164706
0.949020 0.407843 0.168627
0.023529 0.443137 0.141176
0.082353 0.443137 0.141176
0.141176 0.443137 0.141176
0.203922 0.443137 0.141176
0.262745 0.443137 0.141176
0.321569 0.443137 0.141176
0.384314 0.443137 0.141176
0.443137 0.443137 0.141176
0.505882 0.447059 0.145098
0.568627 0.450980 0.149020
0.635294 0.450980 0.152941
0.698039 0.454902 0.156863
0.760784 0.458824 0.156863
0.823529 0.462745 0.160784
0.886275 0.466667 0.164706
0.949020 0.470588 0.168627
0.023529 0.505882 0.145098
0.086275 0.505882 0.145098
0.145098 0.505882 0.145098
0.203922 0.505882 0.145098
0.266667 0.505882 0.145098
0.325490 0.505882 0.145098
0.388235 0.505882 0.145098
0.447059 0.505882 0.145098
0.505882 0.505882 0.145098
0.568627 0.509804 0.149020
0.635294 0.513725 0.152941
0.698039 0.517647 0.156863
0.760784 0.517647 0.156863
0.823529 0.521569 0.160784
0.886275 0.525490 0.164706
0.949020 0.529412 0.168627
0.027451 0.568627 0.149020
0.090196 0.568627 0.149020
0.149020 0.568627 0.149020
0.207843 0.568627 0.149020
0.270588 0.568627 0.149020
0.329412 0.568627 0.149020
0.388235 0.568627 0.149020
0.450980 0.568627 0.149020
0.509804 0.568627 0.149020
0.568627 0.568627 0.149020
0.635294 0.572549 0.152941
0.698039 0.576471 0.156863
0.760784 0.580392 0.156863
0.823529 0.584314 0.160784
0.886275 0.584314 0.164706
0.949020 0.588235 0.168627
0.031373 0.635294 0.152941
0.090196 0.635294 0.152941
0.152941 0.635294 0.152941
0.211765 0.635294 0.152941
0.270588 0.635294 0.152941
0.333333 0.635294 0.152941
0.392157 0.635294 0.152941
0.450980 0.635294 0.152941
0.513725 0.635294 0.152941
0.572549 0.635294 0.152941
0.635294 0.635294 0.152941
0.698039 0.635294 0.156863
0.760784 0.639216 0.156863
0.823529 0.643137 0.160784
0.886275 0.647059 0.164706
0.949020 0.650980 0.168627
0.035294 0.698039 0.156863
0.094118 0.698039 0.156863
0.156863 0.698039 0.156863
0.215686 0.698039 0.156863
0.274510 0.698039 0.156863
0.337255 0.698039 0.156863
0.396078 0.698039 0.156863
0.454902 0.698039 0.156863
0.517647 0.698039 0.156863
0.576471 0.698039 0.156863
0.635294 0.698039 0.156863
0.698039 0.698039 0.156863
0.760784 0.698039 0.156863
0.823529 0.701961 0.160784
0.886275 0.705882 0.164706
0.949020 0.709804 0.168627
0.039216 0.760784 0.156863
0.098039 0.760784 0.156863
0.156863 0.760784 0.156863
0.219608 0.760784 0.156863
0.278431 0.760784 0.156863
0.337255 0.760784 0.156863
0.400000 0.760784 0.156863
0.458824 0.760784 0.156863
0.517647 0.760784 0.156863
0.580392 0.760784 0.156863
0.639216 0.760784 0.156863
0.698039 0.760784 0.156863
0.760784 0.760784 0.156863
0.823529 0.764706 0.160784
0.886275 0.764706 0.164706
0.949020 0.768627 0.168627
0.039216 0.823529 0.160784
0.101961 0.823529 0.160784
0.160784 0.823529 0.160784
0.223529 0.823529 0.160784
0.282353 0.823529 0.160784
0.341176 0.823529 0.160784
0.403922 0.823529 0.160784
0.462745 0.823529 0.160784
0.521569 0.823529 0.160784
0.584314 0.823529 0.160784
0.643137 0.823529 0.160784
0.701961 0.823529 0.160784
0.764706 0.823529 0.160784
0.823529 0.823529 0.160784
0.886275 0.827451 0.164706
0.949020 0.831373 0.168627
0.043137 0.886275 0.164706
0.105882 0.886275 0.164706
0.164706 0.886275 0.164706
0.223529 0.886275 0.164706
0.286275 0.886275 0.164706
0.345098 0.886275 0.164706
0.403922 0.886275 0.164706
0.466667 0.886275 0.164706
0.525490 0.886275 0.164706
0.584314 0.886275 0.164706
0.647059 0.886275 0.164706
0.705882 0.886275 0.164706
0.764706 0.886275 0.164706
0.827451 0.886275 0.164706
0.886275 0.886275 0.164706
0.949020 0.890196 0.168627
0.047059 0.949020 0.168627
0.105882 0.949020 0.168627
0.168627 0.949020 0.168627
0.227451 0.949020 0.168627
0.286275 0.949020 0.168627
0.349020 0.949020 0.168627
0.407843 0.949020 0.168627
0.470588 0.949020 0.168627
0.529412 0.949020 0.168627
0.588235 0.949020 0.168627
0.650980 0.949020 0.168627
0.709804 0.949020 0.168627
0.768627 0.949020 0.168627
0.831373 0.949020 0.168627
0.890196 0.949020 0.168627
0.949020 0.949020 0.168627
0.007843 0.007843 0.188235
0.070588 0.007843 0.188235
0.129412 0.007843 0.188235
0.188235 0.007843 0.188235
0.254902 0.011765 0.192157
0.317647 0.015686 0.196078
0.380392 0.019608 0.200000
0.443137 0.023529 0.203922
0.505882 0.023529 0.203922
0.568627 0.027451 0.207843
0.635294 0.031373 0.211765
0.698039 0.035294 0.215686
0.760784 0.039216 0.219608
0.823529 0.039216 0.223529
0.886275 0.043137 0.223529
0.949020 0.047059 0.227451
0.007843 0.070588 0.188235
0.070588 0.070588 0.188235
0.129412 0.070588 0.188235
0.188235 0.070588 0.188235
0.254902 0.074510 0.192157
0.317647 0.074510 0.196078
0.380392 0.078431 0.200000
0.443137 0.082353 0.203922
0.505882 0.086275 0.203922
0.568627 0.090196 0.207843
0.635294 0.090196 0.211765
0.698039 0.094118 0.215686
0.760784 0.098039 0.219608
0.823529 0.101961 0.223529
0.886275 0.105882 0.223529
0.949020 0.105882 0.227451
0.007843 0.129412 0.188235
0.070588 0.129412 0.188235
0.129412 0.129412 0.188235
0.188235 0.129412 0.188235
0.254902 0.133333 0.192157
0.317647 0.137255 0.196078
0.380392 0.141176 0.200000
0.443137 0.141176 0.203922
0.505882 0.145098 0.203922
0.568627 0.149020 0.207843
0.635294 0.152941 0.211765
0.698039 0.156863 0.215686
0.760784 0.156863 0.219608
0.823529 0.160784 0.223529
0.886275 0.164706 0.223529
0.949020 0.168627 0.227451
0.007843 0.188235 0.188235
0.070588 0.188235 0.188235
0.129412 0.188235 0.188235
0.188235 0.188235 0.188235
0.254902 0.192157 0.192157
0.317647 0.196078 0.196078
0.380392 0.200000 0.200000
0.443137 0.203922 0.203922
0.505882 0.203922 0.203922
0.568627 0.207843 0.207843
0.635294 0.211765 0.211765
0.698039 0.215686 0.215686
0.760784 0.219608 0.219608
0.823529 0.223529 0.223529
0.886275 0.223529 0.223529
0.949020 0.227451 0.227451
0.011765 0.254902 0.192157
0.074510 0.254902 0.192157
0.133333 0.254902 0.192157
0.192157 0.254902 0.192157
0.254902 0.254902 0.192157
0.317647 0.254902 0.196078
0.380392 0.258824 0.200000
0.443137 0.262745 0.203922
0.505882 0.266667 0.203922
0.568627 0.270588 0.207843
0.635294 0.270588 0.211765
0.698039 0.274510 0.215686
0.760784 0.278431 0.219608
0.823529 0.282353 0.223529
0.886275 0.286275 0.223529
0.949020 0.286275 0.227451
0.015686 0.317647 0.196078
0.074510 0.317647 0.196078
0.137255 0.317647 0.196078
0.196078 0.317647 0.196078
0.254902 0.317647 0.196078
0.317647 0.317647 0.196078
0.380392 0.321569 0.200000
0.443137 0.321569 0.203922
0.505882 0.325490 0.203922
0.568627 0.329412 0.207843
0.635294 0.333333 0.211765
0.698039 0.337255 0.215686
0.760784 0.337255 0.219608
0.823529 0.341176 0.223529
0.886275 0.345098 0.223529
0.949020 0.349020 0.227451
0.019608 0.380392 0.200000
0.078431 0.380392 0.200000
0.141176 0.380392 0.200000
0.200000 0.380392 0.200000
0.258824 0.380392 0.200000
0.321569 0.380392 0.200000
0.380392 0.380392 0.200000
0.443137 0.384314 0.203922
0.505882 0.388235 0.203922
0.568627 0.388235 0.207843
0.635294 0.392157 0.211765
0.698039 0.396078 0.215686
0.760784 0.400000 0.219608
0.823529 0.403922 0.223529
0.886275 0.403922 0.223529
0.949020 0.407843 0.227451
0.023529 0.443137 0.203922
0.082353 0.443137 0.203922
0.141176 0.443137 0.203922
0.203922 0.443137 0.203922
0.262745 0.443137 0.203922
0.321569 0.443137 0.203922
0.384314 0.443137 0.203922
