pkg/planetgen/color/luts/unknown.cube
TITLE "unknown archetype LUT"
LUT_3D_SIZE 6
0.000000 0.000000 0.000000
0.188235 0.007843 0.007843
0.380392 0.019608 0.019608
0.568627 0.027451 0.027451
0.760784 0.039216 0.039216
0.949020 0.047059 0.047059
0.007843 0.188235 0.007843
0.188235 0.188235 0.007843
0.380392 0.200000 0.019608
0.568627 0.207843 0.027451
0.760784 0.219608 0.039216
0.949020 0.227451 0.047059
0.019608 0.380392 0.019608
0.200000 0.380392 0.019608
0.380392 0.380392 0.019608
0.568627 0.388235 0.027451
0.760784 0.400000 0.039216
0.949020 0.407843 0.047059
0.027451 0.568627 0.027451
0.207843 0.568627 0.027451
0.388235 0.568627 0.027451
0.568627 0.568627 0.027451
0.760784 0.580392 0.039216
0.949020 0.588235 0.047059
0.039216 0.760784 0.039216
0.219608 0.760784 0.039216
0.400000 0.760784 0.039216
0.580392 0.760784 0.039216
0.760784 0.760784 0.039216
0.949020 0.768627 0.047059
0.047059 0.949020 0.047059
0.227451 0.949020 0.047059
0.407843 0.949020 0.047059
0.588235 0.949020 0.047059
0.768627 0.949020 0.047059
0.949020 0.949020 0.047059
0.007843 0.007843 0.188235
0.188235 0.007843 0.188235
0.380392 0.019608 0.200000
0.568627 0.027451 0.207843
0.760784 0.039216 0.219608
0.949020 0.047059 0.227451
0.007843 0.188235 0.188235
0.188235 0.188235 0.188235
0.380392 0.200000 0.200000
0.568627 0.207843 0.207843
0.760784 0.219608 0.219608
0.949020 0.227451 0.227451
0.019608 0.380392 0.200000
0.200000 0.380392 0.200000
0.380392 0.380392 0.200000
0.568627 0.388235 0.207843
0.760784 0.400000 0.219608
0.949020 0.407843 0.227451
0.027451 0.568627 0.207843
0.207843 0.568627 0.207843
0.388235 0.568627 0.207843
0.568627 0.568627 0.207843
0.760784 0.580392 0.219608
0.949020 0.588235 0.227451
0.039216 0.760784 0.219608
0.219608 0.760784 0.219608
0.400000 0.760784 0.219608
0.580392 0.760784 0.219608
0.760784 0.760784 0.219608
0.949020 0.768627 0.227451
0.047059 0.949020 0.227451
0.227451 0.949020 0.227451
0.407843 0.949020 0.227451
0.588235 0.949020 0.227451
0.768627 0.949020 0.227451
0.949020 0.949020 0.227451
0.019608 0.019608 0.380392
0.200000 0.019608 0.380392
0.380392 0.019608 0.380392
0.568627 0.027451 0.388235
0.760784 0.039216 0.400000
0.949020 0.047059 0.407843
0.019608 0.200000 0.380392
0.200000 0.200000 0.380392
0.380392 0.200000 0.380392
0.568627 0.207843 0.388235
0.760784 0.219608 0.400000
0.949020 0.227451 0.407843
0.019608 0.380392 0.380392
0.200000 0.380392 0.380392
0.380392 0.380392 0.380392
0.568627 0.388235 0.388235
0.760784 0.400000 0.400000
0.949020 0.407843 0.407843
0.027451 0.568627 0.388235
0.207843 0.568627 0.388235
0.388235 0.568627 0.388235
0.568627 0.568627 0.388235
0.760784 0.580392 0.400000
0.949020 0.588235 0.407843
0.039216 0.760784 0.400000
0.219608 0.760784 0.400000
0.400000 0.760784 0.400000
0.580392 0.760784 0.400000
0.760784 0.760784 0.400000
0.949020 0.768627 0.407843
0.047059 0.949020 0.407843
0.227451 0.949020 0.407843
0.407843 0.949020 0.407843
0.588235 0.949020 0.407843
0.768627 0.949020 0.407843
0.949020 0.949020 0.407843
0.027451 0.027451 0.568627
0.207843 0.027451 0.568627
0.388235 0.027451 0.568627
0.568627 0.027451 0.568627
0.760784 0.039216 0.580392
0.949020 0.047059 0.588235
0.027451 0.207843 0.568627
0.207843 0.207843 0.568627
0.388235 0.207843 0.568627
0.568627 0.207843 0.568627
0.760784 0.219608 0.580392
0.949020 0.227451 0.588235
0.027451 0.388235 0.568627
0.207843 0.388235 0.568627
0.388235 0.388235 0.568627
0.568627 0.388235 0.568627
0.760784 0.400000 0.580392
0.949020 0.407843 0.588235
0.027451 0.568627 0.568627
0.207843 0.568627 0.568627
0.388235 0.568627 0.568627
0.568627 0.568627 0.568627
0.760784 0.580392 0.580392
0.949020 0.588235 0.588235
0.039216 0.760784 0.580392
0.219608 0.760784 0.580392
0.400000 0.760784 0.580392
0.580392 0.760784 0.580392
0.760784 0.760784 0.580392
0.949020 0.768627 0.588235
0.047059 0.949020 0.588235
0.227451 0.949020 0.588235
0.407843 0.949020 0.588235
0.588235 0.949020 0.588235
0.768627 0.949020 0.588235
0.949020 0.949020 0.588235
0.039216 0.039216 0.760784
0.219608 0.039216 0.760784
0.400000 0.039216 0.760784
0.580392 0.039216 0.760784
0.760784 0.039216 0.760784
0.949020 0.047059 0.768627
0.039216 0.219608 0.760784
0.219608 0.219608 0.760784
0.400000 0.219608 0.760784
0.580392 0.219608 0.760784
0.760784 0.219608 0.760784
0.949020 0.227451 0.768627
0.039216 0.400000 0.760784
0.219608 0.400000 0.760784
0.400000 0.400000 0.760784
0.580392 0.400000 0.760784
0.760784 0.400000 0.760784
0.949020 0.407843 0.768627
0.039216 0.580392 0.760784
0.219608 0.580392 0.760784
0.400000 0.580392 0.760784
0.580392 0.580392 0.760784
0.760784 0.580392 0.760784
0.949020 0.588235 0.768627
0.039216 0.760784 0.760784
0.219608 0.760784 0.760784
0.400000 0.760784 0.760784
0.580392 0.760784 0.760784
0.760784 0.760784 0.760784
0.949020 0.768627 0.768627
0.047059 0.949020 0.768627
0.227451 0.949020 0.768627
0.407843 0.949020 0.768627
0.588235 0.949020 0.768627
0.768627 0.949020 0.768627
0.949020 0.949020 0.768627
0.047059 0.047059 0.949020
0.227451 0.047059 0.949020
0.407843 0.047059 0.949020
0.588235 0.047059 0.949020
0.768627 0.047059 0.949020
0.949020 0.047059 0.949020
0.047059 0.227451 0.949020
0.227451 0.227451 0.949020
0.407843 0.227451 0.949020
0.588235 0.227451 0.949020
0.768627 0.227451 0.949020
0.949020 0.227451 0.949020
0.047059 0.407843 0.949020
0.227451 0.407843 0.949020
0.407843 0.407843 0.949020
0.588235 0.407843 0.949020
0.768627 0.407843 0.949020
0.949020 0.407843 0.949020
0.047059 0.588235 0.949020
0.227451 0.588235 0.949020
0.407843 0.588235 0.949020
0.588235 0.588235 0.949020
0.768627 0.588235 0.949020
0.949020 0.588235 0.949020
0.047059 0.768627 0.949020
0.227451 0.768627 0.949020
0.407843 0.768627 0.949020
0.588235 0.768627 0.949020
0.768627 0.768627 0.949020
0.949020 0.768627 0.949020
0.047059 0.949020 0.949020
0.227451 0.949020 0.949020
0.407843 0.949020 0.949020
0.588235 0.949020 0.949020
0.768627 0.949020 0.949020
0.949020 0.949020 0.949020
